/* XPM */
static char * path_to_the_west_texture_xpm[] = {
"393 393 190 2",
"  	c #BCA38C",
". 	c #B79879",
"+ 	c #76613B",
"@ 	c #6B542D",
"# 	c #745D3A",
"$ 	c #735C34",
"% 	c #715633",
"& 	c #766035",
"* 	c #766242",
"= 	c #7B633C",
"- 	c #795E3B",
"; 	c #796236",
"> 	c #816A3E",
", 	c #7E693E",
"' 	c #7C6542",
") 	c #7E6943",
"! 	c #826B44",
"~ 	c #846D4A",
"{ 	c #816643",
"] 	c #896A48",
"^ 	c #89734C",
"/ 	c #745D41",
"( 	c #7C674A",
"_ 	c #847254",
": 	c #8A7453",
"< 	c #85755A",
"[ 	c #8A795D",
"} 	c #89765B",
"| 	c #85714B",
"1 	c #857046",
"2 	c #6E5933",
"3 	c #6C5532",
"4 	c #655232",
"5 	c #634E31",
"6 	c #634E2C",
"7 	c #5D4B2C",
"8 	c #5A4627",
"9 	c #5A4836",
"0 	c #6E5A3A",
"a 	c #6C563A",
"b 	c #BCA185",
"c 	c #AB9379",
"d 	c #785937",
"e 	c #6E592D",
"f 	c #65533A",
"g 	c #897858",
"h 	c #573727",
"i 	c #4B2C15",
"j 	c #37240A",
"k 	c #6B5325",
"l 	c #66512C",
"m 	c #483629",
"n 	c #655126",
"o 	c #634D25",
"p 	c #C1A692",
"q 	c #B69C84",
"r 	c #72562C",
"s 	c #BDA593",
"t 	c #C2AA93",
"u 	c #A88A76",
"v 	c #694A28",
"w 	c #674937",
"x 	c #695746",
"y 	c #A7876A",
"z 	c #785946",
"A 	c #5C451A",
"B 	c #856B56",
"C 	c #C1A48C",
"D 	c #977C65",
"E 	c #CEAC96",
"F 	c #715A2E",
"G 	c #9A7855",
"H 	c #C3A489",
"I 	c #BA9E89",
"J 	c #6C5927",
"K 	c #BB9E84",
"L 	c #664A1A",
"M 	c #C2A27A",
"N 	c #BB9C7D",
"O 	c #B2946B",
"P 	c #A38463",
"Q 	c #7E6837",
"R 	c #8A7347",
"S 	c #A5835C",
"T 	c #AD8963",
"U 	c #A58255",
"V 	c #77612E",
"W 	c #96744B",
"X 	c #886438",
"Y 	c #58371A",
"Z 	c #885839",
"` 	c #25160A",
" .	c #31180F",
"..	c #372518",
"+.	c #221915",
"@.	c #4A1B10",
"#.	c #211613",
"$.	c #1A130D",
"%.	c #1B1306",
"&.	c #2A1B18",
"*.	c #160B08",
"=.	c #120E0C",
"-.	c #1A1514",
";.	c #0B0A06",
">.	c #15110D",
",.	c #794A36",
"'.	c #4E312B",
").	c #1C1915",
"!.	c #3B322B",
"~.	c #673B26",
"{.	c #6D3A2E",
"].	c #19161C",
"^.	c #352A28",
"/.	c #76462A",
"(.	c #1A191C",
"_.	c #241C1A",
":.	c #29211C",
"<.	c #854C35",
"[.	c #8A4F2F",
"}.	c #94583C",
"|.	c #7A6856",
"1.	c #975C44",
"2.	c #895845",
"3.	c #996646",
"4.	c #A3674B",
"5.	c #140E17",
"6.	c #996856",
"7.	c #9A5D53",
"8.	c #91653B",
"9.	c #463937",
"0.	c #A66B54",
"a.	c #4F4437",
"b.	c #6C501B",
"c.	c #946A3C",
"d.	c #351C22",
"e.	c #131215",
"f.	c #0C0B0C",
"g.	c #110F13",
"h.	c #292427",
"i.	c #8A5854",
"j.	c #6D534F",
"k.	c #B4795B",
"l.	c #A1583D",
"m.	c #B67C65",
"n.	c #B98469",
"o.	c #66351A",
"p.	c #574946",
"q.	c #A67856",
"r.	c #A87966",
"s.	c #9D734B",
"t.	c #716657",
"u.	c #B88977",
"v.	c #C38A72",
"w.	c #A97673",
"x.	c #8F716E",
"y.	c #988B8A",
"z.	c #ADA297",
"A.	c #B39CA3",
"B.	c #B6AAA8",
"C.	c #A9908E",
"D.	c #B7AEAD",
"E.	c #746A6B",
"F.	c #9A8677",
"G.	c #908473",
"H.	c #8B7967",
"I.	c #544E55",
"J.	c #615866",
"K.	c #060505",
"L.	c #494449",
"M.	c #A99687",
"N.	c #090606",
"O.	c #B5A395",
"P.	c #BDAA9C",
"Q.	c #383338",
"R.	c #BEACA1",
"S.	c #211E24",
"T.	c #09070A",
"U.	c #0E0D11",
"V.	c #CAB6B5",
"W.	c #C7B5A9",
"X.	c #BA9895",
"Y.	c #8D7B62",
"Z.	c #9A8267",
"`.	c #171819",
" +	c #0F1011",
".+	c #241E27",
"++	c #1C1A21",
"@+	c #15141A",
"#+	c #191720",
"$+	c #3F403F",
"      . + @ # $ % % % % # # # % % $ # # % # # % % # # # % % % # % % % # $ $ $ & # $ & + + # $ # + # # # * * + # # = # # # # = + # # # # # = + # # # - - # = # # # # # & & # + + + = + + = + + = = = = # # # # # # # # + + + + $ $ & + ; & $ $ $ & + + + + + + + = + & ; + + # + = ; + = + + = = = = = + = = + = ; ; > , > , = = , = ' ' ' ) ) ' ' ) ) ) ' ' ! ) ) ! ! ) ~ ' ' ' ' ' ' ) ' { ' ! ! ! { { { { ! { ' { ~ { ' ' ! ! ' ' ) ! ! ! * ) ! ! ~ ~ ! ! ~ ! ! ! ~ ~ ! ' ~ ! ~ ~ ~ ~ ~ ] ~ ! ~ ] ] ^ ~ ~ ! ~ ~ { { { { { ) ) ) ' { ) * * = = ' ) * / ' / ' ( ( ~ _ _ _ : < < _ < [ } : _ | ~ ' ) ~ ~ ) ) ) ! ~ ~ ! ! ~ ~ ~ ~ ~ ~ ! ! ! ~ 1 1 ~ ~ ~ ~ 1 | 1 ! ! ! ! 1 ! , = ) + 2 + + 3 3 3 # 4 5 5 6 7 7 7 8 8 8 8 7 9 7 4 0 a 4 / # 0 # # + * * ' ) ' ) = = ' ' ' ' ' ' ' + # # + ) + + ' ' + # # * ' * + # # ",
"    b c = @ # $ 2 % % # d % % % $ # + # % # # % # # % # # % # # % # # # # $ # + $ # # $ # = = # = * * * * # # # # # - # # = = + # # # # # = + # # # = = # = = # + + # ; & # + # # # # # # # + # # # # = + * * # # # + = + = + + + + + + + = = + + = + # + + + # + + # # + + ; = = # + > + + = = + + + + + + + = = = > = = , ; = ; = = ) ' ' ' = ' ' ' ) ' ' ' ' ) ! { = { = = ! ' = ' * ' ! ' ! ' ' ' { ' ' { ) ' ) { ) { { ! ! ! ' ! ! ) ! ) ! ! ! ! ) ! ~ ~ ) ! ! ~ ~ ~ ! ~ ' ~ ~ | ~ ~ ~ ~ ! ! ! ! ] ~ ] ~ ~ ~ { { ' ' ' ) ) ) ' ' * ' ' = = = # * * * ) ' / ' ( _ _ _ : [ } _ < } : _ ~ | ~ ' ~ ~ ! ) ' ) ) ) ~ ! ~ | ~ ~ ~ ~ ~ ~ ! ! ! ~ ~ ~ 1 1 1 1 ~ ! ) ) ) ) ! , + e 2 2 2 # 3 4 7 7 6 5 7 8 8 8 8 8 8 7 7 5 5 f 4 4 a 0 0 # # # # * ( ) ' ' ~ ! ! ! ! ! ^ ! ' = ' ) ! ~ ' + ) ' + ' ' + + + ( ' ' ' ) ' ",
"    b c = @ $ 2 % # % % % % # $ $ # + # % # + % # # % % # # # # # # # # # # + # # + + $ $ + + $ # # # # # * + # # = = # # # # # # # # # # - - = = # = = = - # + + + # ; & & ; # + # # + # # # # # # # + % + + # ' + + + $ = + + + + & & & ; ; ; = + + + = = + # = + + ; ; + ; + + # + = + + = ; = = = = = + + ; = ; , = = > = > = = ' ) ) ' ' ' ' ) ) ) ) ' ' ' ! ~ ! ' ! ' ' ! ' ' ' ' ' ! ! { { ! { ! ! ' { ) ) ) ' ' { { ' ! ! ! ! ~ ) ! ~ ~ ! ! ) ' ! ! ~ ! ) ! ! ~ ! ! ~ ) ~ ~ ~ ! ~ ~ ~ ! ~ ~ { ~ ~ | ~ ~ ~ { { ) ' * ) ) * = * # = ' = = = # # = * * ' ( ( { ~ : _ < [ [ _ < g _ _ ~ | ~ ~ ~ ) ! ! ' ) ) ' ~ ! ! 1 ~ 1 ~ ~ ! ~ ~ ~ ~ ! ! ~ 1 1 ! ! ) ) ) ) ) = & & + 3 3 3 0 3 5 4 8 8 8 8 h h i h 8 8 5 5 5 f f a 0 a 0 / / / # * ( * ' ) ! ! ! ! ! ! ! ! ' = ) ) ! ! ) ) 1 ) = ' ' ' # 0 # * * + + + * + ",
"    b c + @ # $ % % % % % # # $ $ $ # # % # # # # # % % # # # # # # # # # + $ $ $ # + + $ # # # # # # # # * * # # # # # # # # - + + # # # # # = * # # = # # # + + & # ; & & + ; + + + + + = = = = = = = $ # # # = # # # # = + + # # & + + # $ # = = + + = + # # = = + ; + + + + + + + + + + ; + + + = = ; = ; = , = , = = > = > = = ' ' ' ) ' ' ' ) ) ' ' ) ) ) ' ' * ' ! = = ' ' ' ' ! ' ' ! ' ! ! { { ' ' { ) ' ) { { { { ! ! ! ! ) ! ! ) ) ! ! ! ! ) ~ ! ~ ! ) ' ! ! ' * ~ ' ~ ~ ~ ~ ~ ^ | ! ~ ~ ! ~ ~ ~ ~ ~ ~ { ~ ~ ' ) ) ' ' # ' = = ! = # = = # * ) / / ~ ' ~ _ : _ : [ [ _ g g : _ | ~ ~ ) 1 ' ) ~ ) ! ! ' ! ! ) ) ! 1 1 1 ! ! ! ! ! ! 1 1 ! ! ) ) ) ) ' = ) = 2 2 2 0 0 4 4 4 5 8 h h i j h h h 8 8 7 5 5 f 0 f 0 0 0 / * / / * ) ~ ~ ~ ~ ~ ! ' ' ! ! ! ! ' ! ^ ! ' ) ) = ) ' + ' ' + + ' * + + # + + * # ",
"      c - k # 2 % % % % % # % $ $ % # # # # # % # # # # # # # # # # # # + # # # $ $ & + $ $ # + + + * * # # # # # # # - - # # # # # % # # # # # - - - # = + + + + + ; + & ; + # + + # + # # = # # # + = = = = # # + + = = = = + = = + & + + & # + + + + + # + + + + & + + # + = + + = = + # + = + + = ; ; = = ; = ; = = = = ; ! = = ' ' ' ' ' ' ' ' ' ' ' ' ' ) ) ! ! ) ~ { ' ! ' ' ' ' ' ' ' ' { ! ' { ! { { ' ) { ) ' ' ' { { ' ' ' ~ ! ) ) ! ! ! ! ) ~ ) ~ ~ ! ! ~ ~ ! ) ~ ' ~ ~ | ~ ~ ~ ~ ! ~ ~ ~ | ~ { ~ ~ ~ { { { ' ~ * * ' ' ' ' = = = = = ' = # ) ' / { / ~ _ _ _ _ [ g < g g : _ | | ( ( ) ' ) ) ) ! ) ' ) ) ! ! ! 1 ! ~ ! ) ! ! ! ) ! ! ) ) ! ) = = = $ 2 @ l 3 l 4 5 8 8 8 8 h h h m i 7 8 8 7 9 5 4 a / 0 a * * * * * ( * ( ( ~ ~ ~ ~ ! ! ! = = = = = ' = ' ' = ' + # + = # 2 # # + ' ' + + * + ' ' # ",
"  b   . # n $ 3 % # # % % # $ $ $ % % # # # # % # # # # # # # # # # # # # $ # + + $ $ $ $ $ $ 2 % # # * # # # + * = # # # - # # # # # # # - = # # = = # = = = + # # # ; # ; + # + + # = # # = $ # # # # # + = + # + + + + + + # = = + + + + + + + # # + + + = = = = # # + # # ; + ; + = = # + ! = ; = ; + = = = + + ; = = = = ! ' = ' ' ) ' = ' ' ' ) ' ) ' ' ) ) ' = ' ' ' ' ' ' ' ' ' ' ' ! ' ! ! = = { { { ' ) ~ { ' ' { ! ! ' ' ' ~ ) ! ) ) ) ~ ~ ) ~ ! ~ ~ ! ' ! ~ ! ' ~ ' ~ ~ ~ ~ | ^ ^ ~ | ~ ~ | ~ { ~ ~ ~ { ' ' * ! ' = ' { = = = # = ' = ! * # ) ' ' ~ ' ( ~ _ _ _ g g g g g : : _ ~ ( ~ ~ ) ) ' = = = ) ! ) ! ) ! ! ) ) ! ) ) ! ) ) ) ) ) ) ) + $ 2 $ 2 2 @ l 3 7 8 8 8 8 h 8 h h 8 7 9 5 5 5 4 a a 0 / / * * * ( ( ( ( ( ( ~ ) ) ~ ! ' ) ) = = = + + + = = = ) ' = + # # = + 2 + + + + + + + + # * + # ",
"      . $ o # 3 2 2 # # % % @ % # # 2 # # # # # # # # # # # # # # # + + # 0 $ $ $ $ $ $ $ # $ 2 % # + * * # # + # # # # # # # = - # # = = # = # = ' = # - = + + # # # & # # # # # # # + # + = # = ' = = $ # + + + = + + + = + + + + + = + + + + + + + + + + = = = + # # = + ; + = + + = = + + = + + ; + = = = > = = = = = = = ) ) ' ' ' ) ) ' = ' ) ! ) ' ' ) ) ! { ' ! ! ' ' ' ' ' ' ! ' = ! = ' { ' { { { ! { ) { { { ' ' { { ' ' ! ! ) ! ' ) ! ! ~ ! ! ~ ~ ) ! ! ~ ! ! ' | ' ~ ~ ~ ~ ~ ^ ^ ! ~ ~ ~ | ~ ~ _ ~ { { ( ' * ! ' = ' ' = = = = + + + ' ' * ) ' ' ( ' ( ~ ~ _ _ g g g g : : : : ~ ( 1 ) ' ~ ) ' ' ' ) ) ) ) ! ! ! ) ) ) ) ) ) ) ) ) ' = + # 0 2 @ @ @ @ 6 6 6 7 8 h h h m h h 8 9 5 4 4 4 4 4 0 / * * / * ( * ( ( ( ( ( ( ~ ) * ) ' = = = + = = + + + = = # + + # = = # $ # + ' # 2 + # * + ' * ' ' ' ",
"    p q r o # 3 2 2 # % % # 3 % % # % # # # % # # # # # # # # # # + + # + + + + & $ + + $ + # # + + * # # # + # # # # = = # # # # # # = # % d - = = # # - # + + # # & & + + + + # + + + + # # = + % % + + + ; # + + = + + = + = + + + + + + + + + + + + + + + # # + + & ; ; + + ; # + = + + = ; & + + ; , ; ; , + ; = ; = ) ) = ) ' = ' ' = ' ' ' ' ' ' ' ' ' ' ' ' ' ' ' ' { ! ' ' ' ' ' ' ! ' ' ' ' { { { { { ) { { { { { ' ' { { ) ) ! ! ' ! ! ' ' ) ) ! ! ) ) ) ~ ~ ! ) ~ { ~ ~ ~ ~ ~ ~ ~ ~ | | ~ | { ~ ~ { ( { ~ ' ) ' ' ' ! ' ' = = = + = + = * * * ' ' ' ' ) ~ ~ _ : g g g : _ _ _ : _ ( : ~ ' ) ) ' 1 ) ) ) ) ) ) ! ) ) ! ) ) ) , , , = + = + 0 0 0 3 n n @ 8 8 8 7 h m h 9 9 9 9 9 8 8 7 4 4 0 0 0 0 0 * * * ( ( * ( ( ( ( * ( ) ' ' ' = + + # + + + ; ; + = + + $ $ + $ % # + + + + * * ' ' * ) * ) ) ~ ",
"s   t u r v % 3 % % % % # % 3 % % # # # # # # # % 2 $ % # # # # # + + # # + + + + $ + + $ + # # + + + ' # # # # # + # = # # # # # # # - # % # - = - # # # # % # # # + # + + + + # + + + + # + + + = $ & + ; + + + + + + + + + + + + + + + = = + # + + + + # # # # & + ; + ; + & & & + ) + + = = # ; + = ) ; ; , + ; = = = ) ) = ) ' = ' ' = = = = = ' ' = = = = ' ' ' ' ' ' { { { ' = = ' ! ! ! = ' ! { { { ) { { { ) { { { { { { ! ' ' ! ! ' ! ! ' ' ! ) ) ! ' ' ) ~ ~ ! ) ~ ~ ~ ~ ~ ~ ~ ~ ~ ~ ~ | ~ ~ ~ ~ ~ ~ { ~ ~ ' ) * * ' ! ' ' = = = = = = = = = = * ' ' ) ) ~ ~ _ g : } g _ : _ _ : _ _ : | ) ) * ) ~ ) ) ' + ) ! ) ) ) ~ ! ) , = + = e 2 @ 6 l 4 l 4 3 4 7 8 8 8 h 8 8 8 9 9 9 9 w f f a 0 # * * # * ' ( ( ' ( ( * ( ( ( * * * ) ' = = = # # # # ; # + ; & & # $ # $ $ + $ % + = # + ' * * * ) ) ~ ( ) ~ ",
"s   t u % @ % 3 2 $ % # # % % 3 % % 2 # # # # # 2 2 2 2 # # # # # # # # + $ $ $ $ $ $ $ 2 # # # # # # # # + + # # # # # # # = # = = # = ' = = = = = - # + + = = - # + # + + + + # + # + # # + # + = + & = = + + & = ) ; ; = + + = = + + + + + + + + + # # # + ; + + ; + + # + = = & # ) + $ = = + = = = = = = , = = = = = = = ' ) ) = = = = = = = = ) ) ' ) ' ) ! ! { ' * ' ' ' ! ! = { ! ' ! ! = { ! { { { ) { { ) { { ' { ! { { ! ! ! ! ! ' ! ! ! ) ' ! ! ! ' ' ! ! ~ ! ) ~ ~ ~ ~ ~ ~ ~ ~ ~ ~ ~ ~ ~ ~ ~ ~ ~ ~ { ( ) * ) ) ' ' ' = = = = = = + = = = = = ' ' ' ) ) ~ ~ ~ _ : : : : : : _ _ _ ( ~ ~ ~ _ ( ~ | | | | ~ | ~ ) ) ! ~ = = ) = $ = @ n o 8 8 8 8 8 7 8 8 8 8 8 8 5 5 w 9 f x f f / / / ' # # # # # / * * / * ( ' ' ( ( ) ) ) ' ' ' + = + + # # ; $ ; $ $ $ $ & + & $ + + = = = + * * # * + ) ) ~ ~ ~ ~ ",
"    t y % r % 3 2 + 2 $ # 3 # 2 # % % # # % % 2 2 $ # # + # # # # # # + = % $ # $ + + $ $ + # # # # # # # # # # # # # # # * = # = = # # = + # - # - = - = = = = - - = + = + + + + + # # + + = + + + + + + & + + # & + + & # + + + + # # # # = ' = + + # $ + + + + + ; & ; ; # & + + & + = + = + + = = = + = = = ) ) = = = ; = ) ) ) ) ! ! = = ! ! ! ) = = = = = = ' ) ) ) ' ' ' ! ' = ! ! ! { ' ! ! ' ! { ' ~ { ) { { ) { ) ' ~ { ' ' ! ' ! ' ' ! ! ! ' ! ! ! ! ! ! ! ~ ~ ~ ~ ~ ~ ~ ~ ~ ~ ~ ~ ~ ~ ^ ~ ~ ~ { { ~ ~ ( ! ) ) ! ) = = = = = = = = + = + + = = ' ' ' ) ~ ~ | : : : g : : : } : _ _ _ _ _ : : | | | | ~ ~ ( ~ ~ ~ ~ ( ) ) + + + 2 2 o 6 n 8 8 8 8 8 8 8 8 7 7 7 5 5 a f f x x x x / / / / # # * * * ) ) ) * * ) ( ( * * * * = ' ' = # = + + + + = ; + & $ $ $ $ $ $ # # + + = ' ' ' ' ' * * ~ ( ( ~ ~ ~ ",
"    t y % % % 3 3 + 2 3 # 3 # 0 # # # # $ # $ % % 2 2 2 0 # # # # # 2 # + 2 # + $ + + + + = + + + # # * * # # # # # * * * * # # # # % % # % # # # # - + # # # # # # # # + # # + # + # # # + = + + + + + $ & , + # # & + # # + + = = + * * = * * # # # # + = + $ # & ; & ; + $ , = + + + ) # + = = = = = = , = = = = = = = = = ) = = = = = = = = = = = = = ) ) ! ) ' ) ) ) { ! ! ' ' ! ! ! ! ! ' ! ! ' { { ) ~ { ' { { { ~ ' ' ! ! ! ! ' ' ! ' ) ! ! ' ' ' ) ' ' ! ~ ~ ) ~ ~ ~ ! ~ ~ ~ ~ ~ ~ ~ ~ ~ ~ ~ ~ ~ ~ ~ { ~ ) ) ! ' ' ' ' ' = = ' = = = = + + = = = ' ' ' ' ' ) ~ | : : g : : g : g : _ _ _ _ _ ~ | _ | _ _ _ ~ ( ( ) ~ * 0 2 3 3 3 o l 7 6 8 8 8 8 8 8 8 7 5 5 5 a a a f x x x f / / f / / * * ' * + + * * * * = * = ) ) * * = = + + + # # # + + # & & ; $ $ $ $ $ $ $ $ # + + + + + * * ) ' ' ) ' ) ) ~ ~ ",
"    t y % % % % 3 $ 2 2 % 3 # 0 # # + # # # % 2 # $ 0 # 0 0 0 0 0 # # # # 2 # + $ $ $ # # + # # # # # = * + = + # # * # # # # = # # % # # % # # # $ $ # % % # # = # # + + + + = + = + # + + + + + + + + & + + + # + ; + + = # $ = * * * * / # # # # + = = = + # # # $ # ; , + ; + + & + + # = = + + = = = ) = = = = = = , , = = = = = = = = = = = = ) = = ) ' ' ! ! ! ' ' { ! ! ' ! ! ! ' ' ! ! ! { { { ! ) { { ) { ) { ~ { ! { { ! ! ' ! ) ) ! ! ) ' ! = = = ) ! ! ! ' ~ ~ ! ~ ~ ~ ~ ) ~ ~ ~ ~ ~ ~ ~ ~ ~ _ ~ ) { ) ' ! * ' ' ' ' = * ' = = = = + + = = = = ' ' ' ' ~ ~ ~ : : : : g g : g g _ ~ ~ _ ~ ( _ _ ( ~ _ : ~ ( ( * * # 3 6 6 l 4 n l 8 7 8 8 8 8 8 8 7 5 a a a a / / / / z z x ( ( / ( ' * + * + + + = # + * ' * # = ' ' = = = = + + # & ; ; ; # & # # # $ $ 3 @ 2 # # # + # # # # # # # * * / # # / ) ) ",
"    t y % % % % % 2 2 2 $ 3 % # # # # # # # # 2 2 $ 2 $ + 0 0 # 0 # # # # $ # + + $ $ # # # # # # # # # # # # + # # # # # + # + # # # - - # = - = # # = # # # # - + # + + + = = # = # # + # # + + + # + = + $ + + + ; & & + # # + * * / # # # # * ' ' ' = + # + + ; & ; + ; ; & ; = & + + + ' = = = = = = ) , = = = = = = = = ) ) ! ! ! ! ! ) ! ) ) ) = = = = = = ' ! ' ! ~ ! { ! ! ' ! ! ' ! ~ ! { ' ! ! ' { { { ~ ) ' ! ! ! ! ' ' ' = ) ' ' ! ! ! ) ! ! ) ! ! ! ! ~ ) ~ ~ ) ~ ~ ~ ~ ~ ~ ~ ~ ~ ~ ~ ~ ~ ~ ~ ~ * ) ) ) ~ ' ! ! = = = = = = = = + = = = = = = = ' ' ) ~ | _ : : : g : : [ g : : _ _ _ _ | _ ( ( ( ( ( * * ' * / 0 4 3 l l l 8 7 A 8 8 8 8 7 5 f a a / / / / / / z z ( ( ( ~ ( ( ( ( ( + * * = = = = = = = ' = = = = = = = = + + + + + ; + ; + + + + ; , = + = = = = ' + # / # # / * / / / a # # # # ",
"    t u r % d % 3 2 2 2 $ 3 2 # # # % # # # # 2 2 2 2 0 + # # + # # # # # % + # # # $ + + + # + # # = # # + # = * # # # # # # # # # - - + = # # - - + - # - - # # # + + + + = + $ # # # + # # + = + # # + + ; + + # + + # # + + = * ) * * * # # # = + + + # # + + & & ; ; ; + + + # # = + # = = + = = = = , , = ) , = = = = = ) ) ! ) = ) ! ! ! = = ! ! ! = = ) ! ! ! { ' ~ ! { ! ! = ! ~ ! ' ! ! ! ' ! ' { ! { ~ ~ ~ { { { ' ! ! ! ' ! ) ! = ! ! ! ) = ) ) ! ) ! ! ! ~ ~ ~ ~ ~ ~ ~ ~ ~ ~ ~ ~ ~ ^ : ~ ~ ~ ~ ~ ~ ~ ! ) ) = ! ! = ' ' = = = = = = = = = = = = = ' ) ) ) ) | : : : [ : : [ : ~ : | ~ ~ ~ _ ~ ( ( ( ( * * * # 0 a 3 7 4 7 7 8 8 8 8 8 7 7 7 4 4 a / / / / / / z ( z ( ( z B ( ( ~ ' ( * # + = = = = = = # + = = = = = = ) = = + = , ; + + = = = = = = = ) = + = = # # + # # # # # / # # 3 / # # # 0 # ",
"    t y r % % % % 2 2 2 $ % 2 0 # # # # $ $ 2 2 2 2 $ # 0 $ # # + + # # + # + # $ $ $ # $ % 3 # # + * # + * # # * * + # # # # + = # = # + = % # # # # $ # - - = # # + # = = = = + = + = + + = = = = # $ # + + $ + + $ # + + + # # + * * * * * + + + + + # # + + + & + # = = = = = = + = = = + = = = = = = = = = = = = = = = = ) ) = = = = = ) ) ) ! ) ) ) ) = = ) ! ! ! ' ' ' ' ! ! ! ! ! ! ! ! ! ! ' { { ~ ~ { { { ~ ~ { ' ' { ! ! ! ! ' ! ' ) ! ! ! = ! ! ! ) ! ! ) ~ ! ! ~ ) ~ ~ ~ ~ ~ ~ ~ ~ ~ ~ ~ ~ ~ ~ ~ ~ ~ ) ' ' = ' ' ' ' ' ' = = = = = = = = = = = ' ' ' ) ~ ! ~ : : : : : : : : : : : : | ~ _ ~ ( * * ( # 0 0 4 3 a 3 7 8 8 8 8 7 7 6 3 4 6 4 0 a a a a ( ( / ' z z / ( B / ( ( ( ( # ( ' + # + # = + $ # # = + + ; ) = ; , = = + = , = + & ; = + ; + + + + # + + # # # = = * / / / * # # 3 # # # # 0 # ",
"  C t D % r % @ 3 0 2 2 2 # 2 2 # # $ % $ # # # # 2 0 0 2 $ # 2 # # # + = # + # $ $ + $ % # 2 # # + = = # # # # # * * * + # # = # % = % # + # = = - - # - # # - # % # # # = # = = = # + # # = # + + # + = # % + + + = + # # = = # # # + + + * * = + + + + + + + + + ; & ; & & & = ; # = ' = # + = = = = = = = , = = = = = = = = ) = , ) = = = = = = = = = ! ! ! ! ! ' ! ! ' ' ! ' ' ! ! ! ! ~ ! ' ' ' { ! ) ~ ~ ) ~ { { ~ { ) ! ' ' ! ) ! ! ! ) ! ! ! ! ! ! ) ) ! ! ) ~ ) ! ~ ) ~ ~ ~ ~ ~ ~ ~ ~ ~ ~ ~ ~ ~ ~ ~ ~ ) ) ' ' ) = = = = = ' ' = = = = + + = = = = ' ' ' ' ~ ~ : : : : : : : : : : : : ~ | ) ~ ) ' # 0 0 4 6 l l 3 3 5 8 8 7 7 7 4 4 4 4 4 3 a a a / / a ( ( / ( / ' ( / ( ( ( ( ' ( * * ' = + = # = + + + = ! = ; + , = & , = = ; , ! = ; ; > = = = = > ! ' ' ' = = ' ' = = * + # # # # / / # # # a a # ",
"  p t D % r % @ @ $ 2 2 $ # 2 2 0 % % # # # # 2 2 0 # $ # # 0 2 2 2 % % # 2 2 $ $ $ # $ 2 = = # # # # # # # + + # # # # # # + = + - = # % # # # = - # = = # # = = = * = * = # = = = # # # + * # = + # = = # = ' $ $ ' = $ + + + = = = + = + = = + # + + + ; ; + + = ; & , ; & & + ; + = = = = ) = = = = = = = , = = = = = = , , ) ! ! ! ! ! ! ! ! ! ) ) = = = = = ' ' ' ' ! ! ! ! ' ' ' ' ! ~ ~ ' ' ) ) ! ) ~ ~ { ~ ) ) ~ ~ ~ ) ' ) ! ) ! ! ! ! ! ' ' ! ! ! ' ' ) ! ~ ~ ~ ~ ~ ~ ~ ~ ~ ~ ~ ~ ~ ~ ~ ~ ~ ~ ~ ~ ! ~ ! ! ' ' ! = = ) = = = = ' = = + + + + = ' ' ' ' ' ) * ~ : : : : g : ^ : : ! ~ ~ ' ) + ' = # 2 3 3 l 7 6 7 7 7 8 7 4 4 4 4 4 3 a 4 a a a 0 0 / ( / / / / ' / / ( / ' ' ' ' / ' * + # # # ' # + # = = + = ; ; + , , , ! ! ! , ! ! > > , ! > > > > ! ! ! ) ! = = ' = # # # # + + # # # * # # # # # # ",
"  p E D r r r @ @ $ 2 0 2 # 2 2 2 $ % # # % $ % 3 2 0 2 # + # # # # # $ # # $ # + $ # $ 3 + + 2 # # % # # # + # # # # # # + = # # # = - # = = % - - # = - # = = = = * = * + # # # # # # # # = = = # # + $ % = + # # # # # + + % + = = = = = = = + + + + + + & $ $ ; ; $ ; = & + ; ) = # = = + + + = = = = ) , = = = = = , = , ) = = ! ! ! = = = ! ! = = ) ! ! ! = = ! ' = ' ! ! ! ! = = { ! ! ! { ! { ) ) { { ~ ~ { ~ { ) ! ! ! { ' ' ' ! ! ' ) ! ' ' ! ~ ! ~ ! ! ! ~ ~ ~ ! ! ~ ! ~ ~ ~ ~ ~ ~ ~ ~ ~ ~ ~ ~ ) ) ~ ! ! ' + ' ; ; ) ) = = = = = = + = = + = = ' ' ' ) ~ ( ~ ~ : : : : : : g ^ ! ! ! ) ' + + $ @ 2 3 3 l 6 l 7 8 6 6 4 4 4 a a a a 0 a 0 0 0 / / a 0 0 ( # / / # # / / / / ' / / # # # + # # ' + = + + # $ + + ; ; ! > ! 1 ! ! > ! ! > > > > = = = = = ! = ! ~ ! ' ' = ' ) ' * * * * = # + # # * * # # ",
"  C E D r r r @ F e 2 $ 2 + 2 2 2 $ $ % % % % # $ 2 $ 0 0 # # 0 # # # 2 # + # $ # $ # + $ + # # + + # # = + # # # # = * # + # 2 # # # - # = = # + = # + - # = # # # # # # # = = # = # # = # # = # # = = + # $ # ' = # # = = + + + = = = + + + + + + + & & & & ; + ; ; ; ; ; + + + = = ) ! + ' = + + = = = ) ) ; = = + = ) = , ) = = = = = = = = = = = = ) = = ) ) = = ' ' ' ' ! ! { = ' ~ ~ ! ' ' ) ) ~ ! ) ) ) ~ ~ ~ { ) ) ' ! ! ! ) ~ ~ ~ ' ! ! ! ! ) ~ ~ ~ ! ) ) ~ ~ ~ ! ~ ~ ~ ) ~ ~ ~ ~ ~ ~ ~ ~ ~ ~ ~ ~ ~ ^ ! ' ' = ) = ; , ) = = = = = = = + + = = = = ' ' ' ) ~ ~ ~ : ^ : : g g : ^ 1 ) = + = # 2 @ l 2 2 3 l 6 4 6 6 a 3 a 3 a 0 # / 0 # 3 0 * # 0 / / 0 # * 0 / / / / # ' / / ' / * / 0 * = # # + # ' ' = = = ) , = ; , ; = , , , , > > > ! ! ! ! ! ! ! ! = = ! ! ' ' ' = = ' ' ' ' ' = = = * ) * * * # d ",
"  C t D r k r @ e e 2 0 0 # @ $ 2 $ # # # $ 2 2 $ $ + # 0 # 0 2 0 # 2 3 2 $ $ 2 2 $ $ + # # # # # # # * * # # # # # # # # # # % # = = = # - = # # # # - - - # # - # d # = # ' ' # ' = = * # # = + # ' = = = = = + = = + = = # = = = = + + + + + ; ; & & & & & = = ; ; = & & + & + + + = + # ! = = = = = = ) = = = = = = = = = ) = = = = = ) ) = = = = ! ! = = = = = = = = ) ' ! ! { = ' ! ) ! ~ ' ) ! ! ! ~ ) ) ~ ~ ~ ~ ) ! ! ) ! ~ ~ ~ ~ ~ ~ ! ! ~ ! ! ~ ~ ~ ! ~ ~ ~ ~ ~ ) ~ ~ ~ ~ ~ ~ ~ ~ ~ ~ ~ ~ ~ ~ ~ ~ ~ ~ ! ' ' = , = = , ) ' ' = = = = = = = = = = = ' ' ' ' ~ ~ ~ ^ ~ : g : : ^ ! ! ) + # % 2 @ @ 6 @ 3 3 3 4 4 4 4 a 4 0 0 0 0 0 0 3 # 3 0 + 0 a 0 0 0 / / 0 / # # / / ' / * ' / ' * / * * * * = # # # + = = = = = , , ; , , , ! ! ! , ! ! ! ! ! ! ! ! > = = ' ! { = = = = ' ! ! ! ! ! ! ! = ! = = ' ' = ",
"  C t D k r r @ e @ 2 2 2 # 3 $ $ $ $ # # # # # 2 2 2 2 # # # # 0 # # # # % # $ $ # $ $ $ % 2 # # # # # # # + + # # # # # # # # # # - # # # + = # # - # # # $ # = = # # = # * # # # # # # # # = + # # = + # + = # # + # # ' # % = # = = = = = + + + + ; ; & & & & # = = + ; = = ; ; + = ) = = = = ' = = = = = ) = = ) = + = = = ) ) ) = = = = = = = = ' ! ) ! ! ) ! ! = + ! ! = ! ! { ! ! ' ! ~ ' ! ! ' ! ~ ~ ~ ) ) ) ~ ~ ~ ~ ' ! ! ! ) ! ! ~ ) ! ~ ! ~ ! ~ ) ) ~ ! ! ~ ~ ~ ~ ~ ~ ~ ~ ~ ~ ~ ~ ~ ~ ~ ~ ~ ~ ~ ~ ! ~ ! ' = = ; = ! ) ' = = = = = = = = = = = = = ' ) ~ ~ ~ ~ : : : : ^ : : ! ! = $ # @ @ 2 2 l l l 4 4 4 3 0 0 0 a 0 0 a # 0 0 3 # 3 3 a 4 4 4 4 4 3 a 3 a a a # # # # / / / / # * # # # * * * # = = = = + ; + ; ; = > ! ! ! ! ! ! ! ! ! ! , ! > ! ! ! ! ! { ! ! ! ! ! ! = = ! ! ! ! = = = = ' ! ^ ! ",
"  C t G k r r @ e e 2 2 2 # 2 2 $ # # + # # % 3 2 2 2 # # # # # # # # + + % # + # + $ $ # # # # # # # % % # # # # # # # # # # + $ % # # # # - + # # - % # # # # = = ' = * = + = # # # # # # * + * * # ' ' # # = ' = # + + ' ' # # = = = = = + + & & & & ; ; + & & & ; & + + ; = = = = = = + = = + = + = = + = ) = = ) = + = = = ) ! ! ) ) ! ! ) ) ' = = = + + + + = ! ) = ! ! = = ! ! ! ~ ! ! ! ! ! ' ! ! ) ~ ~ * ~ ) ) ~ ! ) ! ! ! ! ! ! ! ! ! ! ~ ) ) ) ) ) ) ~ ~ ) ) ! ~ ! ) ~ ~ ~ ~ ~ ~ ~ ~ ~ ~ ~ ~ ~ ~ ~ ' ! ! ' ) = = , = = = = = = = = = = = = = = ' ' ' ) ! ~ ~ ~ : g : ^ ^ ^ ^ ~ ! + 3 # 3 @ 2 2 3 4 4 4 4 3 a / * / a a 0 a 0 / * 0 # 0 0 4 4 3 3 4 3 3 4 3 3 3 # # # # # / # # # # * # - # * * ) * ' ' ' = + = + ; ; , , = , ! ! ! , ! ! > > > ! = > ! ! ! ! ! = ! ! ! ! ! > > ! > = ! ! ! = ! ! ! ! ! ",
"  C H : k r r @ e 2 3 2 0 # 2 2 2 $ # # # # # # # # 2 # # # # # # # # # # 2 $ # $ $ $ $ $ # # # # # # # # # # # # # # # # # # # # # # + + # # - # - = # # = = - # # # # # # # = * = = + # = * + = + = * = + = * + + + = = # = ' * ' ' = + + + = ; ; ; ; + ; + & ; + ; ; = = = ; + = + + = = = = = = = = ) = = = = = = = = = = = = = = = = = = = ! ' = = = = = ! = = = ) ! ! ! ! ' ' ' ! ! ! ' ' ! ! ) ! ! ) ) ) ) ~ ~ ' ) ) ) ! ! ! ) ! ! ! ! ! ! ~ ~ ~ ~ ~ ~ ~ ~ ! ) ) ~ ~ ~ { ~ ~ ~ ~ ~ ~ ~ ~ ~ ~ ~ ~ ~ ~ : ~ ! ' = ' = ! , = ) = = ' ' = = = + = = = = ' ' * ' ! ~ ~ ~ ~ ^ : ^ : ^ ) ) ) + # # # 3 4 l 3 4 4 4 3 0 a f x x x a a 0 a 5 3 4 0 3 3 3 3 3 a a a a 5 # 3 3 # # / # / ) / * * / ' ' * * * * # # * = = = + = + = + & ; ; , ! ! ! ! ! ! ! ! ! ! ! ! ! ! ! ! ! > ! ! > > ! > > ! ! ! ! ! ! ! ! ! ! = ! ",
"I   H ^ k r r J F $ 3 % $ # $ 3 2 # # # # # # # # # # # # # # # # 0 # # % % $ # $ $ $ # % # # # # # # # # # # # # # # # # # # # + + + + + # # # # # = # # - - = - # # # # # # = = = = + + = = = = + = + + + * + + + = = * ' ' ' * ' ' * + + + = = ; + ; ; + ; ; ; = = = = = = ; ; = = + + = = = = = = = , = = = = = = = = = = = = = = = = ' = = ! # # ' ' ! = ! ) = = ) ' ! ! ! ! ' ' ! { ! ! ' ! ! ! ! ! ) ' ) ) ! ! ! ' ) ! ! ! ! = ! ! ! ! ! ! ! ~ ! ! ~ ) ) ! ! ! ! ! ~ ~ ! ~ | ~ ~ ~ ~ ~ ~ ~ ~ ~ ~ ~ ~ ! ! ! ' = ' ) ) = = ! ' = * * = = = + + = = * ' * * ) ~ ~ ~ | ~ ~ ^ : ^ ~ ! ' * # * # # 3 3 3 3 3 a a a # a a a a / 3 a # a a a 5 5 7 6 3 4 3 3 3 0 a 0 # # # * ' ' ( ~ { ' ( { ' ' ( ' ' * ) # # ' = = = = = = = & , ; ; , ! , ! ! ! ! ! ! ! ! ! ! ! ! ! ! ! ! ! ! > > ! ! ! ] ! ! ! > > ! ! ! ! 1 > ",
"K b H ] o r r @ F $ 3 $ $ # % 3 2 # # d # # # # # # # # # # # # # # # # 2 % % # $ $ % $ % % # + # # # # # # # # # # # # % % # # + + # $ # # # # % % # % # # % # + # # # + # + + # + + # + # # + # # # + + # + # # + * * * + * ' + # * * + + + + ) = & ; ; ; ; + + + = = + ; = = = ) ) = + = = + = = = = = = = ! ) = = = = ) ' = = = = = = + = = ' ' ' ' ' ! + = ! ! ' ' = = = = ! ' ' ' ' ! ! ! ! ~ ! ' ! ' ' ' * ' ) ! ! ! ! ! ! ! ! ! ! ! ! ! ~ ! ! { ! { ! ~ ! ~ ~ { ! ! ~ ~ ~ ~ ~ ~ ~ ~ ~ ~ | ~ ~ ~ ~ ~ ! { ' ) ) ) ) = = ' ) ' = + + ' = + + + # + * + * ' ) ~ ! ~ ~ ^ | ~ 1 ~ ~ ~ ) * # # # # # # a a a # # a 0 / / / / / / # # a a 3 5 3 3 5 5 5 3 a 3 a a # # # / ) ( ( ~ ~ ( ( ~ _ ( ' ' ) ' ' { # - ! = = = = + ! ) # = ! = ! ) = , ! ! ! ! ! = ! ! ! ! ! ! ! ! > ! ! ! ! ! ! ! ! ! ! ! ! > > > ! ! ! = ",
"K K H ] o r r r F $ 3 % % # % 2 # # # d # # d # # # # # # # # # # # # # 2 % % # % $ $ # # # # # # # # # # # # # # # # # # % # # # # # $ # # $ # $ % % % # # % # # # # # # # # # % % # # + # # # # + = = # # * * * * * * + # * ) ' * * * * + + = + $ & ; + ; + # ; = ! + + = = = = + + = = = , = = = = = = = + + = = = = = = = = { = = ! ' # = ' = ' ! ! ' ' = ! ) = = = = = = ! ! = ! ! ! ! ! ! ! ! = ! ! ! ! ' = ' ' ! ! ! ~ ! ! ! ! ! ! ! ! ! ! ! ! ! ! { ! ~ ! ! ~ ! ! ! ! ~ ~ ~ ~ ~ ~ ~ ~ ~ | | ~ ~ ~ ~ ~ ! ' ) ) ) ) = = ' ' ' ' + + ' + # = * # * ' + + ' ' ! ~ ~ 1 ^ ^ 1 1 ~ 1 ~ ) * * # # a 0 # 0 a a a / / / / a a a a / # a a a a 5 5 a a 3 3 a a a a / / # # / ' ) ( { ( ) ( ~ ~ ) ' ' ' ) ~ ~ - = ) ' ' ' ' = ' ! = = , , ! ! ! ! ! ! ! ! ! ) ! ! = = ! > > ! ! ! ! > > ! ! ! ! ! ! ] ! > > > ! > ! > ",
"I K H { o r r F $ $ 2 2 % # % # # # # d # # # # # # # # # # # # # # # # # # $ # $ $ 2 # # # # # # # # # # # # # # # # # = + + $ $ # + # # # + + # % # # # # # + - # + # # # # # # # + + = + # = + + = * # # * * # # * * * * ) ) * * ( ( ' ' = = ; + + ; ; ; ; + ; = , = = ! = + = = = ' = + + + = = = = = { = = = = + = ! = = = = = ! ! = ' ! ' * = ' ' ' ! ! ) = ' ! = ! ! = ! = = ' ! ! ! ! ! ! ! ! ! ! ' ) ! ' ! ! = = ) ! ! ! ! ! ! ! ! ! ! ! ! ! ! ~ ! ! ' { ! ! ! ! ! ! ~ ~ ~ ~ ~ ~ ~ ~ ~ ~ | ~ ~ ~ ! ! ~ ~ ' = ) ) ' ' ' ' ' ' * + + + + + + + + * + * ' ' ) ~ ~ ~ ~ ~ ^ 1 ~ ~ ~ ) + * # / / # # a # 0 a # # # / # / a a / / a a a # a 3 0 # 3 # # / # 0 0 { / ' ) ( ) ~ ~ ~ ~ ~ ~ ~ ~ ~ ~ ~ ~ ~ { * ) { { ' ' ! = ! ! ! ' ! ! ! ! ! ! ! ! ! , , = , , = = > > ! ! ! > ! > ! ! ! ! ! ! ! ! ! ! ! ! ! ! ] 1 ",
"  K H > v J r F $ $ 2 2 2 # % # # # # # # # # # # # # # # # # # 0 # # # # % % # # # % # % % 2 # # # # # / * # # 2 # # # = = # % $ # + ; + + + + # # # + = = = = = = = = + # # # + = + + + + + = # # # * + # + # # # + * * * * * + + + ' * + + = = = ; ; ; ; ; + ; = = + # = ! = = ! = = = = + + = = = = = ! = = = ' = = = + + = = = ! = = ! ! ' ) ! ' = ' ' ' = = ! ! ! = = = ' ' ! ! = ' ! ! ! ! ! ! ! ! ) = ! ! ! ' ' ' ! ! = ! > ! ! ! ! ! ! ! ! ! ! ! ! ! { ! ! ! ' ! ! ! ! ! ~ ~ ~ ! ~ ~ ! ~ ] ~ ~ ~ ! ! ~ ~ ' = ' ) ' ' ' * ' ' ' ' + * ' + + + # # + = + ' ) ! ! ~ ! 1 ^ 1 ~ ~ ~ ! + * * * / / # 3 # * / / / / / / / / a / / / / / / / 0 # # # ' / / / # # ~ ' { ~ { { : : | ~ | | | | | ~ ~ ~ ~ ~ ' ~ ~ { ' ! ! = ! ' ' ! ! ! ! ! , , , , , = = = , ! , , > > ! ! > = ! ! ] ! > > ! ] ! ! ! 1 1 1 ^ ! ! ! ",
"b K H > L J r F $ $ 2 2 3 % % # # # # # # # # # # 0 0 # # # # # # # # # # % 2 % % # $ # % % 2 # # # # # # # # # # # # # # # # % # # # # + + # # # # # # = + # # # # % + # # + # + + $ # # # = = = + # + + # # # # * * + * + + ' ' * # + + # + = + + + + ; + + + = = = = = = = = = = + = = = = ! ) ' ! = = = = = = = = > = = = ' = = = + = ' ' ) ! ! ! ' ' = ! ' = = = = = = ' ' ' ! ! ' ! ! ! ! ! ! = = ! ! ! ~ ! ' ' ! ! ' = = ! ! ! ! ! ! ! ! ! ! ' ! ! = ! ! ! ! ! ' ! ! ! ! ! ! ~ ~ ! ~ ^ ~ ~ ] ! ] ^ ! ! ! ! ' ' ! ' * * ) * * + + + # # + + + ' = + ' ' ' ) ) ) ! ^ 1 1 1 1 | ~ ~ ! ' ! ) * * ) ) * / * / ' ( ' * / ' ( / ' ' / ' / / ' ' ' / / ' / ' ' ' { { ' ' { ] ~ | ] { ~ ] ] ~ ~ ~ ] ~ ~ ~ ~ ~ ~ ~ ! ! ! ~ ' ! = = ' = = ) , , , = , , = , , , ! , , > > ! > ! ! ! ! > ! > ! ! ! ! ! ! 1 1 1 1 ! ! ! ",
"b H H = L J r e $ $ 2 2 3 % % 2 # # # # # # # # # # # # # # # # # # % # # # % % 2 % 2 % % # # # # # # # # # # # # # # # % % $ # # # $ # # # # # # # # # # # # # # $ $ + # # = + + = # + + + = = = * # + + # * + + * + + * * * ' ' ' ( ) ' = = + = = & ; = + ; = = = = = ' = = = = + = = = = = = = = = = = = { { = = = ! = = { ' = ! + + ' ' ' ' ' ! { ' ! { ! = = = = = ' ' ) = = = = ! ! ! ! ! ! ! + = ! ! ! ~ ' ' ! ~ ) = ! ! = ! ! > > ! ! ! ! ! ! ! ! ! = ' ! ! ! ! ~ ! { ~ ~ ! ~ ~ ! ~ ^ ! ~ ] ! ] ^ ! ! ! ! ' ) ! ) # * ) ) ' ) ' + + + + + + + + + + = ' = ' ) ! | 1 ! 1 1 ^ ~ ! ! ! ~ ) ) ) ) ) ) ) ) ' ' ( ( ( ( ( ( ( ( ( ) ' ' { { { { { / / / ' { ~ ~ { { ] ] ~ ~ ] ~ ] ~ ] ~ ~ ~ ~ ~ ~ ~ { ~ ~ ~ ~ ~ ~ ' ! ! ! ! ' = = = = ; ; ; ; , , = = = , ! > ! ! > > > ! ! ! ! ! ! ! ! ! ! > > ! ! 1 1 1 ! ! ! ",
"  H M = L J r @ $ $ 3 2 @ 2 2 3 # # # # # # # # # d # # # # # # # # # % 3 # % % % # % % % # # # # # # # # # # # # # # # # $ # # # # # # # # # # # # + + # # # # # # # + + + = + # + + = = + # # # + # # # # + + + * + # + + * ' * + + ' = + = + = = + ; = = = = + = ' = = = = ! ! = = = + ) = # = + = ! ! = = = ' ! ! = = > ! = = ' = = ! ! ' ' * ! ' ' ! ' ! = = = = ! ) = = = ! ! = ! ' = ! ! ! ! = ) ! ! ' ! ' ' ! ! ! ) 1 ! ; > ! ! ! ! > ! ! = ^ ! ! ] = = = ! ! ! ! ! ! ~ ~ ! ~ ^ ! ~ ~ ! ^ ^ ! ] ^ ! ! ! ! ' ' ! ' * ' ) ' ' ) ' + * * + = + # + + # = ' = ) ! ! 1 1 1 1 ^ ^ | ~ ~ ~ ! ) ~ | ~ ) ~ ~ _ ~ ~ ~ ~ ~ ~ ( ~ ~ ( ( ~ { ~ ~ { { { { { ' ' ' { ~ ~ { | | ~ ~ ~ ] ] | ] ~ ~ ] ] | ] ~ ~ ~ ~ ~ { ! ~ ~ { ' ' ' ' = = = + ; ; + ; + + + ; = = ) ! ! ! ! ! ! ! ! ! ! ] 1 ! ! ! ! ! ! ! ! ! ! ! ! ! ! 1 ",
"  H N - L k r @ $ $ 2 % @ 2 2 3 2 3 3 % $ # # # # # # # # # # # # # % 2 3 # # % % = # % % + # % % % # # # # # # % # $ # & + + # # # ; ; # # # # # + + = # # # # # # # # # # + # $ # # # + # % $ % # # * # # + # # # * * * # * ' * + # + + + = + + ; + ; = + + + + = = = ) = + = ) = = = + = ! = = = = ! ! = + = ! ! = - + ! ! = = = = = ! ! ' ! ' ! ! ! = # ! ' = ! = ! ! = = = ! ! = ! ' = ! ! ! ! ! ! ! ! ' ! ~ ~ = ' ! ' = = ! ! = ! ! ! ! ! ! = ! ! = ! ! = > ! ! ! ! ! ! ! ! ' ! ! ! ^ ~ { ^ ^ ~ ! ! ! ! ! ! ! ' ' * ) ( ( * * ' * + # # + + + = = + = ) , , ) ! ! ! 1 1 | ^ ^ ^ ^ ~ ~ ! ! ^ ~ ~ _ : ( ) ~ ~ _ ~ ~ ~ ( ~ _ ~ ~ ~ { { { { ~ ' ' { { ~ ] ] ~ ] ~ | ] ] ] ^ | ] | ^ | ] ] ~ ~ ~ ~ | ~ ~ { { ! ! { ) ) = * * = = + $ + + & ; ; + ; ; , = , ) = , , ! ! ! ! ! ! ! ! ! ! ! ! ! ! ! ! ! ! ! ! ! ! ! ",
"b H N $ L k J @ $ $ % % 3 % 2 3 % % % % % % % % % 2 % # # # # # 3 3 % 2 % + # 2 3 + # % % = # % $ $ $ % % % $ # $ & # $ $ # # # ; + # # # # # # + + + + - # # # # # + # + + # + # + + # + # # = # # + ' * + * * # # * ' ' * ( ( * ' ' ' = = = + + = + + = + = = = = = = = = = = = + = = = ! ! = = = = = ! ! = = = { = = = = = = = = + + = ! ' { ' { ! ' = = ! ' = = = ' ' ! ) = = = = ! ! ! ! ! ! = ! ) ) ! ! ! ~ ~ ! ! ! ! = + = ! = ! > ! ! > ! > > ! = = > = > ! ! ! ! ! ! ! ! ! ! ! ' ^ ~ { ~ ^ ] ! ! ! ! ! ! ! ' ' ' ) ( ' ' * ' ' * + + = + + = + & + = ; = ) ) ! 1 1 | 1 ^ ^ : ^ | ~ ~ ~ ~ ~ ~ ~ ~ ) ) ~ ~ ~ ~ ~ ~ ) ) ( ~ ~ ~ ~ ~ ] { ] { { ~ ~ ~ ] { ] ] ~ | ^ ] ] ^ | ~ ] ^ ] ~ ] ] { ~ ~ | { { ! ~ { ! ) * ) * * * * = + $ + + $ + + + + = = ; = ) = , ! ! ! ! > > > ! 1 ! ! ! ! ! ! ! ! ! ! 1 1 1 1 1 ",
"b H N r L k n @ @ % # % 2 $ 2 # # % % % % % % % % % # # # # # # % % $ % 3 # # 3 3 = + # % + # $ + + # 2 2 @ 2 # + + & # $ F $ & + + & # $ $ $ # + + # # # - # # # = ' = = # # = + = = # + + # = + + + + # # * * + * * * * * ' ) ' ' + = = + ; ; = = = + + = = = = = ' = = = = = = = = = = = = = = = = + = ! ! = = = = ! ! = + = ! ' = + = ' { ' = ' ' = ! ! ! = = = ' = = = ' ' ' ! ! ' ! ! ! ! ! ) , = ' ' ! ! ) ~ ~ ~ ! ! ! = + ! 1 = = ! > ! ! ! ! > ! > = > > , = ! ! ! ! ! ! ! ^ ~ ! ~ ~ ! ! ! ] ! ! ! ! ! ! ! ' ' ) ) ' ' ' ( ' ' ' + + = + + + + & + ; ; , ) ) 1 1 ^ ^ ^ : : : : : | ~ ^ ~ : _ ( ( ~ ~ : ~ ) ~ ~ | ~ ~ ~ ~ ~ | ~ ~ ] ~ ~ ~ ] ~ { { { { ~ ] ~ | ^ ^ ~ ] ] { ] ] ~ { ~ ~ { { { { { ) { ) ' ' * ) ) * * * * * + $ + + + + + & + = = = ) ) = , ! ! ! ! ! ! ! 1 1 ! ! > ! ! 1 ! > ! 1 1 1 1 1 ^ ",
"b H . @ L k k @ @ % # % 2 # 2 # # 3 3 % % $ $ $ % % % # # # # % % % $ % 3 # # 3 3 + # % % # # # + # $ $ # % $ & & & # & # $ & & ; ; ; ; $ $ # # # # # # # # = # # + = + + # # # # + + # # # # + # # + + # # + + + * * * * * * ' ' * + + + = = ; ; = = = + = = = ' ' = = = = = = ) = = ! = + = ! = = ! = = = { = = = = { ! = ! ! ! ' = = = ' ' = = ) ' ' ' = ' ! + ! ! ! ' = = ' ) ! ! = ' ! ! ! ! = + ) ! = ! ~ ' ! ~ ! ! ! ! ! = = ! = ! ! = ! > ! > = > > > > > > , > ! ! ! ! ! ' ! ~ ! ~ ~ ~ ! ! ! ! ! ! ! ! ! ! ! ) ) ( * ' ( ( ( ' + + + + + + + + + + ; ; = , ! 1 ! 1 ^ : : : : : : ~ ~ | ~ ~ ~ ~ ~ ~ ~ ~ ~ ~ ~ ! ! ~ | ~ ! ~ ~ ~ ~ ~ ~ | | | ~ { ~ ~ ~ ] | | | | ] ] ^ ^ ] ] | ] ~ { { ! ~ ~ ' { * { * * ' # * + # * + # + + 0 + + + = = = = ' ' = ) ) = ) ! ! , ! ! 1 ! ! > ! 1 1 ! ! ! ! > ! ! ! 1 1 ! 1 ",
"b H . k L k k @ @ 2 # % 2 # 2 # % 2 2 $ % % % % % % % % # # % 3 3 2 $ % 2 # # # 3 # # # # + # $ $ $ $ $ + + + # $ $ $ # ; & ; $ # & ; + # $ # # # # # # # # = # # $ % # + + = # # # % $ # # + = = = + * ' * * + + * * * ' ' ' ) ' ' + = = = ; + + + + + + = = + = = = + = ! = = ) = = ! ! = ) = = = ! ! = = = = ! ! { { = = ! ! = = = = = ' ' - ' ! ! = = = + = = ! ! = ! ! ' ! = = ' ! ! ! ! ! ! , = ! ! = ) ~ ) ) ! ! ! ! , + ! ! = ! ! ! ! > > > = ! > = > , > > > ! ! ! ! ! ! ' ! ! ! ^ ~ ! ! ! ! ! ! ^ ! > > ! ! ' * ) ( ' ' * * + + + + + + = + + ; + ; , , = ! 1 ! ~ ^ : : : : : | | ~ ~ ~ ~ ~ ~ ~ ~ ) ) ~ | ^ ! ) ! ! ! ! ~ ~ : | ~ | | ~ ~ | | ~ ~ ~ ~ ~ | | ] ~ | | | | ] ~ ~ ~ { { { ' ' ' ' - ' # # ' # # # # + # # # # # + + + + = + = ' ) ' ) ) ' ! ! ! , , > ! ! ! ! > ! ! ! ! ! ! > ! , ! ! ! ! ! ",
"K H . v L J n F @ 2 $ 2 2 $ 2 # # % % % % % $ 2 2 % % % # # # % % % # $ 3 % # # # # # # # # $ % $ % # $ # # # $ $ # $ # & & # $ $ # # ; # # # % # # $ % # # + # + # # + + + = # # # # + + # # + = = * * * * * * * * * * ' ' ' ) ' + + = = ; + + + + + + # = ' # + = ) = = ! = = = = = ! = = = = ' ! ! ' = = ! ! = = = { = = = = = = + = ' ' = = = = ' = + ! = = ! = = = = = = ! ! = ! ! ! ! ! ! ! ! ! ! = = ! ! ) ) ! ! ' ! = + ^ ! ! ! , > ! > > ! > > > = > > = = > ! , ! ! ! ! ! ! ! ! ~ ! ! ! ! ! ! ! ! ! ! ! ! ! ' ' ) ( ' ' ( ' * ' ' = + + + + + & & & ; = = ! ! ~ ^ : : : g g : _ : | ~ ~ ~ ~ ~ ) ( ) ) ) ) ! ! ! ! ) ! ~ | | | ~ ~ | | ~ ~ ~ | ~ ~ | | ~ ! ] ] ] ] ~ { ~ ~ { { { ' ' { = - - = * * # # * # + # # * # + + + # + + + ' = + = ' ) ) ) ) ) ) ) ! , , > > ! ! ! , , , ! ! ! ! > , , ! ) ! ! ! ",
"K H O v L r @ @ @ 2 % 2 3 $ 2 % % % % % $ $ $ % % % 2 % % # # % % % $ # 2 % # + # # # # % % % $ # # # % % % % $ $ # # $ # $ # $ # # # + + & # $ # # $ % # # + # = = + = + # + # # + + + + # # % % # + * * = * * # # = * ' ' ' ' = + + + + ) , + = = = ) = = ' = ' ! ) = ) = + ) ! + ; = + = ) = = ' ' ! ! ) ' = = = { { = = = = ! = + = = = = = = # = ' + ! ! ! = = ' ' = = = = ! ) = ' ' ! ! ! ! ' ! ! ) ! ! ! = ' ' = = ! ! , 1 > ! ! > > > > > ! ! = > > = > = = = > , ! ! > ! ! ! ! ! ! ! ! ! ~ ~ ! ! ! ! ! ! ! ! ' ) ) ) ' ( ( * + + + + + + + + ; ; ; + ; = = ) ) ~ ^ : : | : : : : ~ ~ ( ~ ~ ~ | ) ) ~ ~ | ~ ~ ~ ~ ~ ! ! ! ~ | ~ { ~ ~ { { ~ | | ~ ~ | : ~ ~ ~ | | | ~ { { { ~ ~ { ' ' ' ' ' - - # # # # # # # # 0 * * # # + # + + + ' ' ( ) ) ( ) ' ( ) ) ! ! , = ! , = = , , ! ! , ) ) , , , , ! , ! ) , ",
"b H O k L r @ @ @ 3 2 2 3 % 2 % % 2 2 % % 2 2 % % % % % % % % % % % % # # 3 2 # # 2 3 + # % $ # $ # # $ # $ # # # # $ # $ # # # # # # + + + # % % # $ # # # + + + + + + # # + + + + + # + + # # # + * * + = * * = * ' ' * * ' ) ' = = + + = = + = = = = # = ' = = = = = ! = = = = = , = = = = = = = = { ! = = { { { { = = ! ' = ' ' = = = = = = ' ' = = = = + ! = = = = = ! ! = ' ! ! ! ! ! ! = ! = ! ! ' ' ! ) ) ! ) = ! ! ! , > ! ; ! ! > ! ! > > > > , , , > > > > > > ! ! > ! ! ! ! ! ~ ~ ] ! ~ ] ! ! ! ! ! ! ! ) ' ' ) ( ) ) ( * + = + + = = + + + ; + & + , ) ) ! 1 1 ^ : : : : : : ~ ~ ~ | _ ~ | ~ ) ~ ! ~ ~ ~ ~ ~ ~ ! ! ~ ~ ~ ~ ~ { { ~ ~ ~ ~ ~ ~ | ~ ~ ~ ~ { ~ ~ { { ! { { { ' - - - # - / # # # # # # # 2 # # 0 0 # # # * + + * ' ( ' ( ( ( ) ( ( ( ) ) ) ) , = ) , , , , , ) ) ; , , ! , , , , , ) , + ",
"I H P L L r J @ @ 3 3 2 2 2 2 # # 2 3 % % 3 3 % % % # # # % % % % # 2 # # 3 3 # # 3 3 = # $ % + $ # # # # $ # # $ # # $ $ # # $ # # # + # + # $ $ $ $ # # + # + # # + & # + + # # + + # + + # $ + + = = = = = = * * ' ' * ' ' ' ' = ' = = = = + = = = = + = = + = = = + + = = = ; = > = = = = = = = = { ' ' = ! ! { = = ' ' ' = ' ' = = = ' ' = ' ' = = = = + = = + = = = ! ! ' ! ! ! ! ! ! ! = ! ' ' ' ' ' ' = > ! > = > > , , , > > > ; ; ! ! , , > > , , > > > > ! > > ! ! > ! ! ! ! ! ! ^ ~ ~ ^ ^ ! ! ! ! ! = , ) = ' ' ' ) ) * * ' * + + = = + & + ; + & + , ) ) ~ ^ 1 | : : : : : : | ~ | _ ( + ' ) ! ! ! 1 ^ ! ~ 1 ~ ! ! ! ! ~ ! { ) ) ) ~ ) ~ ) ~ ~ { ~ ~ { { ! ] ~ { { ' ' ' - d d # / # # # 0 # # # # # # # # # # / # / * / * * # * * * * ( ( ' ( ' ' = , ) ) = , , , , = & , + = ' , ) = = = , , ) ' ' ",
"I b P L o r @ $ $ 3 3 2 % 2 3 d # 2 3 % % 3 % $ % % # $ % % % % % % 2 % % 2 % # # # # # # # # # # $ $ # # # $ $ $ # # % $ # % % + = + % $ + # $ % # $ $ # & $ $ ; + + # & + # # & # & + + + & $ # + # # = # + = = = ' * = ' ' = = = = + = = ) ' + = = = + + = + = ' ' = ! = + = > > = = = = = = = = ! ! = { ' ' ! ' = { ! = ' { ' = = = ' ' ' = ' ! ' = = = = = = = ' = = ) ! ' ! ! ! ! ! ! ! ! ^ ' { ! ! ! ' , = = = = > , , > > > > > > > > , , , > > > , > > > > ! > > ! ! > ! ! > ! ! ! ! ! ! ^ ^ ! ! ! ! ! = = ! = ' ' * ) ( * ( ) + + + = + $ $ & = = + = ) ) ) ! 1 1 1 ^ ^ ^ ^ ^ | ~ ~ _ _ : ) ^ ^ 1 1 ! ! 1 ~ 1 1 ! ! ! ! ) { ) ) * * - ) * ) ) ) ) * { { { ' ) { ' ) ' * - # # 0 0 # # a a 0 # # 0 # 0 0 # * 3 / # 0 # 0 / / * ( ( ( * * ( * ' * ) ' + = = = ) = ; + + , = ) ) ) ' = , , = + + , ' ' ' = ",
"I H y v k F r $ $ 3 2 3 % % # # # 3 3 % % % % % % $ # % % % % % % % % # # # % 2 % # # % % # # # # $ $ # # $ $ $ $ # # $ % # $ % # # + % 3 % # # # + $ $ # # $ $ + + $ & ; # $ # + # # + + # & + # # # # = # # = # = = = = ' * = = = = = = ' ' ' = ' ' = = = ' = ' ' = = ! ! + = > > + = = = ! = = = = { = = = ' ! ' = ' ! ! ! ! ! ' ' ' = = = ' { { ' = + + = { ! ' = ! ' ' ! ' ' ! ! ' ! ! ' = ! ' ' { ! ! ! ! , = = , > , = = , > > > ! 1 > = , = ; , , Q ; ; ; > > > > > ! > ! > ! ! ! ! ! ! ! ~ ~ ! ! ! ! ! = , ! = = ' ' ) ' * * ' # + = + + + + + + = = = ' ) ) ! ! 1 1 ^ : ^ | ^ ^ ~ | _ _ : ) ^ ^ ! 1 1 ! 1 ~ ~ ~ ! ) ! ! ) * * * * * # * * * ( ' ) ) * / # # # # # # # # # # # 3 3 # a a a 0 a 0 0 0 3 3 3 + 3 0 0 a / * / # * * * * # + * # + + ' ' # = = = = + + = + = = & ' ) = ' = ' = & & = = = ' ' ",
"I t y v k r @ F @ 3 % 2 % # # # # 3 2 % % # $ % % $ # % % % % % $ $ % % # # % % # % % % $ $ $ $ $ $ $ $ $ $ # # $ % # $ % # # % $ # = + # $ % # # # @ F # # ; & # & $ + = # $ & + & & + + # & ; # # # # # # = = + = = = = = = ' = = = = = = = ' + ' = # = = = = = = = # = ' = = = = ; = + = ! = = ' ' { ' ' = ' = = = = = = = = = ' ' ' ' ' ' ' = + = = = = = = = = + ' ! ' ! ' = ! ! = ! ! = = ! ! { ) ' ' = = , , > > > , , , , > > > , > > , > , , , , , > , , = = = > > > > ! ! ! ! ! ! ! ! ! ! ~ ! ~ ! ' ! > > ! ; = ) ' ' * + * + # + = + & + ; + + = = = ' ' ) ) ! ~ 1 1 ^ 1 1 ^ ^ 1 | | ~ ~ ) ! ! ! 1 ^ 1 1 ! ! ! ) ) ) = = + * * * * * ) ' ) ) ( * * * * # # / # a a a # # # # 3 4 a a a # / / 0 0 0 # # 0 0 3 3 # 0 0 * 0 0 # 0 3 # 0 0 # # + # + * + + = = , = + = + + & 2 $ & 0 + + & = & = ) = + + + ",
"  H P v k J k $ 2 2 $ $ # # 3 # % 2 % % % # % 2 % % # $ % $ % 2 % $ $ 2 % # # # # % % # $ $ $ F $ $ F $ $ $ $ $ # $ $ $ # # # % $ # # % # % $ 3 $ $ @ F + ; ; ; & & & & & # $ # & # & + # # & # # # # # # # = = = = = = = = = ' = = = + = = = ' # * * + ' = = = = = ' ' = = = = = = = = = = > = ! ! ' = = ! ! ' ' ! ! ! ! = { ! { ' = = ' ' ' = ' { ' = = = = = = = + ' ! = ! = = ! ! ) ~ ~ ! ! ~ ~ ! ' ' ' = = = , > = = , > > > , , = = = ; , > , , = = > > , > > > > ! > > ! ! ! ! ! ! ! ] ! ! ! ~ ~ ~ ! { ! ! > > + = = = * # # * + + + = + & + + + = ; + + ' ' ' ) ~ ~ ~ 1 1 1 1 ^ | 1 ~ 1 ~ ! 1 R 1 1 1 1 ! ! ) ) = = = + # # 0 0 # # * # * * ' # # # # # # # # / # a a a a 3 3 0 3 4 3 a 3 4 5 5 a 0 * # 0 0 0 4 3 3 a a a a a 0 0 4 3 2 2 3 2 # 0 # # # 2 2 2 2 2 2 0 0 & $ 0 $ + + & + $ $ & = = + = * = ",
"I H S L k J n F @ @ $ % % # # # % % # % % # % 3 % % # # % % % 2 % $ # % $ $ % $ $ $ % # $ $ $ $ $ $ F $ & $ $ $ $ $ # # $ $ $ $ $ # # % # + + % # # # $ ; + ; $ # & + & $ # + # # + + + & & # # + + $ # + # # = # = = = = * = = = = = = = = = ' = ' = = ' = = = = ' ' = = = + = = > > = = > , = = = = = = { = = = ' = = ' = ' ' = = ' = = = = ' ! ! ' = + = = > ! ! = ' ! = = = = ! ! = ! ! ! ! ~ ! ' ) ' ! ! , , , , , = , > > > , = > ! > ; , , , , = , > , ; = = = = > > = > ! > ! ! = { ! = { ! ~ { ! ~ ! ! = , = = = = = * + + + # + + + + + + & + = + + = ) ) ) ~ ~ ~ ~ 1 ^ ^ ^ ^ 1 1 1 1 1 1 R ^ 1 ! ! ! = ) ) = + + + + # # # * # # # # * # + # # 0 0 3 # # 3 a # a 3 3 4 5 5 4 5 5 a 3 5 4 a 4 a 4 4 3 4 7 4 6 4 4 4 4 4 4 4 3 4 4 4 3 3 6 l l l 3 4 2 3 3 3 3 n e 0 2 0 0 @ 0 + 0 0 2 @ = & & 0 0 = * * ",
"I H S L k J n e @ @ $ 2 2 # # # # % $ % % # % % $ % % # $ % % % $ $ % % $ % 3 2 % % % $ e F $ $ F F F $ $ $ $ $ $ $ # & $ $ # # $ % # $ 3 % # $ # # & $ $ # + & & + + # $ $ + & $ + + # & # $ # # # # # # # # = # # = = # = = # = = = = ' = = = = ' # # + = = = = ! ' % = ' + ; + = = = = = = + = = ! ! { { = ' ! ! = = = = ' = = ' { { ' ' ' ' = = = = = = = = = = = = ! = = = ' ! ! = ! ! = ' ! ! ) ! ! ! ! = = = ; , > > > > > , = > ! > , , , > , , > > , , > > = > > > ! ! ! ! ! ! ! ! ! ! ~ ~ ! ! { ~ ! ' = , = ! ) ' ' ' ' ' + # + = + # $ & $ + ; + ; = ) ' ( ~ ~ ~ ~ 1 1 | ^ ^ 1 1 ! ! 1 1 1 1 ) ; ) ! & = = + + + + + + # 0 # 0 # * # + + * * ' ' ( 0 # 3 5 3 a a 4 6 5 5 5 4 5 5 a 3 5 3 0 4 4 4 7 5 4 4 3 4 4 4 4 4 5 6 6 4 6 6 6 7 l 8 l l 6 2 6 l l 4 0 3 3 2 2 4 2 2 @ 2 4 n @ @ 2 2 3 2 0 * = 3 0 ",
"I H S L k J k $ 3 2 $ % % # % % % % % % % % % % # % 3 % % 2 % % $ $ $ $ $ # $ % % # # $ e $ F e F $ F F $ $ F $ $ $ $ $ # $ # # $ + % % % $ % $ # $ $ $ # # # ; ; + ; # $ # + + & & + + & + + & # # # # # # # # = # = = + = = = = = = = ' = ' = = ' # = = = = = ' ' = # ' = + + ; = = = = ; + + = = = = = { ' ' = = { { ! ' ' ' ' ' ' ' = ' { ' = = { ! = = = = = = = = ! ! ' ' ! ! ! ! ! ! ! ' ! ! ! ! ! = = = = ; ; , > > > > > > > > = = > , , > = = = ; = > = > > > > ! ! ! ! ! ! ! ! ] ~ ! ^ ~ ! ~ ! ~ ~ ' ' ! = ! ' ) ) ) ' * # # + = = = + + + + ; + & + = ' ) ~ | | | | 1 | ^ ^ ^ ^ 1 ! 1 1 ) ) ; + , ' 2 # + $ # # 2 # # 0 2 # 0 0 # # # 0 # 0 0 3 3 6 3 3 5 3 3 3 4 5 4 3 3 3 5 5 3 3 4 4 4 4 6 3 4 4 4 4 4 6 7 5 7 5 3 6 7 4 7 7 6 8 l l 4 4 6 4 6 6 7 7 l l l @ n n @ @ 4 4 @ @ @ 2 2 3 3 3 3 0 0 3 + ",
"I t G v J J n $ 3 2 # $ % % 3 3 3 % % % % % % % # % 3 % % 3 % # % $ # $ $ # = % % # # $ $ $ $ F $ $ F F $ $ F $ $ $ $ $ $ # # # # # % % # % # # # $ # # + # $ ; ; + + # $ $ # + + # & & $ # + & # # + + + = + = = = = = = = = = = = = # = + = - = = + ' = = = = = = = = ! = + = = = = = ; = ! = = = = + + ! ' + = ' = = ' = ' ' = = ' ' = = = ' ' { ! ' + = ! ! = = ' ! ! ! ) ! ! ! ! ! ' ! ' = ! ! { { ' ' = = = > , > = , > > > ! ! > = = ! ! ! ! , , , = , ! > > > ! > > > { ! ! ! ! { ! ! ' ! ~ ! ~ ~ ~ ~ { ' ' = ) * ) * / * * + + # ' ' + + + = + + + # + = ' ) ~ | | | | | | ^ ^ : ^ 1 ! ) ) ) = + = + # 3 2 # # $ 0 3 0 0 2 2 0 0 2 3 # 0 2 # 3 3 6 6 4 3 3 3 3 5 5 4 4 3 3 4 4 3 3 3 3 4 4 3 3 4 4 a 3 a 4 4 6 4 4 4 6 4 4 8 l 6 6 4 6 3 3 6 7 7 7 6 4 6 7 6 l n l n 7 l l l 4 6 7 7 7 n l l 4 4 4 4 4 0 ",
"  E G o @ @ k @ @ e # $ 2 % % % % % % % % 2 % % % % % % $ 2 % # % % $ $ 3 2 # % 3 2 2 2 # $ F F $ $ $ $ $ $ $ $ $ $ $ # $ $ # # % $ % % $ $ # # $ @ # # # # # $ # + + + & $ # + + + + & & # + + # # + + = + = = = = * = = ' * = * = = = = + - - = = - = + = = # - = = = = = = = = , ; ; ; = ! = = = = = = ! = = ' ! ' = = = ! ! ' ' ! { = = = ' ' = = = + + = = = = = = = = = ! ! ! ! ! = ' ' = ! ! ) ! ' ' ! = = , = = ; = > > ! > , , > > , , , > > , > , = , ! ! ! ! ! ! ! ! ! ! ! ! ! ~ ] ! ~ ~ ! ~ ~ ~ ~ ~ ' ) ' ! * ) * / ' ) ' = # ' ' # % # = # $ + = = = ' ! ~ ~ | | | | | | ^ ^ 1 ! ) = + + + # + # # 0 # # # # # 2 0 0 0 2 3 # 0 3 # 2 4 3 4 3 4 3 3 4 3 a 3 4 4 5 3 3 4 3 4 a a 3 a 0 0 a 4 4 5 4 4 5 4 3 4 3 4 4 4 6 6 8 6 3 4 4 7 4 4 6 6 6 4 6 6 7 7 l 6 l l 6 l 6 l l l 6 7 7 7 7 l l l 4 4 4 l 4 ",
"  E G o @ J @ $ 3 $ $ $ $ $ % 3 $ # $ % 3 3 % 2 % # % % $ % % # 2 3 $ # 2 3 # # % # $ $ # $ e F $ $ $ $ $ $ $ $ $ $ $ # # $ $ # $ # # # # % # # # # # $ # ; + $ # # + & # $ $ # & & + & # # & & # + # + = # = = # = = = = = = = = ' ' = ' = + = = + + = = = = - = = = = = = = ; ; = ; ; ; = = + ) { ' ! ' { = ' = = = = = = = = = ' ' ' ' { ' = = = = = = = = = = = = = = = = ! ! ! ! ! ' ! ! ! ! ! ) ! ' ' ! = = = ; , = , > > ! ! > ! 1 1 ! > , , > > > > = + > ! ! ! ! ! ! ! ! ! ! ] ~ ~ | ~ | ~ ! ~ ~ ~ ! ~ ) ~ ! ~ ) ~ ' ) ) ' ' = = ' ) = # = = + # + + + ; ' ! ~ 1 | | | | | | ^ ^ 1 ) ) = + # # # 0 0 + # + 0 3 2 # 2 2 2 0 3 2 # 0 3 # 0 4 3 0 # 3 # 0 3 3 a 4 a a 4 3 4 4 3 5 3 a 3 0 a 3 3 4 3 3 4 0 4 0 4 4 4 6 6 3 4 6 l 6 l 4 6 6 a 3 3 3 3 3 4 6 6 l l 6 l l 4 4 l 6 6 7 l 4 l 4 7 7 6 l 5 7 7 l 4 ",
"  t G o @ @ @ % $ $ $ $ $ $ $ $ % # % % 3 2 % 2 2 # % 2 % % % # % % $ = # % # # # # # $ # $ F $ $ $ $ $ $ $ $ $ # # $ $ # # $ # # $ $ % # $ $ # # # # $ # # + & # # + & & & # # & & + ; & # & & + + # + + # = # # = = # = + = = - - - d - = # = + - + = = - ' = ' ' = + = = + + = = = = = = + + ! ' ' = = { ' ' = = = ' { = = = ' ' = = = = = = ' ! ! = = = = = = = = ! ! ! ! ! ! ! ! ! ! ! ! ' ' ' ' ! ' ' ! = , , = > > > > = , ! > , ! ! ! ! > = , > > ! > = ! ! ! ! ! ! ! ! ! { ! ] ! ~ ~ ~ ~ ! ~ ~ ~ ~ ) ~ { ~ ! ) ) ~ ) { * = ' = ' ' ' ' + = + + + + + + ; = ) ~ 1 | | | | | | | 1 ! = + + + # + + 2 2 0 3 2 3 l 4 2 3 3 3 # 4 4 # 3 3 0 # 0 # # 0 3 # # 3 4 4 6 4 a 4 4 5 4 3 6 5 3 3 3 3 4 4 3 3 3 4 4 4 3 5 5 4 4 3 0 0 6 3 3 7 l 3 0 # a a 3 6 4 4 3 3 3 4 3 4 4 3 4 4 4 l 6 l l l l 7 7 7 7 4 4 4 4 4 ",
"I E G o @ r @ $ $ $ $ $ $ # # # # $ % 2 3 % % % % % % 3 % # # # # # % $ # % % % % 3 3 $ $ 2 $ $ $ $ $ $ $ $ # # $ $ $ # # $ # # # # $ % # $ $ + $ $ $ $ F F & # $ & # & & # # # $ # + + + # $ # + + # + + # = = # = = + = + + = = = ' = = = # = + + = + = - = - # ' ' # = = + = = = = = = = , = + + = = - = = = = = = ' ! = ' ! ' ' ! { = = = ' { ' = + + + = = = = + ' ! ' ! ! ! ! ! ! ! = = = ' ! ' ! ' = > = , , = > , , > = , , , = = ! , , > = , ! > > > , ! ! ! ! ! ! { { ! { { ! { ! ~ ! ! ! ~ ~ ! ~ ' ~ { ~ ) ' ) ) * { = ' ' + ' ' * ' = ' + + + + ; + ; = ) ! 1 1 | | ~ | | 1 ! ) + $ + $ 2 # # 0 4 4 4 4 4 3 4 3 3 3 3 # 0 0 * 2 3 2 # 3 3 3 4 8 6 3 3 3 5 6 4 3 3 3 3 3 3 4 a # 0 a 3 4 4 3 4 4 0 4 4 4 4 5 a 4 6 3 4 6 @ 2 l 6 0 3 0 4 4 a 4 4 4 3 4 4 3 4 3 4 4 4 4 4 4 4 4 l l 4 l l 7 8 7 4 6 4 4 ",
"I E G o @ @ @ % % # $ $ # # # # $ $ % 2 % % % % % % % 2 % # # # # # % 3 3 # # % % % % % $ $ $ $ $ $ # # $ # # $ $ # # # # % $ # # # # # # # # + # # ; ; $ ; ; # # & # & + & # # # # & + + & # # + + # + = # = = # = = + = = = + = ' ' = = - - = + = = = = - = = - = = # = = + = ; + = , = + = = = = ' { ' ' = ' ' { ' = ' = ' ' = = ' ' ' ' ' ' = = = = = = = = = ' = ! ! = = ! ! ! ! ) ' = = ! ! ! ' { ' ' ! = > > = , ; = > > > > ! > ! ! , = ! ! , ! ! , , ! > ! ! ! ! ! ! ! ~ ~ ! ~ ~ ~ | ~ ~ ~ | ! ! ~ ) ~ ) ~ ) ) ) ) * ! ' ' ' = ' * * ' = ' + = = + ; + = , ! 1 1 ~ | | : : : ~ ) ' + $ + $ 3 3 3 0 3 3 2 3 3 0 3 3 3 3 0 2 3 4 # # # 0 3 3 4 3 3 3 # # 3 a 3 3 3 a 3 3 3 a a a # # a 3 3 3 3 3 4 0 0 0 0 / 0 4 a # 0 # 3 l 6 2 4 6 2 3 0 0 3 0 0 a a 0 3 a a 3 3 3 4 4 4 4 4 7 l l l 4 7 7 6 6 4 4 6 4 4 ",
"I t G o @ @ 3 % % $ $ $ $ 2 @ $ F $ 2 2 % $ $ % % 3 % % % # # % $ # # % % + = # # + + % % # % @ $ $ # $ $ # $ $ # # % % # $ % $ # $ $ $ $ # % + # # $ $ F # $ e $ $ & # & + # # & # # & + + & $ # + # # + # # = # # = - # = = # = = # # # # - - - + + { = - = = = = = = = = + + + + ; = = ; ; + = = = = = = = = = = = = = = = = ' ' = # = = ' = ' ! ! = = = = ! ! ! ! ! ! ! = ' ! ! ' ' ' ' ' ! ! ! = { ' ' ! , > > , > = = > = = = = , = = = = = ! > = = = , ! = = = > = ! ! ' ! ! ! ! ! ! ~ ! ~ ~ ~ ! ! ~ ) ~ ' { ) { ) { * ! ) ' ' ' = = * = = = = + + = ; = , , ! ! ! ! 1 | : : | ~ ) + # 2 # # 3 3 3 0 0 0 0 0 3 0 3 3 3 3 3 3 3 3 # 3 # 3 3 l 6 3 3 3 3 3 3 # # # # a 3 3 3 3 3 3 a a 3 3 3 3 * 3 4 # a / / 0 0 / a 0 3 3 0 3 l l 4 4 3 3 # + 2 0 0 0 0 / # 0 0 0 3 0 3 6 4 4 4 4 7 7 7 4 l 7 4 7 4 4 7 7 9 ",
"I t } o @ % % 3 3 $ e @ @ e e $ e $ % 2 % 2 2 % % 3 % $ % # # % $ # # # # # 3 % # 3 2 % $ 3 $ 2 $ $ # $ $ $ # # $ # # % $ $ $ $ # # % # % $ # + # $ $ & $ # $ + # # # $ # # # $ & & # # + ; & # # # - # # # # # # # # # # - - # + = = = = # = + + = - = = - = = - - = = = = ; + = = + ; ; = > ; = = = , = = = = ' = = ' { = ' ' ' ) ' ' ' = = ' ' ' = + = ! = = = = + ' ! ' = ' ! ! ! ) ! ! ' ' ! ! ' ! = = > , > > , > > > > = > > > ! ! = ! ! , = ! = = = , = ; = ! ! { ! ! ! ! ! ! ~ ! ! ! ! ! ] ~ ~ ! ! ) ~ ) { ) { ' { ' ) { ' = ' = ' ) = ' ' ) = # , = = ; , ! ! ! ~ 1 ^ : _ ~ ~ ) * # # 2 0 3 # # a 0 0 2 2 3 2 2 2 3 3 3 3 3 3 3 3 # 3 # # 3 # 3 3 3 3 # ' / # # # 3 3 a 3 a 3 a a a a 3 a 0 0 0 0 a a a 0 0 0 0 0 # # # 4 2 6 3 3 3 3 2 # 0 0 a # / 0 0 a # 4 3 a 4 4 4 4 4 4 4 4 5 4 7 4 4 9 5 4 7 9 9 ",
"I p : 3 3 % % 3 3 % 3 @ @ $ & e @ 2 % 2 2 % % $ 2 2 % % % % % 3 % # # % # # % % # # % % % # % % % # # $ % $ + + $ $ # % 2 $ % % # # $ $ $ % # # $ $ $ # # # # $ # # $ $ # # # # & ; # # & + # # ; + - # - # - + # # - # + - + + - + + = = + = + = + + - + + + - - + = = + = = ; = = ; ; ; ; = = = = = , = ; = = ) = = ) ! = ' ) * { { ' { ' = ) = = = = = ! = + = ! ! ' = ! ' ' ' { ! ' ! ' { ' ! ! ' = = ; = , > > , ; > > , = ! ! = ! ! = ! ! ! > = = = ! ! = = = = ! ! ! ! ! ! ! ! ! ! ! ! ! ! ~ ~ ~ ! ! ! ! ! { ) { ' { { ' ! ' = ' ' ' ! = ' ' = = = ) ; , = = ) ! ! ! 1 ! ~ ~ ~ ~ ~ * # # 0 3 3 3 3 3 4 3 3 2 3 2 0 2 3 2 2 3 2 2 3 % # 2 # + # * # 2 # # 3 3 3 # a # 3 a # a a a a # a a # a a a a a a a a a a a a 4 0 3 0 4 7 6 3 3 3 3 3 0 0 # / / / 0 3 a 0 3 6 3 4 4 4 4 4 7 4 4 7 7 7 7 4 5 5 4 9 5 7 ",
"C p : 3 % 0 0 3 3 3 3 2 2 2 @ @ e 2 2 3 3 $ % 2 3 2 % % $ $ $ $ % # # # # # # % $ # # % # # # # # # $ $ + # # + % % # 2 2 $ % $ & + $ $ $ $ $ $ $ $ $ $ # # # # # # & # & # # # # # # & # + & # + + - # = + + = # + + + - # $ $ - + + + + + - # + - + # - + = + + + = = + = = ; = = ; = = ; ; = = , ; = , ; = = = = ' ) ) ' ' ' ' ' ' ' ! ' = = + + = + & = = = ! ! { ! ' ! ' ' ' { ! ' ! ' ' = ' ! ' ! ! = ; ; ! ! Q ; > , = = ! ! = ! ! = = ! ! ! = + ! ! ! ! = = = ! ! ! ! ! ! ) ! ! ! ! ! ! ~ ~ ~ ! { ! ! ! ~ { ' ' ' ) { ! ! ' = ' = # ' ' = + = + # ; + ; ; = ) ! ! ! ^ ^ : ~ ~ ( ~ + # # # 0 0 0 0 3 3 0 2 4 3 2 2 2 2 % 2 2 # # # % = + + + # + # 3 # # # # / # 3 # # # / # # 0 # # 3 a # a a 3 4 4 4 4 3 0 a 4 4 4 0 a a 3 l 4 4 3 3 3 3 # 0 # 0 # 0 0 a a a 4 3 4 6 4 3 4 6 4 4 7 7 4 7 8 7 7 9 5 7 5 9 ",
"C C B 3 # 0 3 3 3 2 3 2 2 2 l @ 2 $ 2 2 2 $ $ % 2 % # # $ $ # # % $ % $ % $ # # % # # % % % % % $ $ % $ = # $ $ $ % # 2 % $ % $ # $ $ $ $ $ # $ # $ $ $ $ $ # # # # # # # # # # # # # & # ; + # # # # - = $ $ - # - + - # = = - + + + - - + = + + - = = + - + + + + = + = = = ; = = ; = = ; ; = = ; ; = , , = , = ' ' = ' ' ' ' ) ' * = ' ' + + = = ! ! = = ! ) ' ' ' ! ' ! ' ' ' ' ' ' ! ! ! ! ! ! = = = ! > = > > Q > > = ; , > > ! ! ! ! = = ! ! { > { ! ! = ! ! , > > , ! ! ! ! ! ! ! ! ! ! ! ~ ] ~ ~ ! ' ! ! ! ~ { ' ' ' { { ' = = = + + + + = = ; = = = ! ! , ) ! 1 1 1 1 | ~ ~ ~ ) # # # # 0 0 0 a 0 3 0 0 3 # # % # % # # $ % # # % + + + + + # 0 0 0 0 # # # # / ' ' / / # # a a # a 3 3 3 3 3 a 0 0 0 0 # 0 4 4 4 4 5 6 6 4 4 4 3 3 3 0 # 0 # # 0 a a 3 0 # 0 0 4 0 4 7 4 7 8 8 8 8 8 7 7 7 9 9 9 9 5 7 ",
"    ~ 5 # 0 5 3 3 2 3 @ 2 2 @ 2 2 2 2 2 2 2 $ $ 2 $ $ $ $ $ % # $ $ # # % % % # % % # # $ # # $ $ # $ $ + $ $ # # $ # % % # $ # $ $ $ $ $ $ $ $ # # & # & # $ $ 2 $ $ $ $ $ # # # # ; ; # # + & # # # + + - ; + - # + - $ - + # ; + + - # # + + - # + + + # # - + + = + + ; ; ; = ; ; ; ; ; ; ; ; ; , , ; = = = = = = = = ) ' ' ' ' ' ' ' ' = = > = = ! = = ! ' ) ! ' ! ' ! ' ! { ' ' ' ' ' ' ' ' { ! = = > , > > > Q , = , > > = = ! > = > = = ! ! ! = = = = = ! ! ! ! = = ! ! ! ! ! ! ! 1 ! ! ! ~ ~ ~ ~ ! ! ! ! ! ! { ' ' ' ' { ' ' = = ' = = = = + + , = + = + ; ) ! 1 ~ 1 | | | : ~ ~ ( # # 0 0 0 0 0 # # 0 # # # # # # 2 + 2 = # # + + + + = = ' + # * * / * / # # / / # / # a # / a 3 5 5 3 a a 3 0 # a 0 a a 0 a 4 5 4 4 4 4 3 4 6 3 3 0 0 0 a # 0 # 0 a 0 # 0 3 4 4 a 4 7 5 8 7 4 8 7 8 7 7 9 9 9 7 7 9 7 ",
"C C ] w # 0 3 3 3 2 3 @ 2 2 @ 2 2 2 @ 2 $ 2 2 2 2 $ $ $ % $ $ % % # = # % % % $ % 3 # # $ + + % # # $ % % 2 2 # # $ # # % # # # $ $ $ $ $ $ # $ $ $ $ $ # $ $ $ $ # # ; $ # # ; $ # + # # # + + # # # + + - + + ; # # $ $ + + # + = = = = + - # + + + # + + + + - # + + + + + + ; ; ; ; ; ; ; ; ; & ) = + ) ! = = = = = = = ' ' ) ) ! ' = = = = = + & = = = = = ' ) ' ) ' ' ' ! ! ! ! ! { ' ) ' ' ! ! = ! ! = = , > Q Q Q , = > = = > { = ! ! ! ! ! = = ! ! > = = = , , = , ! ! , ! ! , ! 1 ! ! ! ~ ! ! { ! ~ ! ! ! ' { { { ! ! { ! ~ ! ) ! = = + = = ; ) + = ! = ) , = ! 1 1 ~ ~ | : ) ' ) ' / # # * # 0 * ( # # * + # # # # + 3 = = # = + # + ) ' + * ) ( * ( ~ / / / # # 0 a a 0 a 4 6 5 a a 4 / 0 4 4 a 4 4 5 4 4 5 5 7 5 4 4 4 4 4 l 4 3 0 0 # # # a 0 a 0 # 0 4 4 4 3 4 6 4 7 8 4 4 8 7 7 4 7 8 7 9 9 8 7 7 ",
"  C ] w 0 a 3 3 3 3 3 3 2 2 l @ 2 $ @ 2 $ $ 2 2 % % 2 $ % $ $ $ $ % # % $ $ % $ $ 3 % % 2 # # 3 % % # $ $ $ $ # # $ + # # # # # $ $ $ $ + + + & # 2 e @ 2 $ # + + + + + # # # + $ # # # # # + + # # $ - # # + ; = = - - + = + # # # # # + + # # + + + # - - + # # # + + + + + + ; ; ; ; ; ; ; ; ; + , = + ) ) = = = = = = = = = ' ' ' ' = = ! = = = ; = = = = = ' ) ' ) { { ' ! { ) ) ) ) ' { ! ! ! = = ! > > , > = > > ; , = = = = ! = = ! ! > ! ! = ! ! ! > = = , ! ! ! ! ! , = ! ! , ! ! ! ! ! ] ~ ! { { ! ! ! ! ' { ! { { { ' ' ' ' = = = ' = = = + , = , ) , = ) ) ! ! 1 ~ | | : ~ ( ( ' * ( # ( # # * * + + = * = + + = = = = = = ' = + + = ' + * ( ( * ( * / / / 0 0 0 a 4 4 3 4 5 a 4 5 5 5 5 6 5 5 5 5 7 5 5 7 6 6 6 7 6 6 6 3 3 4 3 0 0 # # # 0 0 3 a a 4 4 4 6 4 4 7 8 8 7 6 8 7 7 7 4 7 8 9 9 9 7 9 9 ",
"    { 5 0 3 3 3 3 2 3 3 2 2 @ @ 2 2 @ @ 2 2 @ @ 2 2 3 2 2 2 3 3 3 2 $ % % # # # # # % % % % % % % $ % % # # $ $ 3 2 # # # # % # # + + $ $ $ $ $ # # + & + $ $ $ $ $ $ # # # # # # # # # ; # # # ; + + + # # + $ # # - + + - # + # # - # - # + - + - + + = + + + + + + + + = + + = = + ; = ; ; ; ; = = ' ' = + = = = = = = ) , + = ' ' ! ) ' ! = + > , ; = = = ' ' ) ) { ~ ! ) { ) ) ) { { ) ) ) ' ! + = , ; > > > & > ! Q > ! > = = ! ! ! ! = = { ! > ! ! = > ! = = ! ! = ! ! ! ! ! 1 ! ! ! ! , ! ~ ~ ~ ] ! ! ~ { { ! ' ' ' ' { ' = # = = = = = = ! = = = + + + = ) ! ! ~ 1 ^ | : : : _ ~ ~ ( * ( * * # ( ' * ' * * * * * * * # ' ! ! ' ! ! ) = ) ) ' * ( * * * / 0 a 0 a 0 a 4 3 4 4 5 7 5 5 5 8 8 8 7 7 8 8 7 6 6 6 6 5 5 3 4 4 3 3 3 3 4 3 3 3 0 a a 0 a 3 3 3 4 7 4 7 7 4 7 4 4 7 4 4 7 7 9 8 7 7 7 7 9 9 9 4 ",
"C C z 6 % 3 3 3 3 0 4 3 2 2 3 3 3 2 2 @ 2 2 @ 3 $ 2 $ $ $ % % $ % % % # # # # % $ # % $ # % $ # # % % % # + # $ 3 % % 2 # # # + + + + $ $ $ $ $ # # + & + $ $ 2 $ $ $ # # # # # # ; # $ ; # # # # - + + # # ; $ # # + + ; # # + # # + + - # - - - # - - + # - - + + + # + = + + = = + ; = ; ; ; = = = = ' ' = = = = = = = = ; ; ) ) = ' = # + + # = , = = ' ' ' ' ) ) ) ) ) ) ) ) { ~ ~ ~ { { ) ) ! = = ! = = > > ; , > Q > ! = = = > ! ! { = = ! ! > ! ! = > ! = = ! ! = ! ! ! , ! ! ! ! ! ! ! ! ~ ~ ~ ! ! ! { { ! ! ' ! { ' ! ' = ' ' = = ' = = ) + , ! ; ) = , ) ! ! ! ! | ~ : ~ ~ ~ ( ( ( # ' ( * * ~ ( * ) * ) ' * ' ' * # ' ' ! ' ! ! ' ) ! ' + * * # a a a a a a 4 a a 4 4 4 4 5 5 5 7 5 7 7 8 7 7 8 8 6 5 4 6 4 4 4 3 4 3 3 3 3 3 3 3 3 0 0 3 3 3 4 4 4 4 6 8 4 7 7 4 5 4 4 7 7 4 7 7 8 8 8 8 7 8 7 7 9 4 ",
". t z v % 3 3 3 3 3 4 3 2 3 3 3 l @ 2 2 2 2 2 2 2 2 $ % 2 % # % % % % $ % % % 3 3 # 2 3 # % $ # % % 3 @ $ # # # % % % 3 % # $ % # $ $ # + + + & # $ $ e $ $ # & + + & ; + # # # # + # # # # $ # # # # # # = + # + ; ; & # # $ + + + + - - - + - - # + # # # # # # # + # + + + & + ; + ; ; ; ; + + = = = = = = = = = ) ! , ; ; ; + + # = = + = ! ; = + + = = = ! ) ) { { { { { ) ) ) ) ' ' ) ) { ) ' ! = , > , > Q , > > > = , = > = > = ! ! ! = ! > { ! ! = = ! = > ! ! ! ! ! ! ! ! ! ! ! ! ! ! ! ~ ! ~ ! ! ! { { ! { { ! ' { ! ' ' ' ' ' = ' + # + # = ; + = ; ; = ) ) ! ~ ~ ^ : : : _ ( * ' * ' ' ( * ( * ' ) * ) ) ' ! ' { ' { ! { ' ! ! ' ' ! ) + * # 0 f 4 a f 4 f 5 f a 4 4 4 a 5 5 f 7 7 5 8 7 7 7 7 6 6 6 6 6 4 4 4 4 l 4 3 2 2 2 0 3 4 3 3 3 3 3 4 4 4 6 4 4 4 7 7 7 8 8 8 7 7 8 7 7 8 4 5 5 4 7 7 7 7 7 ",
"c H z v % 3 3 3 3 3 3 3 3 3 2 2 l 3 2 2 @ 2 2 2 3 2 $ $ @ $ $ $ $ $ # % % # % % % % % % % # % % % % % % $ # # + # # # d # # % % $ # # # & # & $ # $ $ $ $ $ $ # & ; # # + # # # # ; $ # # & $ # # # # $ # = + + + $ # # # & # + + + # # - - + # # # + - - # - # # # + # # + + & + + + ; ; & & ; + = ' ' ' = = = = = + ; ; + , ! + ! ' ' ' ; = ! = ; + = ) = = ) ' ' { ) ' ) { ) ) ~ { ) ) { ) { ! = ! ' & > > > ; , > > > , , > > > ! = = = > > ! ! ! ! = - = ! ! , , ) ! ! , ! ! ! ! ! ! ! ! ! ! ! ! | ] ! ~ ! { { { ' ' ' ' ' ! ! ' ' ! + = + # = + + + = = = ! ! 1 ! 1 ^ ^ : [ : } _ _ ( ( ~ ) ( ( * ( ( * ' * ' ' ' ' ) ! ! ! ! ' ' ! ) ' = ) ) # 0 0 a a f a 7 5 4 5 4 4 5 4 4 4 7 5 5 7 7 7 7 7 7 7 7 7 7 7 6 6 4 3 3 3 3 2 0 0 2 2 2 3 4 3 3 2 3 4 4 4 4 4 4 4 8 7 7 8 8 8 8 8 9 7 7 7 7 7 4 4 4 7 4 4 5 5 ",
"q . ' 6 % 6 3 % 3 3 3 3 3 3 3 $ 2 2 $ $ 2 2 $ 2 2 % $ $ 3 $ $ % 3 $ # % % # # # # $ % % 3 # # $ % % # # # $ % $ 3 3 # % % # # # $ # & # # $ $ $ # & + + + $ $ $ $ $ $ $ # $ # # # ; # # # ; $ # # # + + & & & ; + # + $ $ + + + # $ # # # $ $ $ - # # $ + + - - + + + # + + + & ; ; + + ; ; & + ; = = ' ' = = = = = = ; = ; ; , = = ' = = = + + + ; = = ' = ' ! ' ' { ) ) ) ! ' ) { { { ) ! ' ' ' = ~ ! # ! > = > > Q ; , > , , = = > ! > ! ! > > ! = { ! ! ! ! = = , ! ! ! = , ! ! ! ! ! ! ! 1 ! ~ ~ ! ! ! ! ! { { ' { ! ! { { ' ' ' = ' + ' ) = = = + + = ; ; = = ! ! ~ ~ ~ : } _ : : : ~ ) ( ) ) ( * ( ( * ( ) * ) ) ' { ! ! ! ! { ! ' = * # # # a a a 4 4 4 4 5 5 4 5 7 7 7 7 7 8 7 5 7 8 7 7 7 5 7 5 5 5 4 4 4 3 3 3 3 2 2 2 2 3 3 3 2 3 3 2 3 2 4 l 4 4 6 6 8 8 8 7 8 4 7 8 4 7 8 7 5 7 7 7 4 4 4 7 4 4 4 4 ",
"K . { 6 % 3 3 # 3 3 2 3 3 3 l 2 # 2 2 2 2 3 2 2 @ % $ @ 3 $ $ $ 3 3 % $ $ $ % # % 3 % % @ % # 3 % # # # - $ @ $ % % d # # # # # $ # # # & $ # $ # # & # # $ $ $ $ # # $ # $ # # # # # # # & # ; ; + & & & $ $ & # # + # & ; + + # # # - + # # # + + - # # - - # # # + # + + + & ; ; + + ; + & + ; = # = ' = ' ' = , = = = ; & + ; = ' + = ! ; + ; = = = = = = ' * ' { { ! ! ! ' ' ' ' ' ' ! ' { ! ! ! ! + ! ! , > = , > > Q ; = > ! ! = + ! ! ! { = > ! { > > { ! ! , ) ! ! ! ! ! ! , ! ! ! ! ! ! ! ~ ! ! ~ ! ! { ' ' ' ! ! { ! ' = = = ' = ' ' = = ! ) = = ; ) = , ! ! 1 ~ ~ _ } : : : _ ( ) ( ( ( * ' ) ' ' ) ) ' ~ ! ) { ! ~ ' { ! ! ' = * # # 3 a a 4 4 4 9 4 f 5 4 4 7 7 7 7 7 8 8 8 7 5 5 5 8 7 7 4 4 3 3 3 2 0 # # # 0 0 2 2 2 2 2 3 3 4 4 4 3 l l l l 7 7 8 8 8 8 8 5 7 8 4 4 7 4 4 4 4 4 4 4 4 5 a a a 3 ",
"q K { v % % 3 % 3 3 3 4 3 2 6 3 # 3 @ 3 2 @ @ @ @ % 2 @ 2 $ $ $ 2 3 $ % % % % $ % % # $ 2 % % 3 % % 3 $ # $ $ # # # d % % % $ $ $ $ # # + # # $ # $ # $ $ $ # & + + + ; # # # # # # # & # # ; ; & # $ # + $ $ + & ; = & + + # $ # + # # # - + # $ $ # # $ $ $ # # # & # # + + & + + ; + ; & ; ; + + = = ' = ' = = = + & + = = , , ; ! = + ! = + = = + = = ' ' ' ' ) ) ' ' ' { ' ' { ) ! { ! ' ' ' ' ! ! ! + = , > , > , , ; > > = = > ! ! ! ! = = ! ! ! ! = = > ! ! , = , ! , ! ! ! , ! ! ! ! ! ! ! ~ ~ | ~ ! ! { { ! { ' ' ' ' { ' ' = ' ' = = = = + ; ! ! = ! , ! 1 ^ ^ | : : } : B _ _ ( ~ ( ~ ( ( ( ( ) ( ) ) ) ~ { ) ) { ~ ' { ' ' ' * # # 0 a a a 4 4 f 9 5 f f 5 5 5 5 5 7 7 7 5 f 5 7 5 5 5 5 7 4 4 a a 3 0 # # # $ 2 2 0 0 2 2 2 @ 3 l 4 4 4 l l 8 7 7 7 7 7 7 7 4 4 7 6 4 4 4 4 4 4 4 4 4 a 3 a 0 0 0 0 ",
"K K ' v % % 3 3 3 2 3 l 3 # 3 3 # 2 @ 3 2 2 @ @ 2 % 2 3 $ % % % % % # # % % $ 2 3 % # # % % % % # # % % # $ $ + - # # 3 % # $ $ $ $ $ # & # # $ & # & # # $ # # # # # # $ # # # # # & ; # # ; # ; + & = = # # & $ & & $ $ # & # # # # # # # + # # $ - - - # - + # # & & $ # + & & & & ; & $ ; ; & + ) = + = = + = = = = = = = = + + , + & ; ; ; = + + = ' ' ) ) ! ! ! ' ) ' ' ' ! ! { ! ' ' = ' ' ! ! = ! + = > , , , = , ; > > = = = ! ! ! ! ! = ! ! ! ! > = = = = = = = ! ! ! ! ! , ! ! ! ! ! ! ! ~ ~ ~ ! ! ' { { { ! { ' { ' ' ' = ' ' = = = = = = + & & $ & & 1 ! 1 ^ : g _ < : < _ B ~ ~ ) ' ) ~ ( ( ~ ) ) ) ) ! ) ) ~ ) { { ' - * * # # # a a a 4 4 f 9 9 9 9 7 5 5 4 5 7 7 5 5 5 5 5 5 a 4 4 a 4 a a 0 # 0 0 0 # # 2 2 2 2 2 2 2 4 4 2 4 2 4 l l 4 7 7 7 7 7 7 7 6 4 0 4 4 4 4 4 4 3 4 4 a 3 # 0 3 0 0 0 0 ",
"K K ' v 3 3 3 3 3 0 3 4 3 + 0 3 2 2 3 3 2 2 @ @ 2 2 2 3 3 $ % % 2 % # % $ $ 3 3 3 % % % % $ % % d # # % $ $ $ # $ % % 3 3 % $ $ # # # # # $ $ $ & & + & & # # # $ $ $ $ $ # $ # # # ; # # # + # # # # # & # + + $ # + + & & + & = r $ # # $ # # + # # # - # # # # # & # # # + + & & & ; & & ; ; & & ; + + ' ) = = = = , = + + + ; = = = + + + + = ; + = ' = * # = ' ' ' ! ' ' ' { ' ' ' ' ' ! ! ! ! = = ! = = > > > > = = , = > > > ! = = { ! ! ! = ! ! { = > { ! > ! ! ! ! > ! ! , = ! ! ) ! 1 ! ! ~ ! ! ~ ~ { ! ' ' ! ! ! ! { ) ' = ' # = = = = = = = = = , ) ) ! ! ^ : : : _ _ < [ _ _ B ~ ( ) ) ( ) ) ( ) ( ~ ) { ) ! ~ ) ) ~ ' * * # # # a a a 4 5 f 4 9 5 f 4 5 4 5 7 5 5 5 5 a 5 5 5 5 a a a a a # 0 # # # 0 2 + + + $ 0 0 0 0 2 2 2 3 3 4 n l l 3 4 4 6 6 l 4 4 7 6 0 l l 0 3 0 0 # # # 0 0 * + 0 + 0 + # ",
"K b ' v 3 3 3 3 3 3 3 3 4 0 3 4 2 2 2 2 2 % 3 2 % 2 2 % 2 2 % % % % # % % # # % # # % % $ $ % % % % % # # $ $ # $ $ # % % % $ $ $ $ $ # # $ # $ & $ # # $ $ # & & # # # # + $ # # $ $ # # # + # ; + & # & & ; & & + & & # $ & $ & + # # # # # # # # # # # $ # # # # # & # + + + + + & & & & & & & ; ; ; = = + ; ; ; = ; = = ; ; = = = = ; = = ; = + + = = = ' ' ' ' ' ' ! ' ' ' ' ' ' ! ' ! ' ' = ! = ! = = = = > > > = ; > = > > ! ! = ' = { ! { { { { { { ! ! ! = , > ! ! , ! ! ! ! ! ! ! ! ! ! ~ ~ ! ! ~ ! ! ! { { ) ! ! ! ' ' ' = ) = ) = = = = ; = ! = = ) ' ! ~ ~ : : : } < < [ _ _ _ { ~ ) ( ) ~ ~ ' ( ~ ~ ) ~ ) { ~ * ' { # / 0 3 # 3 5 4 4 5 9 9 9 9 f 5 5 5 f 5 f a 5 4 f a 5 4 a a a 5 a # / / 0 # # + # 2 # + + & 2 2 2 2 0 0 2 2 0 0 @ 3 2 3 3 4 6 4 3 3 3 3 3 3 4 3 # 2 2 2 # # 2 # + = = + + + + + ",
"C b - 6 3 @ % 3 @ 3 2 2 4 0 3 3 2 2 2 3 3 2 3 2 % 3 3 # % % # # % % d # 0 # # 0 d # % % % # % % % % % # # $ $ $ $ $ # # % # $ $ $ $ e $ $ $ $ $ & $ $ e $ $ $ + $ # + + + + # # $ $ $ $ $ $ ; $ & ; F $ $ & + # & + # $ $ $ & # # + # # # # # $ % # # # # $ # $ $ $ # # & & & ; ; & & & & $ & & & ; ; ; ; + ; + + ; ; ; = ; + = ; ; = ; + = = ; ; ; ; = = + ' ' ' ' ' ' ' ' = = ' ' ' ! ' ! ' ' ' { = = > > = = > > > = = > = > ! ! { { ! ' ' ~ ~ { { ' ! ! { { ! > = , > ! > ! ! ! ! ! ! ! ! ~ ~ ~ ~ { ! ~ ~ ! ! ! { { ! ~ ! ) ' ' ' ) ' = = = ) = ; ) ) ' ' ! ) ) ~ ~ : : : < < } [ _ _ _ ~ ~ ~ ~ ( ~ ~ * ~ ~ ~ ~ ~ ~ ) - * * # d # # a a 3 5 5 5 5 9 f 5 f f f 5 5 a 5 f f 4 a a a 5 a 3 a a a a / ( * # + + + # 2 # # $ + 2 2 2 0 & $ 0 0 $ + + 0 0 0 0 0 0 0 0 0 0 # # # # + + + $ = + + + + + + + + = = = + ",
"C K % 6 6 6 3 3 l 3 0 3 3 # 2 2 2 2 3 3 3 2 2 2 2 3 3 % % 3 % # % % # 0 a # # 0 # d % % # $ % d # % % % # $ $ $ $ $ # # # # # $ $ $ e $ 2 $ e $ & $ & + $ & $ 2 e $ ; # # $ $ $ $ $ $ F F F $ $ $ F e $ # ; + # # # $ & & & + & + + + # % % % # # # + + # $ $ F F $ $ $ # $ $ $ & # & ; ; & & & # # + ; + + + & & ; ; = ; & + ; + + ; ; & ; & & ; , = + # # ' ' ' ' = ' ' ' ~ ! ' ' ! ! ' ! ' ' ! { = > > > = = > = = = > > > > > { = ' ! ! ' ) ' ' { ' ! ! { = { > > > = > ! = > ! ! ! ! ~ ! ! ! ! ! ' { ! ! ! ! ! ' ! ! ' ' ! ) ) ) ) ' ' = = , = = ) ) = = ' ' ) ~ ~ : : : } g } } : : _ ~ ~ ~ ~ ~ ~ ~ ( ~ ~ ~ ~ ~ ~ ) # * # # # # # 3 4 3 4 a 4 f f f 5 f a a a a a f f 5 f 4 5 4 4 a a # 0 a 0 / ( * + + + + + # + # # + $ $ & & & & & + + + + + + + # # + # 0 0 # * + + ' = + + + + + + = ; = = + = ' = + = ",
"C K d 3 @ 3 % 3 @ 3 2 4 3 0 3 l 2 3 3 2 2 3 3 3 3 % % 2 # 3 % # # # d 0 a # # 0 % % % $ % % % % # # % $ $ $ $ $ $ $ # # # # # $ $ $ e $ $ $ $ $ $ e $ $ $ $ $ # & + + $ $ $ $ $ & & $ $ $ $ ; $ ; ; ; = ; ; + ; + & $ ; & & & $ # # + = # % % $ $ % % $ $ $ $ $ $ # # # & # $ $ $ $ $ # $ $ & & # # ; ; $ # + = = = = = & # ; + ; + + ; ; ; ; ; ; ; + ; = = ' ) ' ' ' ' ' ' ' ' { ! ' ! ! ' ' ! = = = > > > > > > = > = = > > ! ! { { { { { ' ) { ! ~ { ' ' ' ! ! ! = > = > ! > ! ! ! ! ! ! ~ ! ! { ! ~ ! ! { { ! ! ) ! ~ ) ' ) ) ' ' ' ) ) , = , = ; = ' = ' ) ) ( ~ ~ _ : : } g < } < : _ ~ _ ~ ~ ~ ~ ~ _ ~ ~ ) ) ) ~ ) * * # # 3 a 3 5 6 5 5 5 7 5 4 4 5 f f 4 f f f f f 4 0 a 3 a a 3 a / # / / * ) * + = + # # + + + + = + ; = ; = = = = + $ + + + + + + + + ' + + ( ' + ' ' = = = , = ; = = = = = ' ' = = = ",
"C K d 3 3 3 3 3 @ 3 3 l 3 2 3 l 2 3 3 2 3 @ 2 3 3 % % 3 # # # # % # # d # # # # # % $ $ $ $ $ % % % % % $ $ $ $ $ $ # # % % $ $ $ $ e 2 $ $ & & $ $ 2 2 2 2 $ & + + & $ $ $ $ $ $ $ $ & & ; ; $ $ $ ; ; $ # & ; ; $ $ $ F F $ e $ + = = # 2 3 % % $ $ % # # $ $ $ # # # & & $ # # $ $ $ $ $ & ; & # $ & ; & + = ; ; ; ; , ; & & + ; & ; ; ; Q , ; ; & = ) = = ' ' ' ' ' ' = = - ' ' = ' ! ' ' ' + = = = = > > > > > > > > = = = = = ' { { ) ' ) ' ' ) { { { ' = > > > > > ! > > ! = ! ! ! ! ! ! ! ' ~ | ~ ! ! { ! ~ ! ) ) ) ) ) ) ) ) ' ) ' = = = = = ' ' = ) ) ' ) ~ ~ : : : } } g } : : _ ~ _ : _ ~ ~ ( _ ~ ( ) * ) ) * / / # # # 0 3 4 5 5 5 4 5 f f 5 9 f a f a a x x 0 a a 4 a a a 0 0 / # / / * * # # = = = = + = = + + # = , = , ) , ' = + = + + + + + + + ' ( ' ( ' + ' ' ' ) ) ! , , , = = ) ) = = = ) = ",
"C . 3 v @ @ 3 3 3 3 3 3 2 0 3 3 2 % 2 2 2 3 2 % 2 3 3 3 3 # 0 3 3 % # % % # d % % % $ % $ $ % % % % % # # $ $ $ $ # # % % % % $ $ $ $ 2 $ $ $ $ 2 $ $ + + $ $ 2 $ $ # # ; ; $ $ F F $ & $ F F F $ $ $ $ $ & ; ; ; # $ & $ & & & + + # # # % $ % % % $ # # # % $ $ # $ $ $ $ $ $ # # & ; ; & ; ; & & & ; & # ; ; $ $ ; ; & + = ; ; ; & ; ; ; ; ; ; ; ; & + & + = = = = ' ) ' ! ! ' ' { ! ' = ' ' = = > > > > = = > > > > > > = = > { ' { { ' ) { { ) ) ) { ! { = = = > ! ! ! ! ! = > ! ! ! ! = ! ! ! ~ ~ ! ! ! { ! ! ) ) ' * ) ) ' ' ) ' ) ' = = = , = ' ' = ) ) ' ) ~ _ : } : } [ g } : _ _ ~ ~ _ : ~ ( ( ~ ( ) ( ' ) ( # a 0 # # a 3 3 a a f 4 4 4 f 4 f f f f f a 0 0 a a a 4 4 a 3 3 / # # # # # # * # # + # # # + = = = = + = ) ) ) ) ) ) ) ) ) ) ) ' ' ' ) ) ' ' ' ) ) ' ) ) ! ! ! ! > , , = = , , = ) = ) = ",
"C K % v % @ 3 3 3 3 3 2 4 3 3 3 3 3 2 % $ 2 3 3 3 3 # 3 3 3 3 3 % % % 3 3 # d % 3 $ $ $ $ $ $ % % % % # # $ $ # # $ % 3 3 % % $ $ $ + $ $ $ $ $ $ $ 2 $ $ $ + $ # & # ; ; + ; $ $ $ & & F F F $ & $ $ $ $ $ $ $ & # # & $ $ $ $ # # # % # # % % % % % $ $ # # # # # $ $ $ $ $ & & & & ; & # & & & ; & & & & ; $ & ; ; ; F & , & ; ; & ; ; ; & ; Q Q ; & & ; ; = = ' ' ' ! ~ ! ! ! ' ' ! ' ' { ' ' ! > > > = = = = > > > > > > = > ! = ' { ' { ~ ~ ~ { ' ' ! ! ' ! ! ! ! > = > ! ! ! ! = ! ! = ! ~ ! { { ! ! ! ) ' ' ) ! ' ' ) ) ' ' ' + ' ' ' = = ) = ' ' ' ! ! ) ) ~ ~ : : : } [ g } : _ _ _ ~ ~ ~ ( ( ~ ( ) ' ) / / * # # 3 a 3 3 3 4 4 3 a a a 4 5 5 a a f 4 f f 4 5 4 a a a 0 0 4 3 0 a a 0 # # # # # + + $ $ # + ' ' ' ) = = ' ) ' = = = ' ' ' ' ' ' ' ' ' ) ) ) ' ' ) ) ' ) ! ! = ! ! = = = = = = , ! = = ) ",
"C K % v % @ 3 3 3 3 2 2 l 3 3 2 l 3 3 3 2 2 3 3 3 3 % # 3 0 0 3 # # # % % # d % % % % # $ $ $ % # # % % $ $ $ # % % % 2 3 % $ 2 2 2 # % $ $ # $ $ + 2 3 % 2 + + + + + # $ ; ; ; ; F $ $ F $ F F $ $ $ ; - $ ; ; ; ; & & & & & & + = # % # # % 3 2 % # # # # # # # # $ $ & & & ; ; # # # # $ $ # & & $ $ & ; & & ; + ; ; # ; ; $ & & & ; ; ; ; ; ; ; ; ; ; , ; = ! ' ) ) ! ) ' ) { ' ' ' = ! { = ' > > > = = > > = = > > = = = = > > = ' { { ) ' { { ' ' ' { { = ' ! ! ! ! = + ! ! = ! ! ! ! ! { = { ~ ~ ! ! ~ { ) ! ! ) ' ' ) ) ' ' ) ' ' ' = = = ) ' ) ) ' ) ) ' ) ~ ~ ~ : : } [ g } } : : : ~ _ ~ ~ ~ ( ) ( ' ' # # # # # a 0 3 3 0 a 3 4 a f f a a f a a f a 0 0 a a 0 x a a 0 a 3 a a 3 3 3 # # 2 3 3 2 $ 2 # = = + # # ' ' + + = = = + # + + + + = ' ) ) ' ' ' ) ) ' ) ) ) = ) ) = = ! ! > ! = = ! ! ! , ) ) ",
"C c 3 v % v @ 3 3 @ 2 0 3 3 2 # 2 2 3 @ 3 2 2 % 2 3 3 # % 0 # 0 0 0 # # # # # % % % % % % % % % # # # % $ $ $ # % $ # $ % % $ $ $ % # $ $ $ $ % 2 + % % + $ # # # & # # $ # $ $ ; F $ $ $ & F F F F F # # $ ; ; $ # $ & ; & & & + # $ % # # % % # # # # # # # # # # $ $ $ $ $ $ & # & ; ; & & & # & = $ $ $ & > ; # = & & + ; ; $ ; & $ & ; ; ; ; ; ; & & ; = + = ' ' ' ) ) ! ! ' ' ' = = ' = = = = > > = = > > = = > > = = > > = = ' ! { { { ' { { ' { { ' ' ' { { = ! ! ! ! = ! ! ' = ! ! ! { ' ! ] | ~ ~ ~ ! ! ! ! ) ' ' = ' ) ) ) ) ) ) ) ' ' ' ' ' ' = ' ' ' ) ~ ~ ~ : : } } : } } : : : ~ ~ ~ ~ ( ) ' ' / / # # # # # 3 3 0 0 0 a 3 3 4 4 4 a 0 a f f a 0 0 0 a a a a 4 a 0 3 0 a 3 3 3 3 # 0 2 3 3 2 2 3 2 $ $ # # # + + # # + + + + $ + + # + = = ) ) = = = = = ' ) ) ' ' ) = = = ! = = > , = ! ! = ! ! ) ",
"C . 3 @ 3 @ @ 3 3 @ 3 2 3 3 3 3 3 2 2 2 % 2 2 2 3 3 3 % % 3 3 % 3 a 0 # # % % % % % 3 3 3 % % % $ % % $ $ $ $ $ $ % # $ $ 3 @ 3 $ $ + $ $ # $ 2 2 % % $ $ $ + # & # # + # # $ $ ; $ ; ; F $ F $ $ $ $ ; $ $ $ $ $ & & $ & $ $ $ $ $ $ # # $ % # # # # # # # # # # # # $ $ $ $ $ # $ & ; ; & ; ; # # ; $ & + & = ; & ; & ; ; & ; & & ; ; ; ; ; ; ; ; ; & $ ; ; + = ' ! ) ' ) ~ ) ' ! ' ' ! = = ' = = = > = = > > = = > > = = > ! > = { ! { { { ' { ) ' ~ { ' { { ! ! = ! ' ! ! ' ! ! ! = = = ! ! ! ! ! ! ~ ~ ! ! { ' ) ~ ! ' * ' ' ' ) ) ' ' ' ' ' ' * ' ' ' ' ) ) ~ | ~ _ : _ g } : g } _ | ~ ~ ~ ~ ( ) ' ' * / # # # # # # 3 3 a 0 3 4 6 4 4 a a a a a a a 0 0 a a a a 4 4 0 a 4 4 3 4 4 3 3 3 3 3 3 2 2 3 2 2 2 3 3 0 # # 0 2 # # # 2 2 # $ $ # 2 $ $ 2 2 2 2 # + + + + + = = = = = = = = = = = = = = ! = ! = = ",
"C c 3 @ 3 3 @ 3 3 3 2 3 3 @ 3 3 3 2 2 2 % 2 2 3 3 % 3 3 % 3 3 0 0 # # # # # # # # # # # % % % % $ $ $ $ $ 2 2 $ $ $ $ e @ @ @ 2 $ $ $ % % $ # $ $ $ $ $ % $ $ # + # # & # # $ $ ; $ ; $ F $ $ $ ; ; ; $ $ # # & & ; & $ $ $ $ $ $ # # + # $ 2 % # # % $ # # $ % # # # & ; & & # # $ $ $ $ $ & & # # & $ & , ; & ; ; ; = ; ; = & $ $ ; , , ; ; ; & & ; ; ; ; ; + = ! ! ! ) ' ' * ' ! ' = ! ! ' ' = = = = = = = = = = > > > > > > > ! { { ' ' ! { { { { { ' ' ! { { { ! ! ! ! ' ' ! ' ! ! = { ! ! ! ! { { ! ! ! ! ! ) ) ) ! ! ) ) ) ' ) ) ' ' ' * ( ' ' ( ) ' ' ' ' ! | ~ : : _ } g : } : _ | ~ ~ ~ ~ ( * * ' * ' # # # # / # # 3 0 0 3 3 a a 3 a a a a 0 0 0 0 0 0 0 0 # 0 0 / a 4 4 3 3 3 3 3 3 3 3 2 # % l 3 # 2 3 3 3 0 # 2 2 # + # 2 2 # $ $ # $ # # 2 2 2 % $ $ # # $ $ # # # $ # # # # = = + + + + > , ! = = ",
"H c v v % 3 @ @ 3 2 2 3 3 3 2 2 3 3 3 2 3 3 2 3 2 % 3 3 # 0 0 # 0 a a 0 0 0 % 0 0 0 # # # # # # % $ $ $ % $ $ # # $ $ e e $ $ $ $ $ 2 $ $ $ + # $ $ + $ $ & $ # # # $ $ $ # # # ; $ F F F ; ; $ $ $ $ F $ ; # $ $ & ; $ $ & & & $ $ $ # # # $ # # # % $ % % % % # # # # & $ $ $ $ $ $ & & & & ; ; ; ; # $ ; ; $ ; ; & ; $ & ! ; & ; & & & & Q , & & & ; ; ; = = = ' ' ) ) ' ) ) ' ' ' = = = = = = = = = = = = = > > > > > = = = = ! ! ! { { ~ ~ { { ~ ~ { ! ~ ! { ' { ! ! ! ! ! { ' ! ' ! ! ! ! ' ^ ~ ~ ~ ~ ~ ~ ~ ~ ) = ' ~ ! ' ' ' ' ) ' ( ) ' ) * * ' ' ' ' ) ) ! ~ ~ ~ : : } g : : _ _ : ^ ~ ~ ~ ) * ' * # / # # # # # # # # # 0 a # # # 3 3 a a 3 0 0 0 0 0 0 0 0 0 0 0 0 a 3 3 a # 3 3 3 0 3 3 3 2 # @ 3 # 2 2 2 3 3 # 2 3 # 0 2 2 2 2 2 2 2 2 0 $ $ $ $ $ 2 2 3 2 $ % % % % % $ % # # # # - + + + + = ! = + ",
"H c v v % 3 @ @ 2 2 2 2 3 3 3 2 l @ 2 2 3 2 3 3 2 % 3 3 % # # # a 3 3 a 3 3 3 3 0 0 0 3 3 # d % $ F e @ @ @ $ $ F e e @ @ F $ e $ $ 2 & & $ $ # $ 2 $ $ $ + & # # # # ; ; + ; ; ; $ $ $ $ ; ; F F $ ; $ ; = # $ $ & ; ; ; ; ; $ $ $ $ $ $ $ $ $ $ # # $ % $ $ $ $ $ $ $ $ $ $ $ # & & ; & & & & # & ; + # & ; & ; + & + ; & ; = + & $ & & & & ; & ; ; ; & & = ' = = ' * ' ) { { { = = > = + = = = > > > > > = = = = = = = = + + = { ! ! ' ' { ~ ~ { { { { { { { ! ! ! ! ' ' { { ! ! ! ' ! ! ! ! ! ! ! ~ ~ ~ ~ ~ ~ ! ) ' ) ~ ! ' ' ' ' ) * ' ( * ( ( ' ) ) ) ' ) ) ! ~ ~ ~ : : g g : _ _ | : | ~ ~ * * # * # # # 3 # 0 3 # # # # a # # a 0 # 0 0 0 0 3 a 0 # 0 0 0 0 0 a # 0 0 0 0 3 3 0 3 3 0 0 2 2 @ 3 2 l @ $ 2 2 2 l 6 0 3 3 2 3 3 2 2 3 3 3 3 3 2 2 2 2 2 2 e 2 2 2 @ @ 3 3 3 % # # # # # $ $ - + + # = = = ; ",
"H O v v # @ @ @ % 2 @ 2 3 3 @ 2 @ 3 $ 2 3 2 2 2 % 3 3 3 3 # # 3 0 # # # # % % # # # # % 3 % % $ $ F e e e e F F e e F F F F F e $ $ $ $ $ $ $ & + $ + $ 2 & & $ # # ; ; ; & $ $ $ & & $ F F F F F $ ; $ $ $ $ & & # & & $ $ $ $ & & $ $ $ $ $ F e $ $ $ $ $ $ $ # # # & ; ; ; ; ; # $ $ $ $ $ $ $ F & + & # ; ; ; ; ; ; ; & $ ; & & & , , & & ; ; ; ; ; ; + = ' = ' ' ) ~ ) * ' ! = = , = > > = = > = > = = = = = = = = = = > > = = ! { { { ) ' { { ) { ! ' ' { ! ! ) ) { ! { { ! ! ! ! { ! ! ! ! ! ' { ! ' ' ! ! ) ! ! ! ) ) ) ) ) ) ) ' ( ( * ( ( ( ( ) ) ' ' ' ! ~ ~ | : : g : _ _ _ ~ ~ ~ ~ ~ ) ' # # # * / # * # 3 # # # # 0 # # # a # # # 0 # 0 0 0 # 0 a 0 0 0 0 # 0 / * * + # # # # # # # % 3 2 # @ @ 2 @ @ 2 @ l % 3 3 3 3 3 3 3 3 % $ $ $ % 2 $ 2 e $ $ $ % % @ @ 3 @ @ % $ # $ # # # # + = + # ! - = = ",
"H y v v $ @ @ @ % 3 @ 2 2 3 l 2 3 3 2 2 2 2 3 3 2 3 3 3 3 0 0 % # # # # d % % d % 3 % # 3 3 3 @ F F F F $ F F F e F $ F F F F F $ $ 2 $ $ $ $ & & & & $ $ # # & # & ; $ $ $ $ # ; ; ; & F F F F $ $ - $ $ $ $ ; ; & & & & & $ & & $ F F F $ $ $ F $ $ $ $ $ # & & & & & ; & & & & # # $ $ $ $ $ $ $ $ & & & & ; ; ; ; ; + ; # # & + + & ; ; ; ; ; & & & = + = = = = ' ' { ) ' ! ! = > , = > > = = = ; + = = = > = = = = > > > ! > = { { ! ~ { * ' ) ) ! ~ { { ! ' ' ' ! ! ~ ~ { ! { ! ! ! ! ! ! ! ! ! ~ ~ { { ! ! ! ! ! ) ) ) ) ) ) ) ) ' ) ( ( ( ( * * ' ' ' ' ) ! ~ ~ | : : : : _ _ _ ~ ~ ) ! ! ( ( # 0 0 # # # # # 3 0 # 0 # # # # # 3 3 3 # # # # 0 0 3 3 0 0 0 0 0 0 a # * * ( * # # # # # # + # $ + $ $ # $ $ % % 2 # 3 3 3 3 3 % % 3 % # # # % $ $ 2 2 2 2 2 2 $ $ $ $ $ $ $ % $ $ # # # - - - = + = + = { ",
"H y v v r @ @ @ 2 2 2 2 3 3 3 3 @ @ @ 3 2 3 3 3 3 3 # # % % % 0 d # 3 3 3 3 3 $ 3 3 % % 3 3 @ @ e @ @ @ e @ @ @ @ @ r r e r e @ e $ $ $ & & & $ $ $ F $ & $ $ ; & # ; $ $ # & ; ; ; & ; $ F $ F $ $ & $ $ $ $ $ $ $ & & ; & $ $ F F F F F F F F F $ # & # # & & & & & & & # $ # # # # & & $ $ $ $ $ & + & $ + + $ $ ; ; & ; + ; # & + # & ; ; & & & & & + + + = + = ' ' * ) ! { ' , , > > = = > = = ; = = = = > > > = > > > > = = > ! = = ' ' ' ) { { ' ' = ' ! { { { ! ' { ~ { { ! ! ! ~ ! { ! ! ! ~ | ~ ~ ! ! ' ! ! ) ' ! ) ' ' ' ) ' * ' ( * * ( ( ( ) ) ) ' ) ! ~ ~ | : : : : : : | ~ ~ ~ ~ ( * * # 3 # # 0 3 3 0 3 0 # 3 2 0 0 0 # # # 3 # # # 0 # + + 0 0 0 0 0 0 # 0 0 3 3 2 3 3 3 # 2 # + = = % # $ $ # # # # % % # % # - # # = = # # # # # # $ $ % $ $ 3 3 $ % $ 3 % $ $ % $ # % % # # # # # = = # = = = ",
"H T v v @ $ 3 @ 3 2 2 @ @ 3 2 3 l 2 @ 3 3 3 3 % 3 3 3 % % % % # 0 # 3 % % 3 $ % % % % % % $ $ $ F F F F F F F $ e e r e r F F F F $ $ e $ & $ $ & $ $ & & F $ & $ F $ F $ ; ; ; $ $ $ $ & $ $ $ $ $ $ # & & & & & & & & & & $ & F F $ & F F F F F F $ $ # & + + + ; ; ; ; & # # # # $ $ $ $ $ $ $ $ $ & & $ $ ; # + ; ; ; $ $ + + $ + + & ; ; & & & & & = ' = + = = ' ' ' ' ' = = > > > > , = = = = = > > > = > > = = = > > + + = = ! { ' ' { ! { ' { { { { { { { { ! ! { ' { ~ ~ ' ! ! ! ! ! ! ! ! ' ' ! ! ! ! ) ) ~ ~ ' ' ' ! ) ' ' ' ' ) ) * * ) ( * ( * ) ' ) ~ ~ ~ ~ _ : : : : : ~ ~ ~ ( ) * # * # 3 # # + # 4 # # # # 2 2 0 3 4 3 0 # 2 # # # 0 # # + 0 0 0 a 0 0 0 0 0 0 # 2 2 # # # # # # # # $ & # $ $ # + + + # + # = = = = = - * ' = = + = + - - - # - # % % % % $ % % 3 % $ % $ # # # # # - = # = = + ",
"t S o v r % 3 3 3 3 2 l l 2 2 l 3 2 3 3 2 3 2 % 3 3 3 3 # % % # % 0 3 % % @ $ % $ 3 % # % % $ $ F F $ $ @ F @ F @ F F F r r F F F F $ e $ # $ $ & $ $ & $ $ $ F $ F F $ $ $ ; $ $ $ $ $ & $ $ $ $ $ $ $ $ & & & & & & & & & $ & F e e k r F F e F $ $ F F ; & ; & # ; ; # $ $ $ & ; $ F $ & & $ # # $ & ; $ $ & ; ; ; ; + $ $ - ; # + + # ; ; $ & ; # ; + + + + = = = = = = = = = , , > , = = , = = > > > ; = > = = = = = = ! ! { = { = % = { ! ! ' { ! { { { { ! ! ~ ] ! ' ! ~ ! { { ! ! = ! ^ ! ! ^ ! ! ~ ! ~ ~ ) ~ ! ' ' ' # # = ' ' # ) ) ) * ' # ) ( * ) ) ' ~ ~ : ~ _ : : : g : ~ ( ( ( ' # # # # 3 0 # # # + # # # # 0 # # # # # 0 2 # 4 # # 2 + 4 0 # 0 # 0 * * # 0 # * 0 0 # # # # # # # # $ % # # + $ ; + + = = # + # = { - ' ' = = = - - = - - - - # # v # # % # # % % # % % % # # # # # # - = # = = = ",
"t U L o r r @ 3 3 3 2 @ 3 2 2 3 2 2 3 2 2 3 % % 3 # % 3 % 3 3 % % % 3 3 # $ $ $ $ 3 % # % % $ $ @ @ @ r r # + ; @ F @ @ @ @ F F $ $ $ $ $ $ $ $ & $ $ & & ; & F & ; ; ; ; $ $ $ $ $ $ $ & $ $ ; $ $ $ & F $ $ $ & ; ; & & & $ $ & & & F e k e e F & ; ; ; ; $ $ $ $ & ; $ $ # & + = + $ $ ; & $ # ; & ; ; + & & ; + ; ; ; $ $ # # # + ; # ; ; $ $ ; # # + + + + + + = + + = = = = = , = = = = = > > > > ; ; > > - - = = - - = - = = ] ^ > ! = = ! = { = = = = ! ! { ! { { ! ! { ' ! ~ ~ ! ! ! ! ! ~ ~ ! ! ~ ~ ~ ~ ) ' ' * ' { ' ' ! * ~ ~ ~ ) ~ ) ( ) ~ ' ' ~ ! ~ ~ { ~ ~ : : _ _ g : ( ( ( ( * 2 0 0 2 l 3 2 3 3 0 # # # 2 # + + # # # # + * 2 * # 3 ( ( ( * # * * # / * # # # 3 3 0 # % 3 # % % # # $ $ $ # $ ; = ; + + $ ; + = # # = = = = - - - = - d % % % - % - % @ d - % % % % % % % % d # # # = + + = = = ",
"E U L o r @ @ 3 3 3 2 3 3 2 2 3 2 2 2 2 3 3 3 3 3 3 3 3 % % % % % % 3 3 $ e F $ $ $ % % 3 % 2 $ $ @ $ $ $ $ $ $ $ $ $ $ $ F F @ F F $ e $ $ $ # & & & & & & $ F F $ ; ; ; $ F F # ; # # & & ; ; $ $ $ & & & & $ & & & $ $ $ $ $ F e F $ $ V & & $ $ $ $ & & $ # & & ; ; # $ # $ & + $ F $ ; ; ; & $ $ ; ; $ & + ; ; $ ; > ; $ - + ; + & # ; ; $ $ ; & & + + + + + = = = + = ! = = = , = , ! > = > > > > Q ; = = = = = = = { ' = { { { { = ! = = ] ! = = > ! = > { > { ' ! ~ ~ ~ | ~ ~ ! ! ! { = ! ^ ~ ~ ) ) ( ) ( ) ' ' = ' ! ' ! ! * ) ! ! = ) ) ) ) ~ * ) ~ * ~ ~ ~ ~ ~ : : _ _ : | ( ( * + + 3 0 2 3 3 2 2 3 3 2 2 2 # 0 2 # # 2 2 # # # # 2 + * # ( * * * # # 0 3 3 # a 0 # 0 # # # # % # # % % # # # # ; ; + + & & = = > = = + - { = - # d - d - d d % % % % % - % @ d % 3 - - % % # % % % % # # # + - = = = ",
"E U L k $ r @ 3 3 @ 2 3 3 3 3 3 3 3 2 3 3 % 3 3 % 3 % % 3 % % 3 % % $ 2 $ @ F $ $ $ % % 3 3 2 $ $ $ $ # # @ k n @ @ @ k @ F F F F e e 2 $ # # & ; & & & $ $ $ F F F & & $ & $ $ ; ; # $ $ & ; # # # $ $ & $ $ & & $ $ & & $ $ $ e @ @ e e F $ & $ $ F e F F $ $ $ $ ; & $ $ $ $ ; ; & $ $ & # $ $ $ $ ; ; $ & + & ; $ $ = - $ - - - + - # # ; $ $ ; ; - + + + + = = = ' + = ! = = = = = = , , Q ; ; Q > > ; ; = = = - = = { { { ! - - = = = = + ! ! ! ! ! > = = ! ~ ! ~ ^ ^ ~ ~ ~ ~ ~ ~ ! ! ! ! ! ~ ~ ~ ~ ~ ) ( ~ ~ ~ ~ ' ' ' = ' ' + = * ' # ' ' * * * # ~ ~ * ~ ~ ~ : : : : : : : ( ( ( * 0 0 # 0 0 2 2 # # 2 3 2 0 # # # # + # + * + 2 2 + ' # # ( * 3 0 ( * # 3 4 4 a 3 0 # # # * * # # * * = - - # = = ! = # ; = = > > ; $ ; - # = # # d # % % % % % % % % d d d % # d % % - - % - - % % d % # # = = = = ' ' ",
"E U L k $ @ 3 3 3 3 2 @ 3 3 3 3 3 3 # 3 3 # 3 3 % 3 % % 3 % % 3 % $ 2 $ $ e $ $ @ @ 2 $ % % % $ 3 3 # $ $ $ ; # # F $ F @ F $ & $ $ # $ $ # # & + & ; ; & & & $ $ $ & $ & ; $ & + $ $ $ $ $ # # # # $ $ $ $ $ & & $ $ & $ $ $ $ $ $ F F e e e F F $ $ $ & $ & # # # & & $ $ $ $ $ & & $ $ ; # $ $ + F $ ; & ; ; ; ; - $ $ $ $ = # # + - # # ; # # ; ; # + + + + + = = * # = ' = = , = = = = , = = = Q = > > = > > = = = = = = ' = = = = + = = = = = ' ! ! = = ! { ! ! ! ~ ~ { { ) ) ) { ~ { { ! ' ' ! ) ( ~ ( ( ~ ( ~ ~ ( ' ' ' ) ) ) { ~ ~ ' ~ ! = = * # ) ~ * ~ ~ ~ ~ _ _ : _ | : | ( ( * + # + + # # # # # # # # # # # + + ' ' ' ' ' ' ) ) ~ ( # * * * # # 2 3 0 0 0 0 0 # / # # # # - # * ' * - { - - = = = - = ; ; = = = = > # - - % # % % % % % % % % % % d # @ % # % % % % % @ # # 3 # d % # = = = = ' ! ! ",
"E U L k F @ 3 3 3 3 3 @ 2 3 3 3 3 3 2 3 3 2 3 3 3 3 3 % 3 % % 3 % % 2 @ $ @ e F $ $ 2 % 3 % 3 $ % $ $ @ $ @ $ @ F @ F F @ @ @ $ $ # # # $ # $ $ # # + + # & & & & ; ; $ $ & $ $ ; $ $ & & ; + # # $ # # & & & # $ & $ $ $ $ $ $ $ F F & & & F $ F F $ $ & & ; ; + # # & # & ; & # & $ F $ & # # ; + $ $ ; & & + + ; $ - - $ - = - - - - - # # + # - + # - + + - - = = ' # = ' = = > > > = > > = , Q ; ; ; = = = = = = = = - - = = = = = = = { = = + = > ! { ! ! { = ' ! ' = ! ~ ~ ~ { ' ! { = ! ! ~ ~ ~ | | | _ ~ ( ( ' ' ' ' ) ' ' ) ' ) ) = ' ~ ' ' ~ * ' ) ' ' ) ~ ~ _ _ : _ ~ g : ( ( ( ( ( * * + + # # # ' ' * + + # + * ' ( ( ' ) 1 ~ # ' ) ( * # # 0 3 3 # * * / / # / / # # # # # # / z - - = - - - - { { ! > + + = # - + - r $ % % % % # % % % % % % % @ 3 v % % v v v v o v @ @ 3 d d 3 # = = = ' = ' ! ",
"E W L n @ @ 2 2 3 2 3 l 2 2 2 3 3 3 3 3 3 3 3 3 3 3 3 3 3 3 3 3 3 $ 2 @ $ e e $ $ $ 2 % 2 % 2 $ % $ @ @ + # $ k $ $ $ $ $ e k $ + 2 $ $ $ # $ # # # + + $ $ & & & & ; & $ ; & $ & ; ; + + + + + ; # & # & # # $ $ & & # & # $ e $ F @ e F $ F $ $ $ & $ $ F & ; & & + & $ & & $ # ; # # & & & & ; & $ $ ; + ; + + ; $ $ $ $ - - - - # - - # - + # # + # # + - - - # = ' = = ' + + = = = = = = ; = $ = = ; ; = = = = + = = = = = = = = = { { > = = = = > ! = = ! ! ! ! ' ' ' ' ' { ~ ! { { ! ! ! ! ! ! ~ ~ ~ ~ ~ ~ ( ) ' ' ' + ' = * ) ' * * * * * = ' ~ * ) ' ' ) { ~ ~ ~ _ : _ _ g : | ( ( ~ ( ( * + + + + + ( ' + ' ( ' ' ) ) ~ ~ ' ) = = $ + % # * 0 0 3 # # + # # 0 # # / / / * / - - - ' ' ' { { - - - - { = { { = = = $ % % @ v @ @ r r r @ @ % 3 @ % 3 6 @ @ v v v @ % 3 @ @ % % % @ @ @ 3 # = = = = = ' ' ",
"E W A k @ @ 2 3 3 2 2 l 2 2 3 3 3 3 3 3 3 3 3 3 3 3 3 3 % 3 3 % 3 3 2 2 $ e $ 2 3 3 2 % 2 % % % $ $ $ # # $ k l @ k @ e $ $ $ # $ % $ # $ # # # # # + + $ # & & & & & ; ; + ; ; + + ; + # # # + # # # $ # $ & & # & $ $ $ $ & $ $ $ e e $ $ $ $ $ # & & # $ & & $ $ & & $ $ & # # ; ; ; & ; # $ $ # $ e $ + # $ # - - $ $ ; ; # # # # - + # # + # # + # # + - # + = = ' = = = = = = = > = + = = = = > > + = = + = > > ! ! ! ! ! { { = > { > > = = = = ! ! ! ! ! = ' ' ' ~ ~ { ! ~ { { ! ! ! ! ! ] ! ~ ~ ~ ! ) ) ~ ( ~ | ~ ) ) = ' ! ! ) { ) ! { ' - ' ' = ~ { { ~ ~ ~ ~ ~ _ : : : _ | | | ( ( ) ( ' + + ' ' * ' ' * ( ( ( ( ) ( ~ ) + $ e 2 $ ' ' # # 3 # # # 2 2 0 # # # # * * * ) ' ' { { { > > > > - - { { { - - # % # - % # # v k r @ @ k v v @ % 6 6 @ v v v o v v o v @ @ 3 3 @ @ @ @ 3 3 3 * ' ' ' ' ' ! ! ",
"E R A J F @ 2 3 @ 2 2 @ 2 3 3 3 3 3 3 3 3 3 3 3 3 3 3 3 3 3 3 % 3 3 $ 2 2 @ $ $ $ $ % % 3 2 2 % $ $ $ # # $ @ 2 $ 2 $ $ $ $ $ # % % # # $ # $ $ # # + + # # # # $ $ # ; ; ; # # + + # # # # # + # # # $ # $ & + # & $ $ # # + # # $ $ $ $ $ $ # # $ $ & & # $ $ $ $ $ # # & ; & $ $ $ $ $ # # $ & & & $ $ & $ ; ; $ $ # ; ; $ F # - # # + # # + # # + - # - - # + = # + # # = = ' = = ! = = ! > > > = ; - - - # ; = > ! ! = = > = > > > > = = = + = ! ! ! > ! ! = = + + ' { = = { = = = = = > > > ! ! ! ) ' ' ' ' ' ' ) ' ' = # = * * # ' ' ) ' { ' ' { ' ) * ' * : ~ ~ _ g g : : : : _ | | ~ ~ ( ( ) ( ) ( ( ~ ) ( ( ~ ( ' ( ' ' + $ $ 2 $ $ $ + # a a # # # % # # + * * # * ' ' ' ' { { { > > > > > - > ] ] ] - d % % % % v 6 v v v v v v o v v 8 o o o o v v v A k v o @ 3 % # d % % % d ' ) - * ' ) ' ! ! ! ! ",
"E R A e F @ 2 3 3 2 2 @ 2 3 3 2 3 3 3 3 3 3 3 3 3 3 3 3 3 3 3 3 3 3 3 3 % 2 2 2 2 2 3 % % $ 2 2 % $ @ $ $ $ @ 2 $ 2 @ @ 2 2 2 % % % % % % % % % $ $ + + $ $ # $ $ $ ; ; $ $ # $ # + # $ + + + + # $ + # # # # $ $ & & + + + + $ & & & # # e $ $ # $ $ ; & $ $ # $ $ & $ $ & & $ $ $ $ $ # $ $ & & & ; & & $ $ + = $ $ ; ; - $ $ # # # # + # # + # # + - # # # # # # # # # # = = = = = = = ' ' = = = = = = = = = = = = ! { = = > > > > { ! > > = = = > { ! = > ! { , > ! = = = + - = > = ; ; ; ; F k n k @ @ + ' ' ' ' = ' ' + = = * * - ' ' * - ' ' ) ) ' ) ' ' ) ~ ) ( ~ : : ~ | : : | ~ | ~ ~ ~ ~ ( ( ~ ~ ( ( ) ( ( ( ( ( ' + + @ e e e $ $ @ 3 # # / # # # # # + + * ' = = ' ' ' = { ! > > { X X > > > d % - % % % r r # v v o o A A Y Y Y 8 8 h o 8 o o o o v o 3 o o @ @ @ o o 3 # d # / ~ ' * ' ' ' ' ! ! ' ",
"E R A e F @ 2 2 2 2 2 3 2 @ 3 2 3 3 3 3 3 3 3 3 3 3 3 3 3 3 3 % % % 3 3 2 3 3 2 % % 2 % 2 % 2 % % + $ $ @ $ @ $ $ $ 2 $ $ $ $ $ 2 3 % % % # # # # # + # $ $ # # # & ; ; # $ # # + + # # + + + + # $ # # & # # # # & # # # # & + + & # # + # # $ # # # ; & & $ & $ $ # $ $ $ & & # ; + ; ; & $ $ $ # $ $ $ $ $ ; ; ; - + ; - ; ; - - # # + # # + - # - - # # # # # # = = - = ' = + = = = ' ! ' = = = = = > ! > = > > = + = = = > = = - = { = # - = { + + { ! = = = ; ! ! = + ! ! = = > > > $ e J n Y i i Y Y o # + ' ' + ' = # ' = - * # - - - # - = ) = * ~ { ) ~ ~ ~ ~ ~ : : ~ _ : g _ | : ~ ~ ~ ( ) ( ~ ~ ( ) ) ( ) ) ' ' * # 2 @ @ 2 @ @ 2 @ 2 # # # d # = # = = = = ) ' ' ' = { > { { > > > Z - - d d d % d % @ k v v v o v o o v o Y o o o 6 6 6 o 6 6 6 6 6 @ % @ @ 3 3 3 3 % - - ' ' ' ) ' ' ' ! ! ' ~ ! { ",
"E R A e F e 3 2 2 3 3 3 2 @ 3 2 3 3 3 3 3 3 2 3 3 2 2 3 2 % 3 3 3 3 3 3 2 3 % 2 3 3 2 % 2 % % % $ # $ $ e $ @ $ $ % 2 % $ # # $ % % # # $ # $ $ # $ # # $ # & # & & # & + ; + + + + # # + # # + # # # $ # $ $ + + $ $ + + # + + # # $ 2 $ 2 $ $ $ $ $ $ $ & $ $ $ # & ; ; & & & $ $ $ $ $ ; ; ; + & $ $ # $ $ # ; # $ - - $ $ $ $ # # # + # # - - # # - # # # # $ # + # # # = = = = ' = = = = = = = + ; = > = - + = = - + = + + + - d d - # # = ! { # # ! ! = % 2 3 @ o 8 Y A 8 8 8 o o 8 A A A Y j j j j j i 8 6 4 0 # # # # * * * ) = - = = ' ' = ' - * ' ' - - ~ | _ _ : g : : g g : _ : _ _ ~ ( ( ( ( ( ~ ~ ~ ( ) ( + # 2 3 3 2 + + $ % # 3 2 a # * * ' ) ' ' ' ' ' ' ! ! = = ! { - > > > - - d d % % % % % @ v v v v v 8 o o o 8 h h 6 6 5 3 5 5 5 3 3 3 % 6 3 % % % % 3 % # * - d ' ~ { ) { ! ! ! ! ! ~ ~ ! ",
"E R A @ e e 3 2 2 3 3 2 2 3 2 2 3 3 3 3 3 3 3 3 3 2 2 3 3 # 2 3 3 3 3 2 2 3 % 2 3 3 2 % 2 % % % 2 2 e $ $ $ 2 2 2 $ 2 2 2 2 2 % # # # % % % 2 2 % $ $ # # & & # # $ $ # # & + # # + # # - # # # + + $ # + # $ # # $ $ + + + + + # # # $ % $ $ $ # # # & & ; & & $ $ $ $ & ; & & & & # # & $ $ $ $ # $ $ & & $ $ # # # $ $ $ $ $ $ $ # # ; + # - + # # - # # # # $ # + # # # # = = = ! = = = = { ! > = + = = + - - - - - - # $ $ # - - - - % # # = # 2 @ @ l 8 m m i i j j j ` ` j j j j j j j j j j j j j j j i m h h 7 5 f a a # # # - = d - { ' - { = ' { { ' ) ~ ~ | _ : : : : : : : | : : ~ ~ ~ ~ ( ( ( ~ ~ ( ) ' + + 2 3 3 2 # # % 3 # * # ) ) ' ) * * { ' ' ' ' ' ' { { = - { > - > > - d d d % % % v v 3 v o v o v 3 v 6 6 6 o 6 6 4 5 w 5 5 a a a 3 3 2 @ 3 2 3 2 # # # # # * ' ' ' ' { { ! ! { ' ! ~ ! ! ",
"E > A k e @ 3 2 2 3 3 2 2 2 $ 2 3 3 2 3 3 3 3 3 2 3 3 2 3 # # 2 # # 3 3 3 3 3 2 # # 2 2 3 2 2 % $ $ $ $ 2 $ $ $ @ 2 # + # % % 2 % $ # % $ # $ $ # $ $ # # & & # # # & # # # $ $ $ # # # # # # # # # # + # # # $ $ $ $ $ $ # $ + # $ % # + + + # # + + & & & ; & & $ # # # # $ $ $ $ $ & & & # $ $ $ $ F & ; $ $ $ ; ; - $ ; ; - $ $ $ $ ; ; # - + # # + # $ $ # $ % = - - = = = # = ! = = ) = = { = = = > > - - - # % r r % % % $ @ - % % 6 8 6 Y Y Y i j j ` j j ` ` `  . . . . . . .` ` ` ` `  .j  ...j  ..... . . ...m h 7 f a a # d d 3 d - d # { - ' { ) ' { ~ ~ ~ ~ _ _ : : : : : _ : : ~ ~ ~ _ ~ ( ~ ~ ( * + + + # 2 3 2 2 3 3 3 # # / / ( ( ' ~ { ~ ~ ' { = ' ' ' ' { { { { - - - d % % % % r r @ 6 w 3 v o 6 8 o 5 6 5 4 4 a 0 a / a a a x x a 0 0 2 $ 2 % # # 3 2 # # # # ) ~ * ' { { { { ! { ' ! ! ! ' ",
"E > A @ e 2 3 2 2 3 2 2 2 2 2 2 3 3 3 3 3 2 3 2 2 2 2 # 2 2 0 3 3 3 3 3 # # # 3 3 3 3 % # # % 2 2 # + 2 @ @ + $ 2 2 $ # # # # % 2 % $ % # + + + + # # # & + & # & & ; # # # $ $ # # # # # # # # # # + + $ $ $ % $ # + $ $ # % $ # % % % % # $ $ $ & & $ $ $ $ $ $ $ $ & ; # $ # $ $ $ $ $ ; ; $ $ $ $ F ; ; $ $ ; - ; ; $ $ - $ $ $ $ $ ; ; # + + # # ; # $ $ # $ % = # - * = = # - = + = ' + = = = - = > > - # % @ v o o v 6 6 6 6 6 8 Y Y Y i j j j j ` ` ` `  . .` ` ` ` ` `  ... .` ` ` ` ` ` ` `  .` `  . .` ` `  ...m h x / / # # # d # d d ' { - ~ ) ' ' ) ! ~ ~ ~ _ _ _ : : : : _ _ _ ~ ~ ~ ~ ~ ~ ~ ~ * # + # 2 # 2 3 3 2 2 # # ' ' ' ( ( * { : ~ | ~ { | * ' ' ' z z = = ' % # d % @ @ @ @ @ @ v v v v w 5 4 o 5 3 4 w a a a a w / x x x x / / * + # + # # + * # # ) ) * ) ~ ~ ' ' { ' ' ) ! { { ! ! ! { ",
"E ! L e 2 2 2 2 2 2 2 2 3 3 2 3 3 3 3 3 2 2 3 3 2 2 2 0 # 3 2 # a 3 2 3 3 3 3 0 3 2 % 2 3 2 2 % % $ $ e 2 @ $ $ $ $ % 3 2 # # 2 2 # # % % $ $ $ & $ $ # # & # # # # ; # # & # # + # # # # # + + # # # # $ # $ $ $ $ $ $ $ & $ # $ # + = % # # + # $ # $ # & # $ & # # # & & # # & & # # & & & & $ $ $ F & ; $ $ ; $ $ $ F $ $ $ $ $ ; $ & ; # # + ; # ; ; $ $ - # # - d d - - ' - = ' = = ' ' ! = - - - - d % @ o Y Y i i i i i Y Y h i i j ..j  . . . . .` ` ` ` ` ` ` ` ` ` ` ` ` ` `  .` ` ` ` ` ` ` ` ` ` .... . .`  . ...h 7 4 6 3 3 % d # d - - % { - - ' ' ) ~ ~ ~ : _ | _ : : : _ _ _ ( ~ ~ ~ ~ ( ) ( # 2 # 2 2 2 0 0 # 0 # # ' ( ~ ( ( ( ' { ~ { ~ ~ * - * / - - - d d d d % % % @ @ @ @ 6 6 3 5 6 w 5 6 6 a 4 a a w w a a a a w f f / / x / 0 / # # + # # # ) ( ( _ ~ * ~ ( * ' { ' ' ' { ~ { { ! { ' { ",
"t ! o e 2 2 2 3 @ 2 2 2 @ 3 2 @ 2 2 2 2 2 2 3 @ 2 2 2 2 2 3 0 # 3 3 0 3 3 3 3 # 3 2 # 3 3 3 3 % 2 2 $ 2 2 2 % # $ # # 2 2 # 2 2 % # + % % $ 2 % $ $ # # # # # # # $ # # & & # # + # # # + # + + # # $ # # # # # # # $ $ $ & # # # # + # # + $ 3 + $ + $ # + # $ # # # # # # # ; ; ; ; # # # # ; $ $ $ $ $ ; $ $ ; $ $ $ $ $ F $ $ & ; $ & ; & & + ; # ; ; $ # ; - # = # - - - { - - = d = { ! ! # = = - - - - 3 Y i i i j  . .j ..j  . . . . . . .` ` ` ` ` ` ` `  . . . .+.` ` ` ` ` ` ` ` ` ` ` ` ` ` ` ` ` ` ` ` ` ` ` `  .....h 8 6 6 % d d = # % - - - - ' { { ~ | _ : : | : _ : _ _ _ _ : ~ ~ ~ ( ( * # # 3 4 2 2 2 # # 0 # # ' ' ( ) ( ) ) * * ' { * / - * ' # d - d % # % % % % % % 3 3 3 5 5 5 5 5 5 4 5 5 a a a a w / f a w / / 5 a x / x / * / / * # # # # # * / / # * ' * * / ' ' ' ' ' ' ' - = ' ' ! ",
"  ) l 2 2 3 2 2 @ @ 2 2 2 2 2 2 2 2 2 e @ 2 2 2 2 2 3 3 3 3 # # 0 3 0 0 # # # # 3 # # 2 # # 2 % % 2 $ 2 $ 2 2 # $ # # 2 # # 3 2 % $ $ 2 $ $ $ $ $ $ # # $ # # $ # $ $ $ & # $ # # $ $ & # $ $ # $ # # + # + # # # + # & # & # + + # $ % # = # # ! # $ $ # + $ $ = + # # # - # $ $ # - ; # # ; $ $ $ & $ ; ; $ ; ; F F $ $ $ F F $ & ; & ; ; & # & $ $ $ ; $ r + = - - ' ' - d - - - ' ' { { { ! ! ' = - - - % o Y @.j j j j  . . .` ` ` ` ` ` ` ` ` ` ` ` ` ` ` ` +.+.+.+.+.` ` #.` ` ` ` ` ` #.#.` ` $.$.` ` ` ` ` ` ` ` `  .....m 8 @ 8 8 6 5 3 # d = - d - ' { ~ ~ | ~ _ : _ g g : _ _ : : : ~ ' ( ) ( * 2 2 2 0 # 0 # # # + ' ) ) ) ( ( ) * ! ) ' * - # # / # # % # # % % % % % % % 3 6 6 6 6 5 5 4 5 5 5 4 a 5 a w 4 a a / a x / x / / / # a a / * * * * # # # # # # # # # # / / / # # # ' ' ' = - - - = ' ! ",
"  ) l @ 2 2 3 2 2 @ 2 2 2 @ 2 2 2 e e 2 2 2 $ 2 2 2 3 # 0 0 # 3 3 3 3 2 0 0 # 2 0 + # 2 # + % % + % $ 2 $ $ 2 $ # % 2 2 # 2 2 # % 2 $ $ $ $ 2 $ $ $ # # $ # # % # # # + + & # & & # # + & # + + # # # # # # + = # # $ & & & # # # # # # # = # # ' $ $ $ + + # $ # # $ $ # - # $ $ ; ; ; $ ; + ; $ $ $ F Q & F ; F $ $ $ F F ; F $ $ & $ & & $ F $ $ $ $ ; $ $ = = # # # - # d - ' - - - { { ' { { = - - - % o i @.j  .j j  .` ` ` ` ` ` ` ` ` ` ` ` ` ` ` ` ` #.#.#.#.#.#.#.#.#.#.` $.#.$.$.$.$.$.$.$.$.%.$.` ` ` ` ` ` ` ` +.&.&...i h h h h h 8 5 3 # ' # d - ' | ~ ~ ~ _ _ _ g g _ | _ : _ ~ ( ) ' # + * # # # # # # * + # # ' * * * # # # # = # % # # # # # 3 3 3 3 3 @ @ @ @ @ 3 3 v v v o o 6 6 5 5 3 5 5 5 5 5 5 w a w a a a / 3 a a 3 0 / a / 0 a 0 a 3 0 0 a # / a 3 a a 0 0 0 a # # 0 d 0 % % - - - - - ",
"H ) o @ 2 2 3 2 2 @ 2 0 @ @ 2 2 2 @ @ 2 2 2 2 2 2 3 3 2 2 2 0 3 2 3 3 0 3 3 # 2 2 # # 2 % # % % % % $ 2 2 $ % # # $ % # # 2 2 # 2 2 # # $ $ 2 2 # $ $ $ % # + # # # $ # & # $ # # $ $ & # $ & # # # # # # # $ $ $ $ $ # # $ $ # + + = # % % # % % $ + # $ # # # # # # $ # - - - - - - $ $ $ # ; $ ; ; $ ; & ; Q ; ; F $ F ; Q $ $ $ $ $ $ $ $ F F $ # $ $ - = > # - # # - = ' - = ' - - - { { = = % % 3 6 Y i j  . .j  .` ` ` ` ` ` ` ` ` ` ` ` ` $.` ` #.#.#.#.#.#.#.#.#.$.$.$.$.$.$.$.$.$.$.$.$.$.$.*.%.*.$.#.#.` #.` ` #.#.+.&.&.......i m i m 8 6 3 # 0 # - ' { ~ ~ : : _ _ : : _ : _ ~ ~ ~ ~ ) ) # + * 0 0 # # 3 2 * * # # * * ' ' / ) # # # - * # 3 3 # 3 6 6 6 6 v v 6 3 @ @ @ 6 6 6 6 o o o o 6 6 5 5 7 5 5 5 5 5 5 5 5 w 5 5 5 3 3 5 a # 5 4 4 5 5 4 4 4 3 3 3 a 3 5 5 3 3 3 5 5 3 3 3 5 5 3 3 3 % % % % ",
"H ) o 3 2 2 3 @ 2 @ 3 0 @ @ $ 2 2 $ e @ @ @ @ 2 2 3 3 3 3 3 3 2 3 3 3 2 2 3 2 # 3 3 % 2 2 % % % 2 2 $ 2 $ # $ # # # # # # 2 # # 3 + # 0 2 $ $ 2 % % % # % % # # + # $ # + # # & & # # + # # & $ # # # $ # + + # # + + # # # & $ $ $ # # # # + % % + + $ # # # # # - + - - # $ $ $ # - $ $ $ $ ; ; r ; ; $ $ F F $ $ F F F F F $ F $ & & $ $ $ $ $ $ $ F $ $ = > - # = + # - - - = - - = d - - 3 3 6 8 Y i j j j  . . .` ` ` ` ` ` ` ` ` ` %.%.%.%.%.$.$.$.$.$.$.$.$.$.$.$.$.$.$.$.$.$.$.$.$.$.$.$.$.$.$.$.$.$.#.#.#.#.$.$.$.$.#.#.+.&.&...........h 8 5 # d d # d * ) ( _ : : : _ : : : | ) ~ ~ ( * ( * * * 0 0 # # 0 0 / # 0 # / / ( # # # # + 2 3 # # 6 3 3 6 6 6 o o o v o 6 6 @ @ 6 6 5 6 6 6 6 o 5 6 5 6 8 7 7 7 7 5 5 7 5 5 7 8 5 5 8 6 6 6 7 7 5 5 5 6 6 7 8 3 6 8 o 6 o 6 3 6 5 6 6 6 5 5 3 % % @ @ 3 3 3 ",
"b * o 3 2 2 2 2 2 2 2 2 @ @ 2 2 2 2 2 e 2 2 @ 2 $ $ # 2 2 2 3 2 2 2 2 2 # 2 2 # 2 % # 2 # # 2 # # $ $ 2 # + $ % % # # % % # # # # # # # $ # # % % % % # % d # # = + $ & + # # & # $ # & # & + & # + + + + # + + + + + + + ; + & # $ # # = + + # # # $ $ = + $ $ # - # # $ $ # # # $ $ - + + + # $ $ ; & F ; ; F $ ; ; F F $ ; & $ $ & & & & $ $ $ $ # $ F F $ $ $ + > = # # # - { - = { d - # o 8 Y i j j ` ` `  . .` ` &.&.` ` ` ` ` ` ` %.%.%.%.%.%.$.$.$.$.$.$.$.$.$.$.$.$.$.$.$.$.$.$.$.$.$.$.$.$.$.$.$.$.$.$.$.$.$.$.$.$.$.#.#.#.+.&.&.#.` ..h 8 7 0 0 3 % # * ) ( ~ _ : : ( _ _ : _ ) ~ ) ( ( ( * / # 0 0 a a 0 # / * / * * 3 # 3 # # # # 3 @ 3 3 6 6 3 6 6 6 o o 6 o v o 6 6 6 5 5 3 3 5 3 5 6 5 6 6 7 8 5 5 7 8 7 7 8 7 7 8 8 6 6 8 6 6 6 5 5 7 7 5 5 8 8 8 8 8 8 8 8 8 8 8 6 6 6 o o o v 6 6 6 6 6 3 % % ",
"b * o 3 2 3 3 % 2 2 2 2 2 @ @ 2 2 2 2 2 $ 2 @ @ 2 2 $ $ # 2 3 2 2 2 2 3 2 3 2 # 2 % # 2 % % 2 # # $ 2 2 # # $ $ 2 # # % 2 # # 2 2 2 2 # # # # # # # # # # # # % d # $ # & # $ # $ $ # # # # # # $ $ # + # 2 2 $ $ 2 $ $ $ $ $ $ # # # # # % # # # % % # + $ # # $ % # + + - # $ # - - ; # $ $ $ ; ; ; $ $ Q Q ; ; $ ; $ F ; ; ; $ $ $ $ & & $ $ $ & ; & $ $ $ $ $ = > = - = % d { - > { % 3 @ Y Y j j  .` ` ` `  .&.&.+.#.#.` #.` ` ` ` ` %.%.%.%.%.%.$.$.$.$.$.$.$.$.$.$.$.=.$.$.=.=.$.$.$.$.$.$.=.=.$.$.$.$.$.$.$.$.$.$.$.$.-.-.$.$.$.#.&.+.#.&...m h 7 3 3 0 3 # * * ~ _ : g : g _ : | ( ) + # # * / # # # # 0 a 0 0 # * * / 0 3 * 0 # # # 2 3 3 3 3 l 6 @ 6 6 @ o o o o v o o v v 6 5 3 5 6 6 6 6 6 6 6 6 8 8 8 7 7 7 7 8 8 8 h h h 8 8 8 8 7 8 7 h h h h h 8 8 Y h 8 8 h 8 8 8 o 6 o o o v v v o o v o v 5 5 ",
"b * o 2 % @ 3 % 2 3 2 2 2 @ 2 0 2 e @ e 2 2 2 0 2 l l @ @ @ 2 2 2 2 2 2 2 3 2 % 3 2 # 3 2 # 2 % 2 2 % $ $ $ # $ 3 % # % 2 # # 2 2 2 # # # # # # # # # # # d # # d # # # + & # + & # + & & & # & # # # # # + + # + # + # # + + + $ # # # # # # # # 3 $ + # % = = 3 # # $ # # # # # # # $ $ # ; ; ; $ F $ ; ; $ $ F F ; ; F F $ $ $ $ $ $ $ $ # & $ $ & $ $ ; = ; $ $ = - - = # # - d # % o 8 Y j j j ` ` %.%.` ` +.+.+.#.$.$.#.#.$.%.%.#.$.%.%.%.$.$.$.$.$.$.$.$.$.$.=.=.$.=.=.=.=.*.*.=.=.=.$.$.$.*.=.=.=.$.$.=.=.=.=.$.$.$.$.-.-.$.$.$.$.#.+.+.` +.....m 7 3 % 3 # / * | ( ( : g g | _ ~ ' ) = # # * / 0 # # # 0 a 0 # # # # / 0 0 # 3 3 6 l o @ 6 8 o 6 o o l @ 6 o o @ o o o 6 v v 6 v 8 8 6 6 6 6 8 8 7 7 8 7 8 7 7 7 7 7 7 7 8 8 h 8 8 8 8 8 h h 8 9 h h 8 8 h 8 8 8 8 8 8 o 6 6 o o 6 6 6 6 6 o v 3 6 v 6 6 ",
"b * o 3 % 3 2 % % 2 2 % 3 l 2 2 2 e e 2 e @ 2 & 2 @ 2 0 2 2 2 2 2 3 l 3 2 2 2 3 2 $ 2 3 # # 2 2 # % $ # $ 2 $ 2 3 3 2 2 # # # % # # # # # # 0 0 # # # # # # # # # # # # & & $ # $ $ $ # & # # & # # # # + + + $ & # = # # # # # # # # # # = # # + % + = # % # + $ - # % # # # # # - ; # # ; ; ; ; ; $ $ ; ; ; ; ; F ; $ F $ $ $ $ $ $ & $ $ & ; & # $ # ; ; ; - # - ; - - - # # % 6 o 8 Y i j  . . .` ` %.%.` ` #.#.#.$.$.$.$.$.$.%.$.%.%.%.$.%.%.$.$.$.$.$.$.$.$.$.=.=.$.=.*.=.=.*.=.=.=.=.$.$.=.*.*.*.=.=.=.=.*.=.*.=.=.$.-.-.$.$.$.$.$.$.$.$.#.#.+.&...m h 7 7 a a 0 ( * * ( : : ( ~ ( ' ) ) # # * # 0 # # # 0 0 0 0 / 0 0 / 0 3 3 3 3 @ l l 2 2 @ l o 6 8 6 6 6 o 6 o o o o 6 6 6 6 6 8 8 8 8 8 6 6 7 7 7 7 6 7 7 5 8 7 5 7 7 8 7 7 7 8 8 8 7 9 h h 9 8 9 7 h 8 6 5 6 6 6 6 6 6 6 6 6 3 3 5 3 5 6 6 3 6 6 6 6 ",
"b / o % % 3 3 3 % 2 3 % @ l 2 0 2 2 2 2 2 @ e $ @ @ $ 2 2 2 2 2 2 0 2 $ $ 2 $ # # # # # % % $ # % 2 2 $ % % $ $ # % 3 # # # 3 3 # # # # # 0 2 # # # # # # # # # # # # # # & # # # # # # & # # & # # # # $ $ & & + $ # # + # % $ # # # # # # # # ' # # = # % $ = % % # + - # # # - ; ; + - $ $ F $ $ $ ; $ ; ; ; = F $ $ - ; F $ ; & F $ $ $ $ $ $ & # ; = ; F $ ; = = ; - r v o Y i i i i j  . .` ` ` ` ` ` %.$.#.$.$.$.$.$.$.$.$.$.$.$.$.$.$.$.$.$.$.$.$.*.$.$.$.$.*.=.=.=.*.=.=.*.*.=.=.=.=.$.=.*.*.*.*.=.*.=.=.=.*.*.=.$.-.-.$.$.$.$.$.$.$.$.$.#.+.+.&.........m 8 4 a * * ( ( | | | ~ ' ) = # 0 # 0 a 0 0 0 / * # 0 / # # * 0 * 2 + 2 2 2 2 @ l @ @ 3 2 l 3 @ 3 @ l l @ 2 % 3 l l 3 3 l 3 6 8 4 6 3 4 5 4 5 4 5 5 4 5 5 5 5 7 5 5 w 5 5 5 7 w w f w w f w 8 8 5 6 6 5 3 6 6 5 5 w 5 5 6 5 3 5 6 v 6 6 6 6 3 5 ",
"b d o $ $ $ 3 2 % 3 3 2 2 @ 2 $ $ $ 2 @ e @ @ 2 e e $ e e 2 2 2 2 2 2 $ $ 3 $ # 3 3 $ # 3 3 % $ @ 3 2 % % % % $ # % 3 # # 2 3 2 # # # 0 # # # # 2 # # # # # # # # # # # # ; & # & & # + + # & # # # & # # $ # $ $ $ $ # # # # # # # # / # # # # * 3 % = # % # ' % % $ # # # + + + $ $ - ; ; ; # - F ; = $ - $ $ = F F $ ; ; @ $ ; & F F $ $ $ F $ $ $ $ ; $ F $ ; ; ; - d v 8 Y i i i i j  . . .` ` ` ` ` ` $.$.$.$.$.$.$.$.$.$.$.$.$.$.$.$.$.$.$.$.$.$.*.*.=.$.$.$.*.=.=.=.*.=.=.*.*.=.=.=.=.=.=.*.*.*.*.*.*.*.*.*.*.=.$.$.$.$.-.$.$.=.$.$.$.$.*.$.#.$.` ` +. . .....h 8 4 0 * ( ( 1 1 ) = = + 2 # # 3 0 # # 0 0 # # # * # # * # * 3 + 2 2 2 0 l @ $ 2 2 2 2 2 2 2 $ % 2 % % % % 2 2 2 % 0 # # # 0 3 0 3 3 0 3 3 a a a 3 5 4 a a a f 5 5 5 a 5 7 w f 7 w w 5 5 5 5 6 6 6 5 5 5 5 5 5 3 5 v 6 5 3 5 5 3 3 3 6 5 6 ",
"K 3 @ % 3 % 3 2 $ 2 2 2 % @ @ 2 2 2 @ @ 2 $ e 2 $ $ 2 @ @ e 2 2 2 2 @ 2 $ 2 3 % 2 3 2 2 2 2 3 2 2 % $ $ % 2 2 2 2 3 3 $ % 2 # # # # # 0 # # # # 0 # # # = # # # # # # & # # & $ # $ $ # # # & # # # # $ + & & # # + + # # # = # # # # # # # # # ) 3 # = # % = ' % % # # # # $ # # # ; # # $ $ - ; $ # ; $ ; $ $ + $ $ $ $ ; $ $ $ $ $ $ F $ & & & $ F $ $ $ $ $ $ F $ r v o Y Y i i i .. . .` ` ` ` ` ` ` $.$.$.$.$.$.$.$.$.$.$.$.$.$.$.$.$.$.$.$.$.$.=.=.=.=.$.$.=.*.*.=.*.=.*.=.*.*.=.=.*.=.=.=.=.=.*.*.*.*.*.*.*.$.$.$.$.$.$.$.$.$.$.$.$.$.$.;.$.$.*.#.%.%.` ` ......m m 8 4 0 0 * * = + + + 2 # # # # # # * # / / # * * * * 0 ) + ' # # $ 2 @ @ $ @ 2 2 # + # $ # # $ $ 2 2 # # 0 0 # # # # # # a # # # # # 0 a a 0 # a a a a / a a a 5 a a w f f w w 5 5 w 5 6 6 3 5 5 3 3 6 w 3 5 5 3 5 6 3 5 5 6 6 6 6 5 3 ",
"N 3 @ % 3 % % @ % $ 3 2 2 2 2 2 $ 2 @ @ 2 $ @ o @ 2 e 2 2 e e e @ @ @ @ 2 3 @ % 2 % % 3 $ % 3 $ # # $ $ $ 2 2 2 2 3 2 % 2 2 # # # # # # # # % # # # # % # # # - # # # & # & & # # # # & & # & # $ $ $ $ $ # # + + + # # # # # % # # # # # # # # ' # * * = # # ' % # # # # # # ; ; ; ; - ; # $ $ $ $ $ $ ; ; $ # ; # $ $ $ $ ; $ $ # & & F $ & & = & $ + ; ; $ F F r r v Y Y i i i j j  . .` %.%.` ` %.%.%.$.$.$.$.$.$.=.=.$.$.$.%.>.>.$.$.$.$.$.=.=.=.=.$.$.=.=.=.=.=.=.=.=.*.*.*.*.*.*.*.*.*.*.*.=.=.=.*.*.*.*.*.=.$.$.$.$.=.=.=.$.$.#.$.*.$.$.*.$.$.$.$.%.%.%.`  . .....m m 8 4 f 3 0 # + + & @ # # * * # # # 3 # * # # * * * + + + * + = ' = = = + $ = $ + # # $ # # # # 0 2 # # 0 0 # # # # # # # # # # 0 # / # # a a # # / / / / a a a a 5 a a a a a w 5 5 6 5 5 3 3 3 5 5 3 3 3 3 3 3 3 % % % 3 5 6 6 5 5 3 ",
"K 3 o % 3 % % @ 2 % 3 2 2 2 % 2 2 2 @ 2 2 & 2 @ e 2 @ e e @ 2 2 2 2 2 2 2 2 2 $ 2 % # 2 $ # % # # $ 2 2 $ $ $ $ # # # # 2 2 # 2 # # # # # 3 2 # # # # % % # # # # # # # # # & # # # # & # & & $ # # + ; ; # $ # # # $ # # # + + + # - * # # * # = # # # * # # = # # % # # # - # # # # - - ; ; # ; ; - $ = ; # = # # # $ $ # = $ $ ; ; $ $ & $ e $ $ $ ; ; ; ; ; = r v Y Y i i j j j  . .` ` ` %.` %.*.*.*.$.$.$.$.$.$.=.=.>.$.%.*.=.>.>.>.>.>.>.=.*.=.=.=.$.=.=.*.=.=.=.=.*.*.*.*.*.*.*.*.*.*.*.*.=.=.=.*.=.=.*.*.*.=.=.*.*.*.*.=.*.$.$.$.=.$.=.;.$.%.$.%.%.%.%.%.%.`  .......m 8 4 4 4 3 0 2 $ $ # # # + # + + 0 # ) ' * * * ' * * ' ' ' = = = = ) ' + = + ) ) ' # + + ' = + + * ' * * + # # # # # # # # * # / # # # # # # 0 a a a a a a / / 4 0 a a a a a 0 5 5 % 3 3 3 0 3 3 3 3 3 % 0 5 % d % 3 3 3 3 % % 3 3 ",
"K 3 v % % % % 3 2 % 2 2 $ 2 2 3 2 2 2 2 e 2 $ & & 2 @ 2 e e 2 2 2 e @ 2 $ 2 2 $ 2 2 % % # $ % $ % $ 2 % % $ $ 2 # # % % 2 # # 2 # # 2 # # 2 # # % # # # # # # # # # # # & # # # $ $ # # # & # # & & $ $ $ # # # $ $ $ # $ # # # # # / / # # * # = = # % + % # ' = # # + + # - # # $ $ $ $ $ # # - $ # $ + ; # $ F # # # F @ # $ # + & # $ & & e $ $ F $ $ F $ $ $ o Y i i i j ..j  .` ` ` ` ` %.*.%.%.%.$.$.$.$.$.$.$.>.$.$.$.%.*.>.>.>.>.>.>.$.>.=.=.=.=.=.=.*.*.=.=.=.=.*.*.*.*.*.*.*.*.*.*.*.*.*.*.*.*.*.*.*.=.*.=.=.=.=.=.*.*.-.*.*.$.$.$.*.*.$.$.*.*.%.%.%.%.%.` `  .......m 8 7 6 4 2 2 & + = + + + # * ' + ' ( * ( ) ( ) ' ) ) ' ' + ' ) = = = = = ' ' ' ' ' ' = ' ' ' ' ' ' ' ( ' + * ' * * * # # * / * / / / # # # a 0 0 0 0 0 a a # 3 0 # 0 5 5 3 % % 3 3 3 0 3 % % % 3 5 0 0 0 3 3 3 % % 3 3 3 3 3 3 3 ",
". 3 v % % % $ $ 2 3 2 2 $ 2 3 2 2 e 2 2 @ n @ 2 e @ e $ 2 e e e e e @ 2 2 2 2 $ % 2 2 $ 2 2 # # $ # + # % % % 2 % % 2 % 2 2 # # # # # # % % # # % % % # # # # # # # # # + # # # $ # # # # & # $ & # # # $ + & # # + + + # # # # # - - # # # * # - * # # * # = = % # # # # $ # - # # # # ; - $ ; ; # = # # # + + # # # # & $ # $ # # & & $ & ; & ; ; $ $ F k @ v A i i i i j .. .` ` ` ` ` ` ` ` ` ` ` $.$.$.$.$.>.>.>.=.=.=.$.$.$.$.$.>.>.>.>.>.>.=.=.=.=.=.=.=.*.=.=.*.*.*.*.*.*.*.*.*.*.*.*.*.*.*.*.*.*.*.*.*.=.=.=.=.*.*.=.*.*.$.*.$.=.=.=.*.$.$.=.*.*.%.$.*.%.$.$.%.` &.......m h 7 6 @ 2 & & + + + * * * ' + ) ~ ) ( ' ' ~ ) ) ) ) ! ' ! 1 , ) 1 ^ ) | ) ) ) ) ) = = ' ) ) ' + + ( ( * * ( + * * * * * * * # ' / / / # # # 0 a 0 0 0 # # d % 0 d 3 d % 6 % 3 % 3 3 3 % 3 3 3 % % % % 5 5 3 3 3 3 3 3 5 5 3 # ",
". 3 v % 3 $ $ $ 3 3 % % $ 2 2 2 2 2 2 e @ @ e 2 2 @ 2 2 2 2 e @ @ @ @ 2 2 2 2 # # 2 2 % 2 2 # # $ $ # $ $ $ 2 % # % 2 $ % 2 # # 2 % # # % % # + # % % # + # # # # # # # + # # # # # # # # # & # & & # + # + + & # # + + + # # # # # # # # ' { # # = - # = = = = # # # % # $ # - # # # # - - $ # # - = # # # + + + # # # $ + # $ $ $ # & # & + = = $ F Q $ n A i j  .j j  . .` ` ` %.` ` ` ` ` ` ` ` #.*.$.$.$.$.*.=.$.=.=.=.$.$.$.$.>.=.=.=.=.>.>.=.=.=.=.*.*.*.=.*.*.*.*.*.=.=.=.*.*.*.*.*.=.=.=.*.*.*.*.*.*.*.=.*.*.*.*.=.=.*.=.*.=.=.=.=.=.=.$.$.$.=.=.$.$.*.*.*.%.$.` `  .&.......m 8 l 2 0 & + + # * ) + ) ! ! ) ~ ) ) ! ~ ~ ! ) ! ! ! ! ! 1 ^ 1 ) ~ : ) ) ) ( ) ' ' ' ) ' ' ' * * ( ( ' * ( * * ' ' + # # # 0 # # # # # # 3 3 # # 2 # 3 % % 0 d % % % v % % % % 3 3 % % % 3 % 3 % 3 5 5 3 3 3 3 3 3 3 6 3 0 ",
". v o $ @ % $ $ @ % $ 3 $ $ 2 2 & & e e 2 $ & 2 e 2 2 e 2 e @ e 2 2 2 $ % 2 # # 2 # # 2 % 2 2 # % 2 2 2 2 % 2 % # # % # + # # + % 2 % % # % % + = $ % # % 3 $ $ # # # $ # # # # # # $ # & ; + ; ; ; $ # & + # + + # # + + # + # # # # # # d # # - = = = # % # - # + # $ + # + = # # # # # # $ F $ $ # # + + - # $ $ # # # # $ $ $ $ 2 $ # # $ & $ @ r F r o Y i j  . .` ` ` ` ` ` ` ` ` ` ` ` %.$.#.#.$.$.#.*.$.*.=.$.$.$.=.*.$.$.=.=.=.=.=.=.=.=.=.=.=.=.=.*.*.=.=.=.=.=.=.=.=.=.=.=.=.=.=.=.=.=.=.*.*.*.*.=.*.*.=.=.=.=.=.=.*.=.*.*.=.=.=.=.=.=.$.$.=.$.=.$.$.$.*.*.$.$.` ` +. .......h 8 l 2 0 $ ) ~ ( ~ ~ ~ ' ~ | ~ ~ ! ' ~ ~ ! ! ! ! ! ! ! 1 1 ! ~ ~ | ~ ~ ~ ~ ~ ) ) ) ' ' ' ( ( ( ( ) ( ) ~ + + + # # # 2 # 2 3 # # % # # # # # % 2 # % % % 3 % % % % % ,.d d % % % % d % 3 3 5 d 3 3 % 5 3 3 3 3 3 3 3 3 3 ",
"N 6 v # 3 % % $ 2 2 2 @ 3 2 2 @ 2 2 @ 2 e 2 $ 2 $ 2 @ 2 2 @ @ @ e 2 3 2 3 l # 2 3 + # 3 # % 2 # % 2 % % 2 # + % # + 2 2 # % $ # % % % % # # 2 % # % # + # # + # # # # # # # # # # # # # & ; $ # & & $ # # # # + # $ ; & # $ # # + = # # # # # # = = = = # % # = # - # $ - # = = # # # + - ; - $ ; ; $ # # # # + - # # # # $ # # # $ 2 $ = # $ # $ J J r o A i  .`  .` ` ` ` ` %.%.%.` ` `  .` ` ` $.*.$.$.$.$.$.=.*.=.$.$.$.*.=.$.$.$.$.>.>.>.>.=.=.=.=.=.=.*.=.=.=.=.=.=.*.=.=.=.=.=.=.*.=.=.*.=.=.=.=.*.=.=.=.*.=.=.=.=.=.=.=.=.=.=.=.=.=.=.=.=.$.$.$.$.=.$.$.$.$.=.$.$.$.` #.+. .......h 8 l 2 $ ) _ ~ ~ ! ! ' ~ 1 ~ ~ ! ! ^ ^ ! 1 1 1 ! ! 1 1 1 ! ! ) ~ | ~ ~ ~ ) ' ) ! ) ' ' ( ( ( * ' ' ' ' * # # 2 2 2 2 # 0 3 # 2 2 2 2 # # % # % % # % % d % @ % d % % % d % d % d d d d d 3 % 6 3 % 5 % 3 3 3 3 3 3 5 3 ",
"K 6 v % @ $ % # # $ $ 2 2 2 2 2 2 2 0 2 @ 2 2 $ 2 @ 2 2 2 2 2 @ @ 3 3 2 l 4 # 0 3 * # 3 # # 2 # # % # # 3 % # 3 % + 2 % # # # % % # # # % # # # # % # # 2 # + # $ # $ # # ; $ $ & & + # + ; $ # & & $ # & # $ ; # $ ; ; # $ # # + = # # - = - % # # # d # # = # # # - $ # # - - # # # + $ ; ; # ; - $ + # # # # # + # # + $ + # $ $ 2 $ = + % # ; r k k L Y @.` ` ` ` ` ` %.` %.` ` ` ` `  .` ` ` $.*.$.$.$.$.$.$.$.=.$.$.$.$.$.$.$.$.$.$.$.$.$.=.=.=.=.=.=.=.*.=.=.=.=.=.=.=.=.=.=.=.=.=.=.=.=.=.=.=.=.=.=.=.=.=.=.=.=.=.=.=.=.=.=.=.=.=.=.=.=.=.=.=.=.=.=.=.=.$.$.=.=.$.$.$.$.#.+. . .....h 8 l $ + ( ~ ~ ) ~ ! ~ 1 1 ! ! ] ^ ~ ! ^ ~ ~ ! ! 1 ! 1 | 1 1 ~ | ~ ( ) ) ' ) ) ) = = * * * + = + + 0 0 2 2 2 3 2 # # # 0 0 2 2 2 $ + + % % # % - d d d d d d % % % % % d d d d % % % % % 0 3 3 3 % 0 3 3 # 3 3 0 3 3 ",
"N @ o % 3 $ $ # # $ + $ $ @ @ e 2 0 2 e 2 2 2 0 @ @ $ 2 e 2 2 2 2 2 2 2 3 3 # # 2 # # 3 2 % 3 # # % # % 3 2 2 3 % # 2 # # # + # # % % % 3 # # % # # + $ @ # # $ $ $ $ $ $ & $ # + & + # ; + # # # + $ $ ; ; $ ; ; $ $ ; + # & & # # = - # = - 3 % d d d # # # # # - + # + # - - # # # - $ - # $ - $ $ - - # # $ $ # # + + % $ $ $ $ $ $ + # $ $ F k L L A i j  .` ` ` ` ` ` ` ` ` `  . .` ` ` ` ` ` ` ` #.$.#.#.#.*.$.$.$.$.$.$.$.-.-.-.$.$.$.$.=.=.=.=.=.=.=.=.=.=.=.=.*.=.=.=.=.=.=.*.*.=.=.=.=.=.*.*.*.=.=.=.=.=.=.=.=.*.=.=.*.=.=.=.=.=.=.=.=.=.=.=.$.=.=.=.=.$.$.=.$.$.#.$.$.` ` `  ...i 8 8 3 + ~ ~ ~ ~ ^ ~ ! ! ^ ! ! ^ ^ ! ~ 1 ~ ! 1 1 1 ! ) 1 ^ 1 ) | ~ ( ) ' ) ) ) ) * * + # * + # # 2 2 3 3 4 3 4 3 # 3 0 + 0 $ # + + + + + # = # % % # d d - d d - d d z - % % % d % 3 % % d # % 3 0 d 0 # d 3 5 3 3 5 ",
". % v $ % $ 3 % $ 2 $ 2 2 @ @ e e @ @ 2 2 2 e @ 2 0 2 2 2 @ l 2 3 @ @ 3 3 3 2 2 2 # # 2 2 % # # # # # # # # % % # % 3 2 2 2 # # # % 3 # d # % 3 % # + # # # # # $ $ $ $ $ & $ + ; # & # + # # # # # + ; $ + + & # # & ; + & ; & # # - = # - * - - # # # # d # # # - - # = + + = + + + + ; + ; # ; - # # # # + # # # $ $ $ $ $ $ $ # & # # + # $ F k L L Y i j j  .` ` ` ` ` ` ` ` ` ` ` ` ` ` ` ` ` $.#.$.$.#.#.$.*.$.$.$.$.$.$.$.$.-.-.-.$.$.$.$.=.=.=.=.=.=.=.=.=.*.=.*.=.=.=.=.=.=.=.=.=.=.=.=.=.=.=.=.=.=.=.=.*.=.=.=.*.*.*.=.=.*.=.=.=.=.=.=.=.=.=.=.=.=.=.=.=.$.$.$.$.$.#.$.%.%.` `  ...i 8 7 2 ~ ~ ~ ~ ~ ! ! ! ^ ~ ! ^ : ! ^ ~ | ~ 1 ! 1 1 ' ! | ( ) | ~ ~ ( ' ' ~ ) ) = * * * * a 3 0 2 4 0 3 4 0 4 4 0 3 2 + $ + + + = + + + = = = # # # - d - d d - - - d - - - - { d d d % % d % % 3 3 3 3 3 6 6 5 6 6 ",
". % k % % 3 @ 2 2 @ e 2 2 2 2 2 $ 0 $ 0 2 $ 2 @ 2 2 e 2 2 l @ @ @ @ 3 3 3 3 3 2 2 2 3 2 % % # # % # # # # # 2 $ # % 2 % % 2 % # 2 % # = # # + % % # # # $ $ $ + $ $ $ ; $ # & + $ # + + # $ + # # # + + # + + # # + + + + # # + + # # - # # - * * # % d # d d d d # # # # # + + # - - ; - ; ; ; $ # + # # # - # # # $ % % + $ $ $ $ $ $ # $ $ $ @ L Y Y @.j ` ` ` ` ` ` ` ` ` ` ` ` ` ` ` ` ` ` ` $.*.$.*.#.#.#.$.$.#.#.$.$.$.$.$.$.-.-.-.$.$.$.$.$.=.=.=.=.=.=.=.=.=.=.=.=.=.=.=.=.=.=.=.=.=.=.=.=.=.=.=.=.=.=.=.=.=.=.=.=.=.=.*.=.*.=.=.=.=.=.=.=.=.=.=.=.=.=.=.=.$.$.$.$.-.$.$.$.$.` `  . ...m h 7 ' ~ ~ ~ ~ ! ^ ! ^ ~ ! ^ ^ ! ~ ~ | 1 1 ) ~ ^ ) ~ ~ ~ ~ | _ ~ ~ ( ) ) ' ' 0 0 0 a 0 4 4 3 3 2 3 3 3 # 2 2 2 2 0 2 $ + + = ) ' = # = ' ' = ) ' - d ' - d - - - d - { { ' ' - - # # 3 % 3 0 5 3 3 6 6 3 3 5 6 8 ",
". v o # % 3 $ $ $ $ 2 e 2 2 2 2 0 $ 2 2 2 2 2 2 e @ 2 2 @ 2 0 e 2 2 3 3 2 3 3 3 3 3 3 3 % 2 2 2 3 3 2 2 % 2 2 $ # # $ $ # % # + % % # # 3 3 = # % # + $ # $ e # $ e $ ; F $ ; + $ # + + # $ = + + = # # # + # + + + # # + # # + + - - - # d d # # # # # d % # # d # # - # # - # $ # # $ $ $ $ # $ # + # # # $ # # $ $ % % $ % 2 2 2 2 e $ F F F n A Y i j j ` ` ` ` ` ` ` ` ` ` ` ` ` ` ` ` ` ` ` ` ` ` ` &.&.#.$.$.$.#.$.*.$.$.$.$.$.$.$.$.$.$.=.=.=.=.=.=.=.=.=.=.=.=.=.=.=.=.=.=.=.=.=.=.=.=.=.=.=.=.=.=.=.=.=.=.=.=.=.=.=.=.*.*.*.*.=.=.=.=.=.=.=.=.=.=.=.=.=.=.=.$.$.-.$.$.$.$.$.%.` `  .....h 7 * ( _ : | 1 ^ ! ! ! ~ ^ ^ ! ~ ~ ~ 1 1 ) ! ^ 1 1 ( ~ | ( ( ( ~ ( ( + # * 0 a 3 4 4 7 l 4 l 3 3 2 2 2 $ 0 0 + $ 0 = ' = = ) ' ' ' ' ' ' = ' ' - d / - z z - / z z - / d d d # # # # 3 3 3 3 3 3 5 5 5 6 6 5 6 ",
". o v % @ @ # # $ & $ e $ $ @ @ 2 l @ 2 2 @ 2 $ 2 2 2 @ e 2 2 2 2 @ 3 3 3 3 3 3 3 2 # # # # # $ % % % % $ % 2 % % # $ % # $ $ + % % % # % % = # 3 # # # + # @ $ $ $ & ; $ # ; + $ # # # # $ = # # + # # % # = = # # + # # # # # # # ' ' d d # # # # - * d % d d # - - + + - - # # + # # ; ; # ; + + - $ $ # # # # 2 $ $ $ $ $ $ $ $ $ $ # $ @ n L Y i j  .` ` ` ` ` ` ` ` ` ` ` ` ` ` ` ` ` ` `  . .&.&.&.&.&.#.#.#.$.*.$.$.$.$.$.$.$.$.$.$.$.$.=.=.=.=.=.=.=.=.=.=.=.=.=.=.=.=.=.=.=.=.=.=.=.=.=.=.=.=.=.=.=.=.=.=.=.=.=.=.=.=.*.*.*.=.=.=.=.*.=.=.=.=.=.=.=.=.$.*.*.*.>.-.-.$.*.$.$.#.#.` `  .j i h 0 ( ~ _ : 1 1 ! 1 ~ ! ^ ^ ! ~ 1 1 ~ ~ 1 ) 1 : ( ( ( | ( * ( ( * # 0 0 # 4 4 4 4 4 6 4 0 3 3 3 $ + 2 = + + ) + = ) ' , = , ) ) ' ' ' ' ' ' ' - - z ' - - - - - * d - # 3 # # 3 3 3 3 3 3 3 5 3 3 5 3 6 6 5 6 ",
". v v % @ @ 2 $ $ 2 2 2 $ $ e @ 0 @ 2 2 2 2 @ @ 2 0 2 2 0 e @ $ 0 2 2 2 2 0 # 2 2 # # # # # % % % % # % % % % % $ # # % # # # # # # # # + # = # % # # # # @ @ $ & & $ & $ # $ & # # # # + # + # + # # # = # # # # # + = # # # # # d # * d d * ' - # % # # # d d % # # # # # # # - ; - # ; - # - - - # # # + # + # % $ $ $ % # $ $ % % % $ e o A Y i j  .` ` ` ` ` ` ` ` ` ` ` ` ` ` ` ` ` ` ` &. . . ..... . .&. .&.#.*.*.#.#.$.$.$.$.$.$.$.$.=.=.=.=.=.=.=.=.=.=.=.=.=.=.=.=.=.=.=.=.=.=.=.=.=.=.=.=.=.=.=.=.=.=.=.=.=.=.=.=.=.=.=.=.=.=.=.=.=.*.=.=.=.=.=.$.=.$.$.*.*.>.-.$.*.*.$.$.#.$.$.` `  . .j 7 * ( _ _ 1 1 ) ^ ^ ~ 1 ^ ) ~ ~ ~ ~ ~ 1 ) ) ^ ( * ( ( * * ( * + + 0 3 3 4 4 4 4 0 3 3 0 0 2 2 $ + $ = = = ) = ) ) , ! ! ) ! ' ' ' { = ' ' ' = ' - ' # d - # # # * * # 3 3 % 3 6 6 6 6 3 3 6 3 5 5 3 a 5 6 8 ",
". o v $ 3 @ e $ $ e 2 $ & $ e 2 2 2 2 2 2 2 l n @ 2 $ $ 2 2 2 2 $ # + # 2 # # # 0 0 2 3 2 % 2 3 3 3 2 2 2 # # # # # $ % % # # # # # # % % % # # % # # + # @ $ $ # # $ # # & F $ # # & # + # # # = = # # = # # # # d # = # = # # # d # = # # = # # # % # - # d % % % # # % # # # # $ # $ $ $ $ $ $ $ $ - # # % # # # # % % 2 $ # $ # = # $ @ A Y Y i j  .` ` ` ` ` ` ` ` ` ` ` ` ` ` ` #.` `  . . .....i i ..........&.#.#.#.$.$.$.$.$.*.$.*.*.*.*.=.=.=.=.=.=.=.=.=.=.=.=.=.=.=.=.=.=.=.=.=.=.=.=.=.=.=.=.=.=.=.=.=.=.=.=.=.=.=.=.=.=.=.=.=.=.*.=.=.=.=.=.=.=.$.$.$.=.*.*.$.$.*.*.$.$.$.$.$.$.` ` &...h x ( _ ~ ) 1 ) ! ^ : 1 1 ! ^ | ) | 1 1 ) ' ) ' * ( * 0 * * a 0 # a 4 0 a a 4 4 0 0 0 2 2 + + $ + + + = = = ) ! ) ) ! ! ) ) ' = ' = = ' - # - * % d d 3 # # 3 3 # # 3 3 @ l 4 6 6 4 l 3 6 6 5 5 5 6 5 5 5 6 ",
"c o o $ 2 @ $ $ $ $ 2 2 $ $ @ 2 2 e @ 0 2 l @ 2 2 2 2 2 @ 2 2 @ 2 2 2 2 2 2 # 0 0 # # # # # # # $ % % $ 2 % $ % # # # # $ # # 3 2 % # % % # = # % % # # $ $ $ @ $ & # & # & $ $ # # & $ + & # # # # = # # # ' # d # # # # = # # # - ' = # # - # d - # # # # # # - - = = # + # $ ; $ # # $ # # # # # $ # # # # $ $ # $ # # # # $ % % # % k 8 i i j j  .` ` ` ` ` ` %.$.$.` ` ` ` ` ` `  . . . .......i i i i i i i .. .&.#.*.$.*.*.*.$.*.$.*.*.*.*.$.=.=.=.=.=.=.=.=.=.=.=.$.=.=.=.=.=.=.$.$.=.=.=.=.=.=.=.=.=.=.=.=.=.=.=.=.=.=.=.=.=.=.=.=.=.=.=.=.=.$.=.=.$.$.$.>.$.*.*.*.*.*.=.$.$.$.$.$.$.$.#.&...h f ( _ _ 1 ^ ! ! 1 : 1 ! ! ^ ) ) ~ ~ ~ ) ) ' ' ( ( * a / 0 a 0 a 3 0 # 4 4 a a 0 0 * + + = ) + + ) = = ) = ) = = = ; = = = = = = = ' - # # # d 3 3 3 3 # 3 3 3 4 3 3 3 3 6 3 3 4 3 6 8 8 7 6 4 4 5 5 5 5 5 ",
"c o k $ e e 2 2 2 $ 2 @ @ $ 2 @ 2 2 e 2 e e 0 2 e e @ @ 2 2 $ $ 2 2 2 # # 2 # 2 2 # # # # % 2 % $ # % # # 2 # % # # $ $ $ % % 2 % # - % # # # # # # % % $ # # $ # # # # $ # $ # # $ ; # ; + & + # # = # # = = # # = + # # # # - = = = - # # # d # # d # d # - - - # # - # + $ $ ; $ # $ ; - ; ; + - # - # # + $ % + + + # # % # = = = % o Y i @. . . .` %.` ` ` %.*.` *.` ` ` ` ` ` `  . .i i i i i i i i i '.i i .... .&.#.*.$.$.$.$.$.$.$.$.$.$.$.=.=.=.=.=.=.=.*.=.=.=.=.=.=.=.=.=.=.$.$.=.=.=.=.=.=.=.=.=.=.=.=.=.=.=.=.=.=.=.=.=.=.=.=.=.=.=.=.=.=.=.=.$.$.$.$.$.$.*.*.*.$.$.$.$.$.$.$.$.$.#.#.&.m 9 * ( _ | 1 ~ ^ 1 1 1 1 ! | ) ~ ( ) ) ' ) ' * ( * + 0 0 0 a a 3 a 0 # a a 0 0 * + ' ' = ' ' + = ) + = ) = ) + = = $ + + # # + # # = % # d % 3 3 6 3 3 6 6 3 0 6 6 l l 3 6 l 6 8 8 7 8 8 6 6 5 3 5 5 5 5 6 ",
"O o o 2 2 @ e 2 $ $ 2 @ @ $ $ $ 2 2 2 @ @ 2 @ e 2 2 @ @ 0 $ $ + + + # + # 0 # 0 2 # # 2 # % 3 3 3 2 2 # # % # # % % 2 2 % % # # # # # # d % % # # # # # $ $ # # $ $ # # $ # # # # # + & # & & + # + = # # # = # = = # # # = # # = - # # = # % # = # % = = # # # # # # + # + $ $ ; # ; $ $ $ # # # # - - # # - # # + # # % $ $ # = + % v Y i i j  . . .` ` ` ` ` ` ` #.$.$.#.` ` ` `  ...i h h h h h h h h h h h i i i .. .` #.#.#.$.$.$.$.$.$.$.$.$.$.=.=.=.=.=.=.=.=.=.$.$.$.=.=.=.=.$.$.$.$.$.$.=.=.$.=.=.=.=.=.=.=.=.=.=.=.=.=.=.=.=.=.=.=.=.=.=.=.=.=.$.=.$.$.$.$.$.*.*.*.$.$.$.$.$.$.$.$.$.-.).#.!.f * * ( ( 1 1 1 1 ~ ~ 1 ~ ~ ( ( ( ) ' ' ' = = + + + 0 0 0 0 a a # 0 0 0 * * * ( * + + + + = = = = + = ' = = + ) = $ # # % # # % 3 % % 3 @ 3 3 3 6 l 6 6 6 7 6 6 7 6 7 8 8 6 8 8 8 6 6 6 6 5 5 5 5 5 5 5 6 ",
"y @ o $ $ 2 2 $ $ $ $ e @ @ @ 2 @ @ 2 2 2 @ l 2 0 2 @ @ 2 0 2 @ 2 2 $ 2 % # # 0 0 2 # # # # $ 2 2 % $ $ # 2 2 % % % % % $ # # # % % % # # # # # # $ # # @ $ # $ k # # # + # # # # + # & # $ $ $ # # = # % # ' + # # # # # = # # - - # - = = # % = = # = ' + # # - # - ' # + # # ; ; ; # # $ # ; $ $ # # - + # # # $ $ % # + + $ 2 % 6 Y i i @.j  . .` ` #.#.$.*.#.` ` *.$.` &. . . ...i Y h ~.~.~.~.~.{.{.{.{.{.~.h i .... .` ` #.$.$.$.$.$.$.$.$.$.=.=.=.=.=.=.=.=.=.=.=.=.=.=.=.=.=.=.=.=.=.=.=.=.=.=.=.=.=.=.=.=.=.=.=.=.=.=.=.=.=.=.=.$.$.$.$.=.=.=.=.$.$.$.$.$.$.$.=.$.$.$.$.$.=.$.$.$.$.$.-.].+.^.9 * ( ( ( ^ | ( ( | ) ) ) ) ) ' ' ) * * = + = + * * 0 0 * * 0 0 * / 0 0 / * * * + + + ' + = = = = ) ' ' = + + + # # # # # % 3 # % v 3 @ 6 @ 6 6 6 8 6 6 8 8 8 8 8 8 8 7 7 6 6 6 7 7 6 6 6 6 4 5 5 5 7 5 5 ",
"y @ o e $ e @ 2 $ $ $ $ @ 2 2 2 2 2 2 2 2 2 2 2 2 2 3 2 2 2 0 2 2 3 % 2 2 # 2 2 2 3 % % 2 $ % @ 3 2 $ % $ % 2 # $ 2 $ $ # + # # # # # # % # # # + # # $ $ # # # $ $ $ $ # # # # # + # # & & & $ # # # # = # + + # # # = # # # # - - # % # = = # + = # $ # + - # - - # = # + # # + ; - $ - # # - ; + + - - + # # + # # # + # # # # % v i @.i j  . .` ` #.#.#.*.*.#.` #.` #.#.#.` `  ...i h ~.~.~.~.~.{.{././.{.{.{.~.h i @... . .%.$.$.$.$.$.$.$.$.$.$.$.$.=.=.=.=.=.=.=.$.$.$.=.=.=.=.=.=.=.=.$.$.=.=.=.=.=.=.=.=.=.=.=.=.=.$.=.=.=.$.$.$.$.$.$.$.$.$.=.=.$.$.$.$.$.$.$.$.$.$.$.$.$.=.=.=.$.-.-.-.-.(._.!.9 / ( ( ( ( ( ( ( ~ ) ) ' ( ' ' ' + = * * + * * + + a + + # 0 # * * * * * * * * ' = ' = = = + = ! = = ' $ = = = ' # # # @ % 3 3 @ @ o @ o 6 6 6 8 8 8 7 6 7 7 6 7 8 4 7 6 7 8 7 8 7 6 8 7 5 6 5 5 7 5 4 ",
"y @ n 2 2 @ @ 2 $ e $ $ @ 2 $ $ 2 2 2 2 2 2 2 3 2 2 3 2 2 2 2 3 2 2 2 $ 2 # % 2 2 3 % $ 2 $ $ 2 3 2 % $ $ $ $ $ $ $ $ $ $ + # $ $ # $ # % # # # # # - # # # # % % % % $ $ $ + # $ # # # & # & & & # $ # = + + + # # + + # # # # # ' + $ + + % # # - ; = + # ; # # - # + # + # # + - # $ # $ $ $ $ ; + + + # # # + F $ $ ; # # # # 8 Y i j  . . . .` #.#.#.#.$.*.*.#.#.` ` ` ` `  . .@.i h ~.,.,././.~.~.~.~.~.{././.~.h i @... .` #.#.$.$.$.$.$.$.$.$.$.$.=.=.=.=.=.=.=.$.$.$.=.=.=.=.=.$.$.$.$.=.=.=.=.$.=.=.$.=.=.$.=.=.=.=.=.=.$.$.=.=.=.=.$.=.=.=.=.=.$.$.$.$.$.$.$.$.$.$.$.=.=.=.$.$.$.$.$.$.(._.#.:...4 _ * ( ( ( ( ) ) ' ' ' ' ' ' * + * ' * * * + + + # # # # # # + ) * + ( * * ' = = ' = = = # = * = ' ' # * * = # % % % % 3 @ 3 @ 6 o 8 o 6 8 8 8 8 7 7 7 8 8 8 8 8 6 7 7 8 8 6 7 8 6 7 4 7 6 5 5 7 5 5 ",
"P @ l $ 2 @ 2 2 $ $ $ $ 2 @ @ % @ 2 2 2 3 2 2 3 2 2 3 2 3 3 2 2 2 2 2 # 2 2 2 2 2 3 2 % 2 $ $ + $ % 2 2 $ $ $ $ % $ $ $ $ $ $ $ $ % % # # % # = # - - # # # # $ # # # + $ $ & # $ $ # $ # $ & ; $ $ # # + = + # # # # # # # = + # # = = = + + - # # # # # $ $ $ # ; + + # # # # $ # # $ ; F $ $ F $ ; # # # # # + $ $ $ & # # # # 6 Y j  . . . .` ` ` #.#.$.$.*.*.*.#.&.&.` `  ...@.Y Y ~.{.<.<.<.<./.<.,./.,.<.<.,./.{.h i @. .` ` #.#.#.$.$.#.$.$.$.$.$.$.$.=.=.=.=.>.$.>.>.$.$.=.=.=.=.$.$.$.$.=.=.=.=.=.=.$.=.=.$.=.=.$.$.=.$.$.$.$.$.$.$.$.$.=.=.=.$.$.$.$.$.$.$.$.$.$.$.$.=.=.=.$.$.$.$.$.$.-.).+.&. .9 _ ( _ ( ( ( ( ' = ' ' ' = * ' * ' ' * * * + + + + * = + * * = ) ' = ' ' * * = = ' = - # # # # = # * * # # # 3 % % 3 3 3 % @ 6 l 6 l 8 8 8 7 7 7 7 8 8 8 8 8 8 8 7 8 8 7 7 4 7 8 8 6 6 7 7 6 5 7 7 5 ",
"P n k & e @ $ e e @ e # + 2 @ $ 3 2 2 2 3 2 2 2 2 2 2 2 3 3 2 2 3 3 3 2 3 @ 2 3 2 2 $ % 2 2 2 $ $ $ % $ $ $ % $ $ $ # # # # # $ $ $ % # # $ # + = - - # % # # % # # % # $ $ & & $ & & & & # & ; $ $ $ $ # + + + + + # # # # # # # % # + % # + + + ; ; $ ; ; # ; # # + - # - - - $ - # $ ; F ; ; ; ; ; $ $ # # # # $ $ F $ # # # = 3 Y j  . . . .` ` #.#.#.#.#.#.$.$.`  . . .....i i ~.~.{.~././.<.[.<.}.}.Z Z Z Z Z <.,./.~.i .. .` ` #.$.$.#.#.$.$.$.-.$.$.$.=.=.=.>.>.$.=.=.$.=.=.=.=.$.=.$.$.$.$.*.=.=.=.$.$.$.=.$.=.=.$.$.=.=.$.$.$.$.$.$.$.$.$.=.=.=.$.$.$.$.$.$.$.$.$.$.$.$.=.=.=.$.$.=.$.=.>.).+.&. .9 |.* _ ~ ( ( ) ) ) ) ' ' + + ' ' ( ( * ' ' * + + + ' ' = ' ' ' ! ' = ' ' = * = = ' = = = * * # * # * * - # = # # # 3 3 3 # 3 3 3 6 4 l 6 l 6 7 7 7 8 8 7 7 7 8 8 7 7 8 8 8 7 8 A 8 8 8 6 5 7 7 7 7 7 ",
"S @ @ $ e @ 2 2 e @ 2 + $ 2 2 $ 2 3 3 2 2 2 0 2 2 2 2 % % 2 2 2 3 3 3 2 2 0 # $ $ 2 % % % $ % $ 2 $ $ + # 2 2 $ $ $ # # # # $ 2 % % # # % - - # - - - # # - # # % % % # $ $ & & # & + & & & & ; $ $ & + & # + + # # # # = = # # + - + ' # # = + # # $ $ $ # # ; $ $ - $ $ - # # # - # $ ; $ $ $ $ $ $ $ # # ; ; # $ $ F $ $ # 3 3 8 i  . . . .` ` #.$.#.#.#.$.$.` #.` ` `  ...i h {.,.,.{.~.{.[.[.<.Z }.}.}.}.}.}.1.2.Z <.,.h i  .` ` ` %.$.#.#.$.$.#.#.$.$.=.$.$.$.$.$.$.$.$.$.=.$.$.=.$.=.$.$.$.=.*.=.=.=.=.$.$.$.$.$.=.$.$.=.=.$.$.$.$.$.$.$.$.$.$.=.$.$.$.$.$.$.$.$.$.$.$.$.$.=.=.$.=.$.=.$.$.=.-.).#.` 9 |.( ( ( ( ( ) * ) ' ' ' ' = * * ( ( ' ( ( * * ' ' ' ' ' ' ' ' ! ' * ' ' * * = = ' = = * ' ) / * * = # = = # # # # # # # # a a 3 3 4 4 6 4 4 6 6 5 4 5 5 7 7 5 5 5 5 5 7 7 5 7 7 6 4 l 7 8 7 7 7 7 7 ",
"S @ n $ $ 2 2 2 e @ # = % 2 $ $ l # 2 2 2 2 2 3 2 % 3 2 # 2 2 % % 2 $ $ 2 0 2 2 2 3 % # # + # % $ 2 @ $ $ 2 2 % 2 $ + # $ # $ 2 $ % # % # = + # $ # # # + - # % % # # # $ $ # $ $ # # # # # & & $ $ ; ; # + ; + + + # # = = # # # # # = + # + + ; ; # ; $ $ ; ; $ $ $ # $ + # # + + + + ; ; ; $ ; ; $ # ; $ # # # $ $ F $ $ # $ 8 Y j  . . .` #.#.#.$.#.#.$.$.$.#.` ` ` &. ...h /.,.<.<.<./.[.[.[.Z }.}.}.}.}.}.}.1.3.2.2.2.,.h .. . .` ` *.$.$.#.#.#.#.$.$.$.$.$.$.$.$.$.$.$.$.=.$.$.$.$.=.$.$.$.$.=.=.=.=.=.=.=.=.$.$.=.$.$.=.$.$.$.$.$.$.$.$.$.$.$.$.$.$.$.$.$.$.$.$.$.=.=.$.$.*.*.*.*.$.=.$.$.$.$.=.$.#.9 x ( ( ( ( ( ( * ' ' ' ) ) ' * ( ) ) ( ) ) * ' ) ' ' = ' ' ' ' ' ' ' ' ' ' ' ' ' ' ' ' * # * * # # = # + # # # # # # # # # a 3 a # 3 3 l l 4 a 5 5 f 5 5 5 5 5 9 7 9 f f 5 5 5 l 7 7 6 7 7 4 6 7 6 7 ",
"G @ e & $ 2 2 2 $ $ $ + $ 2 2 $ l # 2 2 2 2 0 2 # # 2 2 % 3 2 # 2 3 2 2 2 0 2 2 2 3 2 % 2 # % % # # % # # $ $ $ 2 $ + # $ & # $ $ # % % # # - # # # # - # # # # % $ $ $ $ $ $ $ $ $ # # # # & & & # ; ; & & & # # + # # # # # + - # # + + # + + - # $ ; # $ ; ; & $ $ - $ # - - # # - # $ ; ; F ; ; $ $ $ $ + # # # $ $ ; F $ 3 8 i j .. . .` #.#.#.#.$.$.$.$.$.#.#.`  ...i h /.,.,.<.<.[.[.Z [.}.}.}.}.}.}.}.}.1.3.1.2.1.2.<.{.h .. . .` *.*.#.#.#.#.$.$.-.-.$.$.$.$.$.$.$.$.$.$.$.$.$.$.=.=.$.=.$.=.=.$.=.=.$.=.=.$.=.=.$.$.=.$.$.$.$.$.=.$.=.$.$.$.$.$.$.$.$.$.$.$.$.$.=.=.=.=.=.*.*.*.=.=.$.>.-.$.=.-.+.m x ( ( * ( ( ( ( ( ' ' ) ) ' * ) ( ) ' ( ! ' ' ! ) ' ' ' ' ' ' ' ' ' ' ' ' ' ' ' ' ' ) ! ) ) ' * ' ' = = + = = / / / # a # 0 0 0 # 0 2 # 4 l 4 4 5 5 5 5 f a 5 9 9 9 5 7 8 8 4 4 7 7 l 4 4 4 4 6 6 7 ",
"G @ & & 2 2 2 e & # $ $ % 2 2 # 2 2 2 # 2 0 # 0 0 # # # # 2 % % 2 2 2 2 2 2 2 2 2 % # # # % % % % % $ $ $ $ $ $ $ $ # # # ; # # # # # # % # # # + # # # # # $ # # $ $ $ $ $ $ $ # # # # # & & $ $ $ $ + + # # + # # # + + # # # - = = - - # + + # # $ # $ $ # $ & ; # ; ; $ # + $ - + # - ; ; $ ; $ F $ $ # = # # # & ; ; F @ o Y j ......` ` #.#.#.#.$.*.*.$.` &.` ..i h ~././.,.<.<.<.Z }.}.}.}.}.}.1.}.}.1.1.1.3.1.1.1.1.2.,.w h i  .` ` ` &.#.#.#.#.#.#.#.-.$.$.$.$.-.-.-.$.$.=.=.$.=.$.$.=.=.$.=.$.$.=.=.$.=.$.$.$.=.$.$.=.$.$.$.$.=.=.=.=.$.$.$.$.$.$.$.$.$.$.$.$.$.=.=.=.=.=.=.=.*.=.$.$.$.>.$.).-.-.!.9 / ( * ) ( ) ( ( ' ' ) ' ' ) { ! ) ) ! ~ ' ' ! ! { ' ' ' ' ' ) ) ! ! ! ! ' ! ! ' ' ) ! ~ ~ * ) ~ ' = = = = ' * ' / / # # / 0 # 0 3 4 3 4 4 4 4 4 4 5 9 7 9 5 5 5 5 7 7 5 7 7 7 8 l 4 4 7 7 4 4 6 7 ",
"G k F $ 2 0 2 2 & $ $ + # # # # 2 2 0 # 0 0 # 2 2 0 2 # # # # # 2 2 2 2 2 2 0 2 2 2 2 3 2 2 2 % 3 $ # $ F $ $ $ # $ $ $ - $ $ $ @ $ + # # # # # # + # # - # # # # # # $ $ $ $ $ # $ # # # & & $ & # & ; + # # + + # # + + # # # # # # $ # + # $ $ - + = + ; ; F $ $ $ $ ; $ # - $ # # $ # ; $ $ $ $ $ - $ # # $ $ # $ F $ $ @ Y j j .. . .` ` #.#.` ` ` `  ...'.'.'.~././.,.,.,.<.Z <.<.Z }.}.}.}.}.}.1.}.}.1.}.1.3.1.1.1.1.2.2.,.{.h @. . . . .&.#.#.+.+.#.#.#.-.-.-.-.-.-.-.$.$.$.$.$.$.$.$.=.=.$.=.$.$.=.=.$.=.=.$.=.=.$.=.=.$.$.$.$.=.=.=.=.=.$.$.$.$.$.$.$.$.$.$.$.$.=.=.=.=.=.=.$.$.$.$.$.$.>.>.).-.$...9 x ( ( ' ( = ~ ~ ' ) ) ) ) ! { { ~ { ! ! ! ! ! { ! ! ! ' ) ! ! ! ! ! ! ! ' ! ! ' ) ! = { { ' ' ) ' ' = + # = ' / / / # 0 / # / 0 0 0 4 3 0 4 4 5 5 x a a a a f 5 f 5 5 4 7 6 4 l 4 4 4 4 l 4 4 6 l ",
"W J F & 2 2 2 & & $ e # % 3 3 2 # # 0 0 0 0 0 2 # # 3 # # % # # # $ 2 0 $ 0 $ 2 2 2 2 2 # # % 2 3 % # $ $ # % $ # # $ # + # # + % $ + # % # # % # = # # # # # # # # # $ $ & $ $ & $ # # # + & # ; + & # & + # # + + # + # # = = + + + # # + # # - # ; $ @ F $ ; ; ; # $ - ; - + + - + # # + $ $ $ $ # # # # $ # # # ; $ F $ o i  . . . .` ` ` `  . . . ...i h w w ,.,.Z Z <.<.Z Z Z Z <.<.}.}.}.}.}.}.1.1.}.1.}.1.4.3.1.1.1.1.2.<.,.{.'... . . .&.#._._._.#.#.#.-.-.-.-.-.$.$.$.$.$.$.=.=.=.=.=.=.=.=.=.$.=.$.$.=.=.$.=.=.$.$.=.$.$.$.=.=.=.=.$.$.$.$.$.$.$.$.$.$.$.$.$.$.$.$.$.$.$.$.$.$.$.$.$.>.5.*.-.$.*.&.m x ( + ' ) + ' ( ( ) ! ! ~ ~ { ! ~ ~ ! ! ! ! ! { ! ! ! ! ! ~ ! ! ! ! ! ! ) ! ! ' ' ~ ' * ( ~ ( ' ) ' ' = + = * / ' ' / / / / # 4 0 0 a 4 3 4 a 0 0 a f x x f 5 4 a f 4 4 4 3 3 7 6 l l 3 3 l 6 6 l ",
"W J J F & 2 0 $ e e e $ % 3 3 # 0 2 0 0 0 # 0 2 # # 0 # # # # 3 2 2 2 0 $ $ 2 2 2 2 # # # # # # # % # $ $ # % # # # # $ # $ % # % # # # # - # # # # - # # # # # $ $ $ $ $ & $ $ & # + + # + + # + + # # + + + + # # + + # = = # # % # - + = + + # F $ $ - ; $ $ F $ $ $ F $ # # - # + + # ; $ $ $ $ # $ # ; # + # $ $ $ @ @ o i j  . .` ` `  . . . . .i h ~.w ,.,.Z Z Z Z <.<.<.Z }.}.}.}.}.}.}.}.1.}.}.1.1.1.1.1.4.4.6.1.1.7.1.2.<.,.~.i ......&.&.+._._.+.#.-.-.-.-.-.-.-.$.$.$.-.-.$.$.=.=.=.=.=.=.$.$.=.$.$.=.=.$.=.=.$.=.=.$.=.=.=.=.=.=.=.$.$.$.$.$.$.$.$.$.$.$.$.$.$.$.$.$.$.$.$.$.$.$.$.$.*.*.*.$.$.+.m f ( + ' ) , ( * ( ) ! ! ~ ~ ! ~ ~ ~ ! ! ! ~ ! ! ! ! ~ ! ! ~ ! ! ~ ! ! ! ) ) ) ' ! ! ' ' ) ~ ( ( * * ' ! = = = - # # / / # # / 0 # * # a a 3 a a a 4 4 a a f 4 f a 5 7 6 6 4 4 l 3 3 l 4 3 4 l l l ",
"R L k k e 2 0 e @ $ $ $ % % # * # 2 # 0 0 # 0 2 # 0 0 # # # # 0 3 3 3 3 2 2 3 2 2 2 2 0 2 # # 2 % % % $ % 2 $ # % $ # % # # % # # # # # # # # # # # # # # # # # # # # $ $ $ $ $ & # # + # + + # + + + # $ # # # # # # # # # # + = + = + % @ $ # # ; = ; ; # F $ $ $ $ ; $ $ + # # - # - # - ; ; ; # # # ; + ; = = # $ & @ @ o Y Y  .` `  . . .i '.h ~.{.,.,.,.,.<.Z }.Z Z <.<.<.}.8.}.}.}.}.}.1.1.}.}.}.}.}.1.4.3.1.3.6.4.6.6.4.1.2.,.{.h i i .. . .&.&.&._.+.#.-.-.-.-.-.-.-.-.$.-.-.-.$.$.$.=.=.>.=.>.>.=.$.$.=.=.$.=.=.$.=.=.>.$.>.=.=.=.=.>.>.$.$.$.$.$.$.$.$.$.$.$.$.$.$.$.$.$.$.$.$.$.$.$.>.>.$.*.$.$.#.^.9 * + , = ) ~ ( ( ~ ! ! ~ ~ ~ ~ ~ ~ ~ ~ ~ ! ! ! ! ! ~ ! ~ ~ ! ! ~ ! ! ! ) ! ) ' ! ! ' * ) ' ' ( # * ! = # # = * # # * # / 0 0 # 3 a a 0 0 3 a a a a a a 4 f f 4 0 0 4 a 0 3 4 2 2 3 2 3 l l 4 4 l ",
"R A F e e 0 2 2 F e e $ 2 2 2 2 2 0 # # 2 0 0 2 # 3 0 # 0 a # # 0 2 2 3 2 2 2 2 # # 0 # # # # 3 2 # # # # % 2 # % % # % % # % # # # + # % $ # # # + # # # $ $ # - # # $ $ $ $ $ $ $ # # # # + # # # ; # $ & # $ # + + # # # # # # # = = + # # - $ # ; $ $ $ $ # $ $ $ $ $ F # $ $ - # # - + - $ - # ; ; ; - $ ; + + $ ; # # 3 o 8 .. ..... . .i h {.,.2.2.2.2.}.}.2.2.}.}.}.}.}.Z }.}.}.Z }.Z 1.1.1.}.}.}.}.1.4.3.1.3.1.4.1.1.6.1.<.<.,.{.h '.....:.&.&._._._.+.#.-.-.-.-.-.-.-.-.-.-.-.$.$.$.=.=.>.=.>.>.>.$.$.=.>.$.=.=.>.=.=.>.$.=.=.=.=.>.>.>.$.$.$.$.$.$.$.$.$.-.$.$.$.$.$.$.$.$.$.$.>.>.>.>.>.$.*.-.$.#.:.9.* ' ) ; ) ) ( ~ ~ ! ! ~ ] ~ ~ ~ ~ ~ ~ ~ ~ ! ! ~ ~ ~ ! ~ ~ ! ! ~ ! ! ! ! ! ) ' ! ! ' ' ) ' ' ' / ) * + + - - * # # # # ' # 3 0 4 0 a 0 a 3 3 a a a 0 a 4 0 a 5 f f 4 3 3 4 l 3 2 @ 2 3 l @ 3 3 l ",
"R L F e 2 0 2 2 e k @ $ 3 # # 2 3 0 0 0 3 0 0 0 # # 0 # a a # 0 # 0 2 2 0 0 0 0 2 2 3 3 # # # # # % $ 2 % # 2 % % # + % % % % + # % # - $ # # # # # # % # - # # # $ $ F F F $ $ $ $ # + # # + # & + ; ; & # # $ $ + = # # + = # # # # # # $ # + # # # # # $ ; & e ; ; $ ; $ # # # + + # - = # # ; ; ; ; $ # % $ $ ; $ & ; # $ % @ 8 h h h '.i h {.,.2.2.2.2.}.1.1.1.1.}.}.<.Z }.}.}.Z Z [.}.Z }.1.1.1.}.1.1.1.3.1.1.4.6.4.6.1.6.1.<.2.2.,.~.'.i i ..:.&.&._.&._.+.#.#.-.-.-.-.-.-.-.-.-.-.$.$.>.>.>.>.$.>.>.$.$.>.>.$.>.=.>.>.=.>.>.>.>.>.$.$.>.>.$.$.$.$.$.$.$.$.-.-.-.-.$.$.$.$.$.$.$.$.>.$.$.$.$.*.*.#.#.#.#.!.a ( ) , ) ) ~ ( ! ! ! ~ ~ ~ ~ ~ ~ ~ ~ ~ ~ ! ! ~ ~ ! ! ~ ~ ! ! ~ ! ! ! ! ! ) ' ) ' ' ) ) ) / / * * # * ' = # # # + # * # 0 a a 0 0 4 a a a 3 a a a a a a a a a a f 4 4 3 3 l l l 6 3 3 @ l l @ l ",
"1 L J e 2 @ @ $ F e $ % 3 # # # # 0 0 0 0 # 0 3 # # 3 # # # # 0 0 2 3 0 # 0 3 3 3 # 2 # # # # % % % # 2 2 # 2 # # # # % # 2 2 # # % % # + # # # % # # # # + - # $ $ $ $ F F $ $ $ $ # + # # + + # + + + # # # # + = = + # # # # = = = + # @ $ # # # # ; # F $ $ F F ; $ $ - ; + - # + # $ + $ # $ $ $ $ $ # # # $ ; $ $ $ F @ $ $ 3 a a w w {.{.,.2.2.2.1.}.1.1.1.1.1.1.1.}.<.}.}.1.}.1.}.1.}.1.}.}.1.1.1.1.1.3.1.3.0.4.0.4.6.0.1.2.2.,.{.~.h h '...&.&.&.&.&._.+.#.#.-.-.-.-.-.-.-.-.-.-.$.$.=.>.>.>.$.$.>.$.-.>.>.$.=.=.>.>.=.=.=.=.=.>.$.$.$.$.$.$.>.$.$.$.$.-.-.-.-.-.-.-.$.$.$.$.$.-.$.-.-.-.$.$.$.$.$.#.#...a.( | ) , , 1 ! ! ! ! ~ ~ ! ~ ~ ~ ~ ~ ~ ^ ~ ! ~ ~ ! ! ~ ~ ! ! ! ! ) ' ' ) ' ' ' ' ) ) * / # - # # % * # # # # # # # # 3 3 0 0 a 0 4 a a 3 a 3 a 4 a a f 4 f a a f 5 5 3 4 6 4 4 6 l @ @ 6 o @ l ",
"1 b.F $ & 2 2 + 2 $ $ % % 2 3 3 a 0 0 # 0 0 0 3 3 0 3 0 # # # # 0 3 3 2 # # # # # # # # # # % 2 # # = % 2 # 3 # # # # # + # % + # # # # + # # # % # # # % # # $ # # & & $ $ & $ $ $ # # # # + + + + ; + # # # # + # # + = # # = # % % + + + + # # $ $ # $ $ $ $ $ $ Q ; $ $ ; $ - - - + # # $ # $ $ $ # # # $ # $ $ F F e F $ + # % % % % ,.,.<.<.Z 2.1.1.1.1.1.1.3.1.1.3.1.}.1.1.1.}.1.}.}.}.1.}.}.}.1.1.3.3.3.1.3.4.4.0.0.4.6.1.1.2.,.{.~.~.h '... .&.&.&.&._._.#.#.#.-.-.-.$.$.-.-.-.-.>.>.=.>.>.>.$.-.>.>.-.>.=.>.=.=.>.=.=.=.=.=.>.>.$.$.$.$.$.>.>.$.$.$.-.-.-.-.-.-.-.-.-.$.-.-.-.-.-.-.-.-.$.$.*.$.#.#.#...a.|._ ' , = ) ) ) ! ! ~ ~ ~ ~ ~ ~ ~ ~ ~ ^ 1 ~ ~ ~ ! ! ~ ~ ! ! ! ! ' ' ' ' * * ' ' ) ) # # # # # % % # 2 # # # # # # 3 0 3 0 0 4 0 0 a a 5 a 4 a a a a a f f a a f a a a 6 8 6 l l 6 o o o l o o ",
"c.J F e 0 0 2 $ 2 $ $ % 3 3 3 0 0 0 0 # 0 0 0 0 0 # 2 0 0 a 0 # 0 # 0 3 # 0 3 3 3 2 3 3 3 2 % 2 % # # 2 2 # 3 # # # # # + # % # $ % # # % # # % % # # % # # % $ # # # $ $ $ $ # # # + + # # = + + + # # # # # # + # + # # + + + # # # % $ ; = $ # $ $ F F $ & $ ; ; ; ; ; $ ; $ $ ; F # - $ F $ $ $ $ $ & # $ $ $ $ $ $ F $ $ # # # # d d Z 2.2.<.<.1.1.1.1.1.1.1.1.1.1.1.}.}.1.1.1.}.}.}.3.}.}.Z }.1.3.1.3.4.4.3.1.1.6.0.0.3.1.1.2.<.,.{.~.~.h '.i ....&.&.&.&._.#.#.#.#.$.$.-.-.$.$.>.>.>.>.=.*.-.-.-.-.>.>.-.>.=.=.>.=.>.=.=.=.=.>.>.>.$.$.$.$.>.$.>.$.$.-.-.-.-.-.-.-.-.-.-.-.-.$.-.-.-.-.-.-.$.$.$.-.#.$.+...m * ( ( ) , ) ) ) ~ ! ~ ~ ~ ~ ~ ! ~ ^ ~ ~ ~ ~ ~ ~ ~ ! ~ ! ! ! ! ) ' ' ' ' = + + * * ' # # % % % # @ % # # # # # # 2 2 # 2 a 0 a 4 a 5 a a a 4 4 4 8 9 f f f f 5 9 f 9 5 4 6 l 6 6 6 o o o @ o o ",
"V J r 2 0 0 2 2 2 % % % 2 2 # # 0 0 0 0 0 0 0 0 # # 2 3 3 3 a a a 3 3 a # a 3 3 3 3 3 3 3 3 # # 3 # # 2 # # 2 2 # 2 $ # # # % # $ $ % $ # # # # % # # % # + % $ $ # # $ $ $ $ # # + + + $ + + # + + # % # # # # # + * # # = = = # $ $ $ $ & e $ $ & $ F F # & ; ; $ F $ $ $ ; $ $ # $ $ ; F F F $ $ $ F $ ; $ $ $ $ $ $ $ # # $ # # - Z Z Z Z }.3.1.1.1.1.1.3.1.3.3.1.1.1.1.1.1.1.1.1.1.}.}.}.}.1.1.1.3.3.3.4.3.3.4.6.6.1.1.6.1.2.2.,.,.{.~.~.'.i i ..i d.&.&.&.&.#.#.#.#.-.-.#.-.$.=.=.=.>.*.*.*.-.-.-.-.>.>.-.-.=.=.>.=.=.=.$.=.=.=.=.>.>.>.>.$.$.$.$.$.$.$.-.-.-.-.-.#.-.-.-.-.-.-.-.#.-.-.-.#.#.#.#.$.#.*.+.` ..f / ( ) ) 1 ) ) ! ~ ~ ~ ~ ~ ~ ) = ! ~ ~ ~ ~ ! ! ~ ~ ! ' * ' ' ' ' = # + + + # # # 2 # # # 2 2 3 2 2 # # 0 # 0 # 2 0 0 0 0 0 a 5 5 5 5 7 4 7 7 9 f 5 9 5 9 9 9 f f 9 9 7 6 7 7 8 8 o o o 3 o o ",
"V k e 2 0 2 2 2 2 2 % $ % # # # 0 0 0 0 0 0 0 2 3 3 3 2 3 3 a 3 3 # 3 0 0 a 3 3 3 3 0 # # # # # 3 # # 0 # # # % = = # # + # $ + # # % $ # # # # # # # % # # # + % $ = + $ # $ $ + # # + # # $ % # # # # # = # # # # # # + + # = = 2 $ + ; ; e e F ; ; ; $ $ $ F $ $ F F F $ $ ; # $ $ $ $ $ F F F F $ $ $ F $ $ ; & $ $ $ # + # + + - d Z 2.Z }.3.1.1.1.1.1.1.1.3.3.1.1.3.1.1.1.1.1.1.}.}.}.}.}.1.1.1.3.4.4.3.3.4.0.4.6.1.1.1.1.1.2.,.,.,.{.~.h '.'.i ....&.&.&.&.+.#.#._.#.-.#.-.$.$.$.$.>.=.*.>.-.-.-.-.-.=.=.>.-.-.-.>.=.=.-.-.>.>.>.>.>.=.>.>.$.-.$.-.-.-.-.$.$.$.-.-.-.-.#.#.#.-.#.#.#.-.$.#.#.#.-.$.#.$.&.` ..5 / ( ' ) 1 ) ' ' ~ ) ~ ~ ~ ~ ) ) ~ ~ { ~ | ! ' ) ~ ! ' ! ) # # * ' * # # + # 0 # 0 # 3 0 2 3 2 0 2 2 + 2 2 0 0 2 0 2 3 3 a f a a 4 4 5 7 8 8 7 9 4 f 9 9 8 8 8 9 8 8 8 8 8 8 8 7 o o o o o 6 ",
"V k r $ 2 0 $ 2 2 2 % % % # 0 0 0 # 0 0 # # # 2 2 2 2 2 0 0 3 3 0 # 3 # 3 3 3 # # 0 # # # 3 a # # # 2 0 # # # % + + % 2 2 % % $ $ % $ $ $ % 2 % # # # % # $ % + $ # = + % # $ $ + # # + + # % % # # # # # d d # + # # # = = + + + + & # & & $ $ $ & F & $ # & $ $ & ; ; $ $ F F $ $ $ F F $ & & $ F F $ $ $ & $ $ $ # ; ; # # # # # % d Z Z Z }.1.}.1.1.3.3.3.4.4.3.3.4.3.1.1.1.1.1.1.1.1.1.}.}.}.}.1.1.3.4.3.3.3.3.3.1.1.1.1.1.Z Z <.,.z ,.{.h '.'.i  . .d.&.:.&.&.&.&.#.-.#.+.#.$.$.-.$.-.).-.*.-.>.=.-.-.-.=.=.>.e.e.>.>.>.-.-.>.>.>.$.$.$.$.$.$.$.$.-.-.-.-.-.$.$.-.-.#.#.#.+._.+.+.+.#.-.-.#.#.#.$.$.#.$.+.#...9 0 ( ' ( ( ' ' ) ~ ) ~ ) ~ ! ! ~ ~ ~ ) { ! | ^ ) ) ' ' ) * # + # 0 0 3 a # 0 0 # 0 2 2 2 3 3 + # 3 3 + # 2 2 2 3 3 3 4 6 4 5 7 7 8 8 7 7 4 f 4 9 9 9 8 h 8 8 h h h m 8 8 8 8 7 6 6 6 6 v 6 3 ",
"V b.e 2 2 2 $ 2 2 % # # # # # # # # 0 0 0 3 0 2 3 2 2 3 2 3 3 0 a 0 3 # # # # # # # # # # 3 a # # # 3 0 # # # % # % $ $ $ + + + $ $ $ 2 % # # # # # # % + # % # + # # $ $ + # # + $ $ # # # + # $ % # # # # - = # # # # # # + # # & + & = ; & & $ & F & $ $ F F $ & & $ $ $ $ $ $ $ $ $ F $ & $ F V ; & F F F $ $ $ # # % % % % # - % d { Z Z 2.1.1.1.1.3.1.3.4.4.3.3.3.3.1.1.1.1.1.1.1.1.1.}.}.}.}.3.3.3.3.3.4.3.6.3.3.1.1.1.1.2.2.2.,.,.,.{.{.h '.'.....d.&.d.&.&.&.&.-.$.#.+.-.$.$.>.=.>.-.-.f.-.-.-.-.-.-.-.=.>.-.>.>.-.-.>.>.>.>.>.-.-.$.$.$.$.-.-.-.#.-.-.-.-.$.#.-.#.#.#.+.+._._._._.#.#.#.#.#.$.#.#.#.#.$.&.a.a * ( ' ) * | ) + ) ~ ' ~ ) ) ~ * ) ~ ~ ~ ! ~ * # + + 0 4 3 0 3 4 3 0 0 0 0 # # 0 3 # 0 3 3 * # 0 2 # # # 0 3 4 4 4 4 7 7 8 8 8 8 8 8 8 7 7 9 7 8 8 8 m h h h h h h 8 8 8 6 6 7 6 6 6 6 3 3 ",
"V k r $ 2 0 $ 2 2 % # # # # # 0 0 0 0 0 0 2 0 2 3 3 2 2 3 3 3 a 3 a 3 3 3 3 3 # # 3 0 # # 3 3 3 3 + 2 2 # + # 2 $ % # # $ $ $ + $ % $ 2 % # # # # 2 # + = # $ + # # 2 % = + $ # # % # + $ # = + # # # # # # = # 2 # = ' % 2 = + $ + ; $ $ $ e $ F $ $ ; & ; $ & + ; # F $ # # # # # # $ $ $ $ F F F ; V F F F F $ # # # # # # # d = - { ] 2.Z 1.1.1.1.1.1.1.3.1.1.3.3.3.3.1.1.1.1.3.1.1.1.1.1.1.1.1.4.4.3.3.3.3.6.3.3.1.1.1.2.2.1.Z Z ,.,.w w w h '.'.'.d. . .&.#.&.&.&.&.&.&._._._.+.#.).).).+.).-.#.#.-.-.-.>.=.-.#.>.=.>.-.=.=.>.$.$.-.$.$.$.$.$.-.-.+.+.-.-.-.-.-.#.-.#.-.-.#.+._._._._.#.#.#.#.#.#.#.#.#.#.$.&.a.a # * * ( * ) + ' ) ) ' ~ ~ ~ ~ ) ~ ~ { = * # # 2 0 0 0 4 4 4 5 5 3 # 0 3 0 # 0 0 3 # # 3 4 3 3 4 5 6 6 7 6 6 6 8 8 9 9 8 7 f f f 5 7 8 8 9 8 8 8 8 9 h h 8 8 h 8 7 7 5 5 6 6 6 5 5 6 5 0 0 ",
"V J r $ 2 2 2 2 2 2 # # # # # # 0 0 # 0 # # 2 2 # 2 2 2 3 0 0 3 a 0 0 0 3 3 3 # # # # # # 3 0 3 # # # % 2 # # 2 # # + # $ $ $ # 2 2 $ $ % # # # 2 3 # + # % $ # # # $ # = $ % # $ % + = + # # $ # # + # % # = # % # # + $ 2 = + $ # # $ $ $ $ & ; ; ; ; & & F $ & # # # # # # $ % # # # $ $ $ $ $ F F F F F $ $ $ $ # # = = # # # d d 2.] Z Z 1.1.1.1.1.1.1.4.4.1.3.4.3.1.1.1.1.1.1.1.1.1.}.}.1.1.1.3.4.3.3.4.3.6.3.1.1.3.1.1.Z 2.<.<.,.,.,.,.{.h '.'.'... ... . .&.&.&.&.&._.+.&.&._.+._._._._._.+._.).-.-.-.g.-.-.-.-.-.g.>.-.=.>.$.$.-.-.-.-.$.$.-.-.).+.#.+.#.#.#.#.#.#.-.-.#.+._.+.+.+.#.#.#.#.#.#.#.#.$.$.$.:.a.f 0 * * ( ( ) ( ~ ( ) ( ) ) ~ ) * ) ) * 3 * # # 0 4 4 4 a 0 3 3 3 0 3 4 4 0 # # # # 0 # # 0 3 a 3 a 3 4 4 a 7 7 8 8 9 f 9 7 7 8 8 8 8 8 8 8 8 8 8 8 7 8 8 9 7 7 7 5 7 4 3 3 a 5 4 3 3 3 0 0 ",
"V J F % 2 2 2 2 2 2 # # # # # # 0 0 0 0 2 2 3 2 2 2 3 3 3 3 2 3 3 3 3 # # a 3 0 3 0 3 3 # 3 0 3 # # 2 # # 2 2 % $ $ + 2 2 + + # $ $ + $ $ # # + # # # # # + + $ # $ # + + # + = + % % $ # # $ % # # # # # # # # # # # # % $ = $ $ $ $ & $ & $ $ & $ $ ; ; ; & # # $ $ # # # # # # # # # # # $ F F F r F F F $ $ $ # $ 3 # # % # d d d Z Z Z 2.1.1.1.1.1.1.1.3.0.3.1.3.1.1.3.1.1.1.1.1.1.}.}.1.1.1.1.4.4.3.3.3.3.6.6.1.3.3.1.1.1.1.1.2.2.2.,.,.{.h '.'.'.i i .. .&.&.&.&.&.&.+.).+._.+.#.+.#.#.#.+._.+.-.-.-.g.=.-.-.f.-.).-.-.-.=.>.-.$.-.-.-.-.-.-.-.-.#.+.#.#.#.+.#.#.#.#.#.#.#.+.+.+.+.#.#.#.#.#.#.#._._.$.$.$.:.9 f * * * ( ( ( ( ( ( ( ~ * # ) ) * * # # 3 3 3 4 4 4 4 4 0 # 3 3 # # # # 3 3 0 0 a a 0 a 3 0 3 4 4 4 7 5 5 7 8 7 7 9 8 8 8 8 8 8 8 8 8 8 8 h 8 8 7 9 8 8 7 7 7 5 5 5 5 3 3 3 3 3 3 # # 0 # # ",
"V F F $ 2 2 2 2 2 2 # # # % # # 0 0 0 # 2 3 2 0 2 2 2 3 3 3 3 0 3 3 3 3 a 3 0 # 0 # 3 3 # # # 3 # # 2 # * # # + # % + # % + + # $ $ $ # # 2 2 # + # # # 2 # + $ $ $ $ $ # + = + # $ $ 2 % $ # # # # # # # # # # $ # = = # $ $ $ $ = # ; e $ F $ ; $ & & & ; $ $ # # # # # # # # # % % % # # $ $ $ F F $ $ F $ $ $ # $ 3 % % % d % d - Z Z Z 2.1.1.1.1.1.1.1.1.3.1.1.1.1.1.1.1.1.1.1.1.1.1.}.1.1.1.1.4.4.3.1.3.3.4.3.1.3.3.1.1.1.1.1.2.<.,.,.,.{.w h h '.i .. . ...^.&._.&.h.&.#._.&._.+._.+.-.-._.+.).#.-.g.=.>.-.-.-.-.).-.-.$.=.-.-.$.-.$.$.-.-.-.-.-.#.#.#.#.#._._.#.+.+.#.#.#._.+.+.+.#.+.#.#.#.#._.#._.$.-.$.:.a.x * * ( ( * * ( ( ( ' * * * * * * # 0 3 3 4 4 4 4 a 0 4 3 0 3 3 a 4 3 # 0 # # # 0 3 0 4 4 a 5 7 5 4 8 9 4 7 7 9 8 8 h 8 8 8 8 8 h 8 8 8 8 h 9 8 5 4 7 7 5 7 7 f 4 f a a 3 3 a 0 # / # # # z ",
"V F F 2 3 3 2 2 2 2 # # # # # # # 0 2 0 # 2 % 2 2 2 3 3 # 2 3 3 3 0 0 3 3 3 a 3 3 3 # # # # # a 3 3 3 2 # # # # # 2 $ # $ $ % $ % $ + + # 2 % # # # # # 3 % = $ $ # $ $ # # $ % $ # + # $ $ # # # # + # # + + # # $ # $ $ $ + = + + & + $ ; e F $ F & & & ; $ $ $ # # # # # # # % # # # # $ 2 # $ $ F $ $ $ $ $ $ $ # # # % % # # # { Z Z Z }.2.1.1.1.1.1.1.1.1.1.1.1.1.1.1.1.1.1.1.1.1.1.}.1.1.1.1.3.3.3.3.4.0.0.4.3.6.3.1.1.}.<.,.,.,.2.z ,.w w {.h '.i ......d.^.&._._.&._._.&.&._.#._.&.#.-.-.#.#.+.+.-.-.#.-.-.#.#.>.=.$.$.-.-.$.>.$.-.$.-.-.-.-.-.-.#.#.#.+._.&._._._.+.#.#.+.+.+.#.+._._._._.#.#.#.#.$.-.#.^.9 a * ( ( ( ( ( ( ( * * * * * # 3 3 0 0 3 4 6 0 a 4 l 4 3 4 4 4 0 0 4 3 # 0 0 0 3 0 3 4 5 4 f 4 5 4 5 7 5 7 8 8 8 8 8 8 8 8 8 h 8 8 8 7 7 9 5 5 9 f 9 7 5 4 5 a 0 a a a 0 a 0 0 / / z z z z - ",
"F F F 2 3 3 2 2 2 2 # # # # # # 2 0 0 2 2 % 2 2 2 3 2 2 3 3 3 3 3 3 3 3 0 # 0 3 3 3 0 # 3 # 3 # # # # # # # # # # $ # # # $ $ $ # + = # # # + # # # # # % # = % $ $ % $ # % $ # $ # + $ % # # # # - + + # # # # # # + $ $ + + + $ $ $ & & ; F F F F & $ $ + $ $ $ $ # $ % # # # # # # # # $ $ $ $ $ $ $ $ $ $ # $ # # # $ % # # # d - Z Z Z Z 2.1.1.1.1.1.1.3.3.1.1.1.1.1.1.1.1.1.1.1.1.}.}.1.3.1.1.4.4.4.4.3.4.4.3.4.3.3.1.1.1.Z Z Z 2.,.,.w w w w w h '.i ......:.:.:.&.&.&.&._._._.+.#._._.#.-.-.-.).-.>.-.).).-.-.=.=.=.-.-.-.-.-.>.$.$.$.-.-.-.#.-.-.-.-.#.+._._._._._._.+.#.+.+.+.+._._._._.#.#.#.-.#.-.-.#.^.9 x * ( ( ( * / ( * # # 0 0 0 a 3 3 4 4 4 4 4 4 4 3 3 0 0 a 4 3 # # 0 3 3 0 0 3 4 a a 4 7 4 5 9 9 5 9 5 4 5 9 8 8 8 8 8 h h 8 8 8 9 7 8 7 f a 5 5 f 7 5 4 a a / / 0 / / / / / / / z z z z z # ",
"J F F 2 3 3 2 2 2 % # # # # # 0 2 0 # 2 2 $ 2 $ 0 2 2 $ 3 3 2 3 0 # 2 3 3 # # 3 # 3 # 0 3 # # # # # # # # 3 3 # $ 2 $ $ $ + $ $ + + # % + + # # 2 # # + # 2 $ 2 $ $ % # $ % + = $ $ $ 3 2 # $ % = # # # + ; $ & & # + $ & + $ # + + # $ e F F $ ; ; & $ e $ $ $ $ # # # # # # # # # % % $ # # $ $ $ $ # $ $ # # $ $ $ $ # # # % 3 3 # d Z Z Z 2.1.}.1.1.1.1.3.1.1.1.1.1.}.}.}.}.1.1.1.1.1.1.1.1.1.1.1.1.4.4.3.6.4.3.6.6.3.3.1.1.}.}.Z Z ,.,.{.h {.w {.{.h '.'... .&.&.:.^.&.&.&.+.+._._._.&.&.#.#.#.#.-.=.=.=.=.-.-.-.>.-.>.>.-.-.$.-.>.=.$.$.-.-.-.#.-.-.-.-.#.#.+.+._._._._._._._._._.+._._._.#.#.#.#.#.#.#.-.#.^.a.x / ( * * / / * 0 3 # 3 3 4 3 0 4 4 6 4 a a 3 3 0 0 0 # # # # 0 0 0 3 4 3 3 4 6 6 5 a 4 7 8 8 8 7 7 8 8 8 8 7 9 9 7 7 7 7 4 9 8 7 5 5 4 4 5 5 f a a a a a # / / / / / / / ' ' { z - - ' z - ",
"J J F 2 3 3 2 2 2 # # # # # 0 2 2 2 2 2 2 2 2 2 2 2 2 3 2 2 3 3 2 # # 3 3 3 3 3 # 3 3 0 3 # # # 0 # 0 # # 2 3 # # 2 2 # + + $ # # + + $ + + + # # # # + # 2 + $ $ # # + $ 2 # # % # + $ % + % 2 # + % $ # + # # ; # $ $ + ; $ & + + # $ $ e e e $ ; F & F ; + # # $ # # + # $ % # # # % $ # # $ $ # $ $ $ $ # # # # % # - # % d % # - Z Z Z Z 2.1.}.1.1.1.1.1.1.1.1.1.1.1.}.}.}.1.1.1.1.1.1.1.1.1.1.1.1.4.0.3.6.0.4.6.3.4.3.1.}.<.}.<.,.,.,.{.h h h h h h '.'.'.m  .&.&.:.:.&.&._._._.&.:.^.:.&.&.&.d. . .d.d. .d.d.#.>.$.$.$.$.$.$.$.=.$.$.$.-.-.-.-.$.$.-.-.#.#.#.#.+.#._._._.&._.&._.+._.#._.#.#.#.-.#.#.-.$._.^.a.x x * 0 x / a 0 # 4 3 3 4 4 0 0 6 6 4 3 4 4 3 0 0 0 0 3 2 # # # # 3 3 3 4 4 4 3 4 4 4 4 7 7 8 8 7 7 8 8 9 9 7 7 5 4 5 f 4 4 4 4 a a 4 4 a a a a x x / / / ' / # / ' / ' ' ' ' ' - - - z ' { ",
"J F F 2 3 3 2 2 2 # # % 2 2 2 3 3 2 2 # $ 2 2 2 2 2 2 3 2 2 2 2 3 3 # 0 # # 3 # # # # # 3 # # # # # 2 # # # # # = $ 2 # + $ 2 $ $ # = # # # = # # + # # # 2 + $ # # $ # # % $ $ % + + $ $ $ $ $ # # # # # ; F e $ & $ $ & + & + # @ # & , ; $ e e & $ ; $ $ $ $ # # # # # + % $ # % % % $ # ; $ $ $ $ $ $ $ $ % # # # # # # # # # # d Z Z Z 2.1.1.1.1.1.1.1.1.1.1.1.1.1.1.1.}.}.1.1.1.1.1.1.1.1.3.4.4.4.6.3.6.3.3.4.3.3.1.1.3.1.1.1.Z ,.,.,.w {.h h h '.h '.'.'.'.^.^.^.^.:.&.&.+.&.^.^.&.#.&.d.i '.h {.{.{.{.{.{.{.i #.*.$.#.$.$.$.$.$.$.$.$.-.-.-.-.-.-.-.-.#.#.#.#._.#.+._._._._.&._.+.+.#.+.#.#.#.#.#.-.#.-._.!.9 x f x a x / a 4 * 3 6 7 4 4 4 4 4 4 4 0 a a 3 0 0 0 # 0 0 a 3 3 3 4 3 a 4 3 8 6 4 7 8 8 9 4 5 5 5 a a f f a a f 5 4 4 3 a 4 7 4 a a a a 0 x / * ( ( ( / / ' ( * * ' / / ' ' ' - - { { ' { { ",
"J F F 2 3 3 2 2 2 2 % % % # 0 0 2 2 # # 2 2 2 2 2 2 2 2 2 2 2 2 3 3 # 3 # 3 3 # # # 3 # 3 3 # # # # 2 % # # # # + # $ # + # % + + + # # + # # # # * # # # 2 # % # # 2 $ # % $ # $ $ $ $ # $ # # # % $ $ # ; $ $ $ & & $ $ # + + # # & $ # & $ & $ & $ $ & ; # # & ; & $ # # # $ $ 3 $ % # # # $ $ $ $ $ # # 3 3 # % # # % d # % d d - 2.Z Z 2.1.1.1.1.3.1.3.3.1.1.1.1.1.1.}.}.}.1.1.1.1.3.3.1.1.1.4.4.4.1.1.4.4.4.0.4.3.1.1.3.1.1.1.2.,./.w ~.~.h h h i '.i i '.'.'.m ^...&.&.&.&.&.&.&.#.#.d.h z 2.2.7.7.1.7.7.1.1.2.h &.$.*.*.$.$.$.$.$.$.$.-.-.-.#.-.#.#.-.#.#.+._._.#.+._._._.+._._._.+.#.+.#.-.#.#.#.#.#.)._.!.9 x f 0 f a a 0 7 4 3 4 7 4 4 4 4 3 a 4 0 0 4 0 # # 0 0 0 3 3 0 3 4 3 3 4 4 4 4 4 4 4 8 7 5 4 5 4 4 4 a f f a a a a a a 3 0 4 4 0 0 # * * / / ( ( ( ( ( ( ' ' ) ' ' ~ ( ' ' * { = = ~ ! = { > ",
"J V F $ 3 3 2 2 2 3 2 2 3 3 2 0 3 2 2 2 2 2 2 2 2 2 2 3 3 3 3 3 3 3 3 3 # 0 a # # 3 3 # # # # # 0 # 2 % % # % 2 # $ % 2 $ $ 2 $ + + $ # = # # + + = 2 # = # + $ + + 2 $ # 2 $ # % % $ # # # # $ $ # 2 @ $ $ # $ $ & # & # + + $ $ # + & & & $ & & ; ; ; # $ F $ # # $ $ # # # # # # # # # $ F $ $ $ $ F $ # $ $ % $ % d 3 3 0 a # # ' 2.Z 2.2.1.3.3.1.1.1.1.1.1.1.1.1.1.1.1.1.1.1.1.3.1.1.1.1.3.3.3.3.3.4.4.4.4.4.0.4.4.4.3.3.1.1.1.}.Z ,.v h h i i '.'.i '.'.'.i '.'.^.....&.:...&.&...m '.,.i.0.0.6.6.0.0.0.0.7.7.0.1.{...$.=.$.$.$.$.$.-.$.-.-.-.-.-.-.#.#.#.#._.&.&._.+._._._._._.&._.+.+.#.#.#.#.#._._.+.+.:.!.9 f f 0 f f a a a a a 4 7 4 4 4 a f a 4 4 3 0 a 3 0 0 3 a 0 0 0 3 4 0 a 3 3 3 3 4 4 4 4 f a f f 0 0 a 0 a 0 0 x x / 0 # # * * ) ( * * ' ' # / ( ( ~ ( ' ' ( ) ( { ) { ' ' ' ) { { { ! { = { > ",
"J F F 2 3 3 3 2 2 3 3 2 2 2 0 0 0 0 2 0 0 $ 0 2 2 3 2 2 3 3 3 3 3 3 3 3 3 3 3 3 # 3 3 # 3 # 3 # # # 2 # # # % 2 + # % # + # $ + % % % # + # # # % + % # + # + % + # % # = % $ # % % # # $ # $ $ $ % $ % # # $ $ # & e # + # # $ + + # & & + # # $ $ $ & # $ # & = $ $ & $ $ + + # # $ # # e $ $ $ F $ $ $ $ # # % % % % % # # # # # / Z Z Z 2.2.1.3.1.1.1.1.1.1.1.1.1.1.1.}.1.1.1.1.1.1.1.1.3.3.4.6.4.4.4.4.4.3.4.0.4.4.0.4.3.1.}.}.<.Z ,.{.~.i i '.h h '.'.'.'.'.'.'.i ........&.&...'.w z 7.7.7.6.7.7.7.7.7.7.0.0.7.0.1.{.i #.*.$.$.$.$.$.$.-.-.-.-.-.#.#.#.#.#.+._._._.+._.&._._._.&._.#.+.#.#.#.#.#.#.+._._.:.m 9 f f f f f a a 0 0 4 5 8 4 a a a f f a 0 0 0 0 4 3 3 3 0 0 3 4 4 a 3 4 4 0 4 4 4 4 a 4 a 0 0 0 a * / * / * * / 0 / / / / # + ) ( ( ( ( ) ) ( ( ' ( ( / ' ~ ) ) ) ) ) ' ) ) ' { ! { > ! ! ! > ",
"J F $ % 3 3 2 2 a 3 0 0 3 2 0 0 0 0 0 # # # $ $ 2 3 2 2 3 3 3 3 3 3 3 a 3 3 0 3 0 0 0 0 0 # 0 # # # 2 # # $ $ % # # $ # + # $ $ % 2 $ # # % # # % + # 3 # # # % # # % # ' % # # % $ # # $ # $ $ $ % $ $ # # # $ # & # # # # # # + # $ # & ; ; ; $ $ # # $ $ + + # $ $ + $ $ & # + # $ $ $ @ $ F $ F $ $ $ $ $ # % % 2 % % d d # d - - Z Z 2.2.2.1.3.1.1.0.1.1.1.}.1.1.1.}.[.1.3.1.1.1.1.1.3.3.4.3.3.3.4.4.0.0.4.0.0.4.4.0.0.3.1.}.1.<.,.,./.{.h h h h '.'.h h '.'.'.'.i ...... . ...'.w i.7.1.1.7.2.2.1.1.1.7.1.1.7.0.0.0.6.{. .*.$.$.$.-.$.$.-.#.-.-.-.#.+.#.-.#.+.+._.&._._._._.+._._._.+.+.#.#.#.#.#.+.#.+._.&.!.9 w 5 f f f a a 4 5 5 5 0 a 0 a 4 a 3 a # 0 4 # 4 4 3 3 3 3 4 4 4 2 0 4 4 0 3 0 3 0 0 # 0 * / / 0 * / / / ( * * ' ' * * * * ( * * ) ) ( ) ) ( ( ' ( ( ( ( ( ) ' ) ' ' ' ) ' ' > > > = > ! > > ",
"J % $ % 0 0 0 a a a 0 0 3 3 3 0 0 0 3 # # 2 2 $ $ 2 2 3 3 3 3 3 3 3 3 a 3 3 a 3 # # # # # # # # # # 2 % # 2 % % % $ # # # $ $ = # # # # $ % # # # + # # + # = # # # # % # % # # # # $ $ $ # $ # $ # # # # # # # # # + # # $ # + $ $ # + # # # # # # - # # # # ; # $ $ ; # $ $ e + & # $ $ F $ k $ $ $ $ $ $ $ # $ $ 3 % % % % d d d - - Z 2.2.Z 1.3.3.1.3.1.}.4.1.}.1.1.4.3.}.1.1.1.1.1.1.3.1.1.3.3.3.3.4.4.0.0.0.0.0.0.0.0.4.3.}.}.Z {.{./.h h i i '.i '.h h h h '.'.....i  . ...'.w 2.1.1.2.2.1.1.1.1.2.1.1.1.1.7.7.7.7.7.2.'.*.*.$.-.#.$.$.#.+.-.$.$.-.#.#.-.#.#.+._._._._._.+.+._.+.+._.+.#.#.#.-.#.#.#.+.#.&.m 9 w 5 f f 5 f f a 4 4 a a 0 0 a a a 3 a a 3 4 0 4 4 0 0 3 3 3 3 3 3 3 3 0 0 0 a 0 # # # # * / * / * * * / * * / ' ( ' * * * * * # * * ) ) ) ( ( ( ( ~ ~ ( ( ) * * ' = = ' ' ' > ! > = > > > > ",
"J % % % a 0 a a 0 a 0 a 0 0 3 0 0 0 3 # # # 2 # 2 3 2 2 3 3 3 3 3 3 3 # 3 3 0 a 3 3 3 # # # 3 3 3 2 % 2 # % # $ 2 # % 2 # # % # # # # $ # # % # = = # # = % + # # # = # # # # % $ # % % % $ $ $ $ # # # # # # & # # + # # # $ $ # # $ # + # # + + # $ # - # # + # $ $ # # # ; # + # $ @ @ $ # @ # $ $ % @ $ % $ % % 2 2 3 3 3 % d d d d Z Z 2.2.}.1.1.1.1.1.3.4.}.}.1.1.3.1.1.3.1.1.3.4.1.1.3.3.4.3.1.3.3.4.0.0.0.0.0.0.0.4.0.0.1.}.}.{././.h h h h h i i '.h w w h '.i m i ..i '.{.z 2.7.1.1.1.1.1.1.1.1.1.1.1.1.<.}.1.1.7.6.j. .$.$.$.#.#.#.#.-.$.-.-.$.$.#.#.+.+.+._._._._._.+._._.+.+._.#.#.#.#.-.#.#.#.&.+.&.m 9 w w f f f f a a a 0 0 4 0 4 4 a 4 a a 4 4 4 0 4 4 3 2 3 3 4 4 4 3 3 3 2 0 0 0 0 # 0 0 0 / # * / / * * / / / * * * * * * * * * ) ) ) * * ) ) ( ( ( { ( ) ) ) ) ' ' ' = = = = > ! > = > = = , ",
"J % 3 3 a 0 a a 0 a a a 0 # 0 0 0 0 0 0 # 0 0 # % 2 2 3 3 3 3 3 3 3 5 3 3 3 a 0 a 3 0 # # # 3 # # 2 # 2 2 2 + # 2 # 2 2 # # % 2 % # # $ # # % # # # # # # % = # # % # # # # # % $ # # # + $ $ $ $ # $ # + # + + + # $ $ $ # $ $ # # $ # + + + + + ; # $ # # # # # # $ # # # # # # $ $ $ F $ $ r $ % % % $ # # 3 @ $ % 3 % # % % # d d d Z Z Z 3.3.1.3.3.1.1.3.3.}.1.1.1.}.}.1.1.1.0.3.4.3.1.4.3.3.3.3.3.4.0.0.0.0.0.0.0.0.0.0.0.3.1.1.Z ,./.~.{.h h w h '.'.'.h i '.'.'.'.i '.h {.2.1.1.1.1.2.2.1.1.}.1.1.1.1.1.}.<.<.1.1.1.0.i.'.*.$.#.#.#.#.$.#.-.-.-.-.#.#.#._._.+.+._.+.+._._._._.+.#.+.#.#._.+.-.-.-.#.&.&.:.m 9 5 f a / a a a a a 0 0 0 * a a a 4 0 + 3 + + 0 3 3 3 4 3 3 3 3 3 0 + 0 2 0 # # # / # 0 # # # # / / * * * * * * * * * ' * ) * * ~ ) ~ * * ' ) ) ' ( ( ) ) ) ' ' ' ' ' = = ) , = > = > > = = = ",
"b.% 3 0 a 0 a a 0 0 0 a 0 0 3 0 0 0 3 0 # 0 2 # 2 2 2 2 3 3 3 3 3 3 4 3 3 3 3 a a a # a a 3 3 # # 0 2 # 2 2 # 2 2 # # # # # # % % $ $ % # # % # % % # # # # + % # # # # # # # % $ # $ # + $ $ % % $ # + # $ # + # $ # + # # # $ # # # # + # # # # ; # # # # $ # - + $ $ $ $ $ - ; $ k r ; $ $ $ % % # # $ % # % % # % @ $ # % $ # d d d Z ] 2.2.3.3.1.1.3.3.3.1.1.1.1.1.}.1.1.1.1.4.3.3.1.3.0.3.3.3.4.4.4.0.0.0.0.0.4.0.0.0.0.4.4.3.1.2.<.~.~.~.h ~.{.h h '.'.'.i '.'.h h h w w z 2.2.1.1.1.1.2.1.1.1.1.1.1.1.1.}.}.<.<.}.1.7.i.{.` %.#.*.#.#.#.#.+.+.#.#.#.-.#._._.+.+.+.+.+._._._._.+.#.+.#.#.+._.-.#.).#.+.+.:.m 9 f x x / a a a x 0 0 a a 0 4 a 0 3 0 0 4 3 4 3 4 3 0 2 2 3 0 2 3 3 0 2 0 0 # # 0 # / # # / # # # # / / / * / / / * / * # ) * * * # * * * ( ( ) ' ) { ) ) ) ' ' = = = = = ) , = = + = > = = = ",
"b.0 0 # a 0 a a x a 0 a 3 0 3 a 0 3 3 3 # 2 2 # 2 2 2 2 3 3 0 3 a 3 3 3 3 3 3 3 a a # a # # # # 3 # 3 # 0 0 3 3 0 2 # # # 2 # # # # # % # # % # % % # # # + # 2 # = = # # # # % $ % $ $ $ $ $ $ $ # + # # $ $ # # $ # # + + # # # # # ; + $ $ - - $ $ ; + # $ ; - # $ - $ $ $ + - $ @ @ - $ $ # % % # # % % # % $ % % $ % # % $ # d d Z 2.3.3.3.Z 1.3.}.3.3.1.1.}.}.1.}.}.1.1.3.1.3.3.3.1.3.4.3.3.4.4.4.0.0.0.0.0.0.0.0.0.0.0.4.4.1.}.1.<./.~.h h ~.h ~.h i '.i '.h '.h h {.,.,.2.1.1.1.1.1.1.<.1.}.}.1.}.1.3.1.1.1.<./.<.1.0.0.z @.` %.%.#.&.#.#.#.+.+.#.$.-.#.#.+._.+.#.+._.+.+._._.#.#._.#.#._._.)._._.+.#.#.:.m 9 5 5 f / a x a x 0 0 0 a 4 4 3 0 a a 3 3 4 4 0 3 l 2 0 3 3 2 4 2 2 3 3 0 2 # # a # / # # / # # # # # 0 # # # # / * # # # * ) ) * / * * * * * ) ) ) ) ( ) ) ' ' = = = = = = ; = = = > ! , ; , ",
"b.0 a a a a x x x a 0 a a 0 0 0 0 0 0 3 # 3 2 # 2 2 2 3 3 3 3 3 3 3 3 3 3 3 3 3 a 0 # a a # a a a 0 0 # a # a # # 0 # 0 # # # # 2 % # $ $ + + + % % # # # $ + # + # % # # % $ # # $ $ # $ % $ # $ $ # $ # & # # # # $ $ # # # + + + ; ; # $ + + # $ $ $ ; # # ; ; $ # = $ $ $ - F $ $ r $ $ $ # $ % # % % # # 2 2 $ # $ $ $ $ $ # d d Z { ] ] 3.Z 3.4.1.3.3.1.3.1.1.1.1.1.1.1.3.1.1.1.1.1.1.3.3.1.3.4.0.0.0.0.0.0.4.0.0.0.0.0.4.4.1.1.1.Z ,.,.~.h i h {.'.i '.i i '.i h {.,.<.<.1.1.6.6.1.1.}.<.<.1.}.1.1.3.4.}.1.1.<./.<.1.0.k.2.h  .&.&.&.&.&.+.#.$.-.#.-.#.#.#.+._._.#.+._._.+._._.#.#._.#.#._._.+.&.+.#.+.#.&.m 9 w x x / a x a a 4 f 0 f 4 0 a 4 4 4 4 0 0 # 0 0 3 0 # 0 0 # 3 2 0 2 2 0 3 # # # / # # # # # # # # # # # # # # # # # # * * ' * * * * * * / * ' * * * ' ' ' ' = = = = = = , ; = , , > ! ! = ! ",
"b.a a 0 a a x a a a 0 0 3 0 0 0 0 0 0 0 # 2 2 % 3 2 3 3 3 3 3 4 4 3 3 3 3 3 a a a a a 3 3 a 3 3 a # # # 0 # # # # # # 0 # # # # # # # % % + # # # # $ # # % # # = % 2 # * # # # # $ $ + $ % $ $ $ # & & $ $ # $ # # $ + & # & & # # $ - ; # # # # # # # $ $ # + # $ $ # $ - r - r $ # $ $ $ $ $ # # # % 3 % $ $ $ $ # @ e r $ $ - > Z d X Z Z Z 1.}.1.1.3.3.1.1.}.<.1.1.1.3.3.1.1.3.3.4.4.1.3.3.}.4.4.0.0.0.0.0.0.0.0.0.0.0.0.0.4.4.3.1.Z <.,.v h i i '.'.'.'.'.'.w {.w ,.,.2.2.1.1.1.1.1.1.1.}.<.1.1.1.}.1.1.1.l.4.<./.<.1.k.m.i.~.@. . . .&.&.#.#.#.-.#.#.-.#.+.+.+.+._.+.+._._._._._.+.+.+.+.+._._._.#.)._.+.&.m 9 w x x x f f 0 f 4 f 0 a a / a 4 a 0 0 # 0 0 0 0 2 0 2 3 0 # 0 0 # 0 2 3 3 3 # # # 0 # # 0 0 # # 0 # # # # # # # # # # * # # # # / # # # / * * # * * ' ' ' = = + + + ; ; = ; = ; ; ; ; ; ; ! ",
"b.0 0 / a x x x a a 0 0 3 3 3 0 0 0 0 3 0 3 2 # 2 2 2 3 3 3 3 3 3 5 5 3 3 3 a 3 3 a a a # # a a # # # # # 0 # a # # 0 # # # # # # # # % 2 % % % % # # # = % $ # # # # # + # # # % 2 2 $ $ + # $ # + + & $ # # $ $ # $ & # # & & # # $ # ; # # # $ - + ; # $ # ; $ $ # # - $ @ $ @ $ + + $ r r $ $ % $ % # $ $ $ $ @ $ $ $ $ $ $ r d - d Z Z Z Z Z Z Z }.}.}.[./././.<.[.Z 1.1.3.4.4.4.0.0.4.3.1.3.4.4.0.0.0.0.0.0.0.0.0.0.0.k.0.4.4.1.2.Z ,././.~.h h h h '.i '.'.h w ,.<.2.1.1.1.1.}.}.}.}.}.<.[.}.Z [.}.1.1.l.l.1.}.<.<.1.m.n.0.~.@. . .&.&.&.#.&.&._.&.+.#.#.#.#.#.+._._.+._._._._._._.+._._.#.+.:.h._.+._.+.:.'.9 9 9 f 5 5 x f 9 4 f f f 0 / # 0 0 * + 0 0 0 0 3 3 # # # 0 2 3 3 2 3 3 2 0 # # # # 3 # # # # # # # # # 0 # # # # # # a # a # # # / # / / / / / * * * * + + = + + + + & + + ; ; = , ! ; ; ; ; ",
"b.0 0 0 a x x x x a a a a 0 0 0 3 0 0 0 # 2 2 2 3 2 2 3 3 3 3 4 3 3 3 5 5 3 a 3 3 a a 0 a a a 3 a # # a # a # a a # 0 # 0 # # # # # # % 2 % % $ 3 # # # + % # % % # # # 2 % + $ % # # 2 % + $ $ & & # $ + ; # # # # $ e $ # # & & # $ $ $ $ ; ; # ; - # ; # # $ $ $ $ # # $ r - $ r r $ % r $ + $ $ % # # $ $ $ # $ $ $ # $ $ $ $ $ d Z X Z Z 2.3.3.1.1.}./.o.o.o.~.{./.<.<.}.3.3.3.0.3.3.4.3.1.4.4.3.4.0.4.4.0.0.0.0.4.0.0.k.0.0.3.1.1.<.,.,.,.{.h h h '.i '.'.'.'.,.2.2.1.1.1.3.1.}.}.}.}.[./.[.}.Z [.1.1.1.l.l.}.}.[.[.}.0.m.6.{.i @... .&. .&.&.&.&.h.&.#.+.#.#.+._._._._._._._._._._._._._.+._.&._._.+._.+...9.w f f f f f x x f a f 4 4 / 0 * / 0 # 0 3 # # 0 # 3 2 # 3 0 # 0 # # 3 # # 3 0 a 3 # # # # # # # # # # # # # # a # # # # # a # # # # # / / # # # / * * * + + + + + + & & & + ; , , , ! ; = , = ",
"b.0 a a a a a a a a 0 0 0 0 a 0 0 0 # # # 0 2 2 3 2 2 3 3 3 3 5 3 3 3 5 5 3 3 3 3 a a a 3 3 a 3 a 0 / 3 0 a # # 0 # # # 0 # a 3 0 # 2 $ # # # # 2 # # % + # # % # # # # % # # # # + + $ $ 2 2 2 $ & & # & # $ $ $ $ & $ $ # # # # $ $ $ ; # $ ; ; # $ # # $ $ ; $ $ # $ $ $ @ $ $ $ r $ - $ r # $ # # $ $ $ # $ $ # & $ $ $ $ $ - - - > Z Z Z Z 2.}.}.1.Z {.o.i i i i o././.Z 3.1.3.0.4.3.3.1.1.1.3.1.4.0.4.4.0.0.0.0.0.0.0.k.k.0.0.3.}.<.,././.,.~.h h '.i i i '.h ,.2.2.1.1.}.}.}.}.}.}.[.[././.[.}.Z }.}.}.}.l.l.}.[.[.1.0.0.6.2.{.i .. .` #.#.#.+.&.&._._._.+.+.+._._._._._._._._._._._._._._._.h._._.+._._.^.'.9 f f x f f 9 7 4 4 4 4 9 5 8 7 4 6 4 4 4 a 3 3 3 3 3 0 3 # # 0 2 # 3 # 0 3 0 # 3 # # # 0 # 0 # 3 # 0 0 # # # a a # # # a a a a # a # # # / # # # # + * # + + # + + $ & + + ; = = = , + + + + ",
"b.% 3 # 0 a a a a 0 0 0 0 0 3 0 0 0 0 0 0 2 2 2 2 2 2 3 3 3 3 4 4 4 5 3 a a 3 3 3 3 4 a 3 3 # a a a # 3 a a 3 0 # a # # 0 # a # # # % # # % # # % # # # # % # # # # # # # # 2 % $ % % # + 2 # # $ # $ # $ $ # $ $ $ & & $ # ; $ & & $ $ ; ; $ F $ ; ; $ # $ $ ; $ # $ F $ $ @ $ $ $ $ # + $ @ @ $ # # $ $ $ # $ $ # # $ $ $ $ $ - - - - d d Z Z <.<.Z <.{.o.i @.o.Y Y o.{./.,.<.Z Z Z 3.1.2.}.Z 1.3.1.4.0.4.4.0.0.0.0.0.0.0.k.k.0.0.3.1.<.,./.~.,.~.h h '.i i i h w <.2.2.1.}.}.}.}.}.}.[.[.[.[./.[.}.}.[.}.}.}.4.l.}.[.[.4.0.0.4.1.<.{.@. . .` #.&.#.#.&.&._._._._.+._._._._._.&._._.&.&._._.&._._.h.&.h.&.&._.^.9.w f 9 9 9 f f 5 a 4 f a 4 5 7 7 4 4 4 3 3 a 0 0 3 3 3 3 3 2 3 2 0 # # # # # # # 3 # # # # # # # # # # # # # a a a a a 0 3 a 3 a # a # # / # # # # # # # # # + # + + + + + & & + = ) ) = , + + ",
"b.d % 2 0 0 0 0 0 a a 3 0 0 3 3 a a 0 0 2 2 2 2 3 3 2 3 3 3 3 4 4 3 3 3 a 4 5 3 a 3 5 3 3 3 a a a a 3 a 0 # 3 3 # 3 0 # 0 a # # # # % % # % % # # # % # # 3 # # # + # # % # 2 # # % % # + $ + # $ $ F $ & # # # # # # $ $ & & $ ; = # $ $ $ $ F $ ; $ $ ; ; ; ; $ $ $ @ $ ; r # # @ $ $ $ F $ r $ $ $ $ $ F $ $ $ $ $ $ # $ $ $ $ d - - d d 2.<.,.,./.~.o.@.@.@.o.~.~.o.o.{./.{.,././.<.<.<.}.}.1.1.3.3.4.4.4.0.0.4.4.0.0.0.0.0.0.0.4.3.}.<.<.,.,.~.h h '.'.i i h ,.2.2.Z 1.}.}.}.}.}.[./.[.[.[.[.}.1.}.}.}.}.}.}.}.}.[.}.4.4.3.1.2.2.,.'. . .` #.&.&.#.#.#.#._._._._._._._._._.&._._.&.&._.&.&._._.h.&.:.:.&._.^.9.x x x x x x f f 0 4 f a 4 5 4 a a 3 3 4 4 4 3 3 3 3 3 # # 0 3 # 2 3 3 # # # # # # # # # # # # # # # # # a 3 a a a a a # a # 0 0 # a # # / # # # / # # * # * + # $ # $ & + & & + & + + + + + $ ",
"b.% 3 2 3 0 0 a 0 a 0 0 0 0 a 0 0 0 0 0 3 3 2 2 2 2 2 3 3 3 4 4 4 5 3 5 5 5 5 5 3 3 3 a a a # a # a 3 # 3 # # 0 # 3 a # a a # a # # % 2 # # 2 # # # 3 % $ 3 # # # # # # % # # # # # # % $ $ $ 2 $ $ $ $ $ $ $ # # # & & & & $ $ & ; $ ; ; $ $ & & $ $ ; ; $ $ ; # $ $ F # # n $ # @ + + $ @ # @ $ r $ $ $ $ $ e @ $ $ $ # + # % $ - - - Z d Z d ,./.o.o.Y @.@.Y o.o.o.o.o.~.,.,././././.,.,.<.<.[.1.3.3.3.4.4.4.4.4.4.0.0.0.0.0.0.0.3.1.}.<.,././.~.~.h h h '.i h ,.<.Z Z }.}.}.}.}.[.o.o.o./.}.[.}.}.}.}.}.}.}.}.}.}.}.}.4.0.4.3.}.Z ,.~.i  .` #.#.&.&.&.#.&.&._._._._._._.&._._.&._._.&.&.&.&.&.:.h.h.&.:.:._.^.9.w x x x x f 5 7 5 5 4 4 4 9 4 4 a 3 a a a a a 3 3 3 3 3 3 3 0 3 0 # 0 # # 2 # # # # # # # # 3 # # 3 # 0 3 3 a a a 3 a # # # a a # 0 # # # # # # # # / # / * + # # # + + + + + & 2 & 0 0 & $ 2 ",
"J @ 3 % 3 a a a a a 0 0 a a a 0 0 0 0 # 3 2 2 3 3 3 2 3 3 0 3 4 4 3 a 5 3 3 5 5 5 5 3 a a a a a a 0 # 0 3 # # # # # # 0 # # # 3 3 % # % % # % # # % % % % % # # # # # # % # # # $ # # % % % $ $ # $ & $ $ $ # & # # & & & $ $ # $ $ $ ; & $ $ $ $ # # - ; $ $ # # $ $ @ $ $ @ $ + @ $ & $ $ $ @ F $ $ $ @ $ $ $ $ ; # $ F # $ $ # # d - - d d d ,./.o.Y Y @.@.~.~.~.~.~./././.,./././././././.<.<.1.3.1.3.4.4.4.0.0.0.0.0.0.0.0.0.4.4.1.1.}.,.{.~.Y h ~.h h '.i h ,.2.1.1.1.1.}.}.l.[.o.o.o.[.[.[.}.l.}.}.}.}.}.1.1.}.[.[.4.4.4.4.}.1.<.{.@. . . .&.&.&.&.#.&.&._._.&._.+.&.&._.&.:.&._.&.&.&.&.:.h.h.h.:.h.h.:.^.9.9 x x 9 f f f f 4 4 4 5 5 4 4 4 3 4 4 4 4 0 a 0 0 3 3 3 3 3 3 3 0 # # # # # # # # # # # # a a a a 3 # a # # # # a a a a a a a 0 # # a 0 # # # # # # / # # # # + + + + + + + + & 0 0 0 $ 0 0 @ ",
"b.% % 3 3 0 0 0 a 3 a 3 a a 3 0 3 3 0 0 3 3 3 3 2 2 2 3 3 3 3 3 3 3 3 5 3 a 3 5 5 5 a 3 3 a a a a # # a # # 3 3 3 # # # # # # # # # # # % % % % % # # % # = # 2 # # # # # # # + # % % % $ $ # $ $ # $ $ $ # & # ; # $ & # $ $ $ $ $ $ $ $ F $ - # $ # - ; # $ # $ F # F e $ $ $ # k $ + # $ $ F F $ $ $ F $ $ $ $ $ $ $ $ # $ $ # # = - - { d d ,.~.Y @.o.o.o.~.~.~./.~././././.{./.,.,././.<.<.<.Z 1.}.1.3.3.4.0.0.0.0.0.0.0.0.0.0.0.3.1.3.Z /.v ~.~.{.h h '.'.h ,.<.2.3.1.}.}.}.4.}./.o.o.[.[.[.}.l.l.}.}.}.}.1.1.}.}.}.4.4.4.0.3.1.<.{.h .. . . .&.&.&.&.&._._._.&._._.&.&._.&.:.&.&.&.&.&.&.h.h._.h.&.&.:.^.m 9.x / x 9 x x a a a a f 4 4 0 3 4 4 4 4 3 3 0 3 3 3 3 0 3 # 3 # 3 # 3 3 3 # # 0 3 a a 0 # 3 3 a a 3 3 # 3 3 # # a a a # a # a / / # # a 0 # # # # 0 / * / / + # + # # + 0 + = + 2 2 @ n @ n @ @ ",
"k r # 3 3 # 0 a a 3 a 3 0 3 3 0 3 3 # a 3 3 3 3 2 2 3 3 3 3 3 3 3 3 5 4 3 a a 4 4 4 a 3 4 a a a a # 0 3 0 # % % % # # 0 0 0 # # 0 0 # 3 % % 3 % # # # % # 3 % % % % # # # 3 % # # % 2 $ # $ # $ # # $ $ # # & ; & $ # # # # $ $ $ - $ $ ; $ F $ - = $ $ # # # $ $ F # $ r $ $ $ $ F # ; $ $ $ F $ $ $ $ $ $ F $ $ $ @ # $ $ $ # $ # - d d d v ~./.,.~.o./.{.{./.~.{.~.~././.~.,.Z ,.Z Z /.<.Z <.<.Z 1.}.1.4.4.4.0.0.0.0.0.0.0.0.0.0.k.3.1.}.Z ,./.{.~.h h '.'.h w ,.Z 2.1.1.1.3.}.}.[.o.o.o.[.[.[.[.[.}.}.}.}.1.1.1.l.1.l.4.0.4.0.4.3.1./.h @. . . .&.&.&.&.&.&._.&.&._._._._.&.&.&.:.h.&.h.h.:.h.h._.h.&.&.h.^.m p.x / f / x x x x 0 a a 0 / # 0 0 3 a 0 0 2 2 3 3 3 # # # # * # a # 0 0 # 0 # 3 3 3 3 3 3 3 5 0 # # a 0 3 3 0 0 a a a # # # a / # a # # 0 # # # # # / / # # 0 2 2 l 3 # @ @ 0 @ @ @ 2 0 l l l n ",
"k r $ % d # 3 a 3 3 # 0 0 3 3 # # # # a 3 2 3 3 3 3 3 2 # 3 3 a 3 3 3 a 4 5 a 3 3 3 a a a a a 3 a 0 0 a a 0 # # d # # 0 0 # # 0 0 d # # # # d # # # # # % % # # # % % # # 3 2 2 2 # 2 $ # $ # # # % 2 # + $ @ $ # # # # # # # $ $ # $ $ ; Q $ F $ $ $ $ # - $ $ # $ $ $ $ # $ $ @ k @ $ $ $ # # # $ $ # $ F $ # $ ; & # $ $ $ # $ # # # % % r v /.,.,.,.<.<.<.Z <./.,.,.,./././.,.,.,.,././.<.[.<.}.1.1.3.4.0.0.0.0.0.0.0.0.0.k.0.0.0.3.1.2.Z ,./.~.~.h Y i Y ~./.2.2.2.1.1.1.3.3.3.}.o.@.o.[.}.[.}.}.[.}.}.[.}.}.}.}.1.4.4.0.4.0.3.1.1.<.{.@. . . .&.&.&.&.&.&.&.&.&._._._._.&.&.&.h.h.&.h.h.h.h.^.:.h.&.:.^.:.m w x z / * / * / / / / * / / / / * # # # # 0 # # # # * # # # # # # / # # # % 0 3 3 5 3 a 3 a # # 0 3 3 # # 0 # 0 a a 0 # # # # / # a # / # / / 0 0 / / / 0 0 3 2 2 4 3 2 l n l n n @ @ @ l 6 7 7 ",
"k $ % % d 3 3 # 3 3 0 0 3 a # # # # a # # 3 2 3 2 % 3 3 3 3 3 a a a a a 3 5 a a 4 a 3 3 3 5 3 3 3 3 a # 0 0 0 0 0 0 0 # # 0 a 0 0 # d d % # # # # # # d # % # # # # % 3 # # % # # # % # % $ # 2 % % % + + # $ $ # + + + $ $ # # ; ; $ F $ $ F F ; $ - # # # $ $ $ $ F F $ @ @ r $ $ # # $ $ # # # # $ $ $ @ $ $ $ $ $ F $ $ $ $ $ $ $ # % d { Z Z 3.6.q.q.q.0.6.6.2.,././.{.{././.{.~.{.,.<.<.<.<.}.}.3.1.3.0.0.0.k.0.0.0.0.0.k.0.4.4.4.3.3.Z ,./.o.o.~.~.Y i h v <.2.2.1.1.1.Z }.4.Z o.@.o.[.[.[.}.}.[.[.[.[.}.}.}.[.4.0.0.k.0.4.4.1.}.<.{.h @. . . .&.:.&.&.&.&.&.&._._._._.&.&.&.&.h.&.&.:.^.h.&._.:.:.:.:.:.m x x * * * ( ( / * / ' ( ( * * * * * # # # # # * * # * * * ) # # / / # # # d # # # 0 # # 0 # # 0 # 3 3 # # # / / / / # # # / / * / / # # a # # # # 0 0 0 # # 0 3 3 3 l l l l n o 7 6 8 8 7 7 7 6 ",
"o $ r @ 3 3 3 a 3 3 3 3 3 # # a 3 a # # # 2 % 2 2 # 3 3 3 a a a a 3 3 5 3 4 a 3 5 a 3 3 4 a 0 a a a a 0 a a a 0 0 0 0 # # a 3 0 # # 0 3 % # # # % 3 # # # % 3 # # # # 2 # + % % $ % # # 2 2 $ 2 2 $ $ $ # $ # # $ $ ; # $ $ $ # ; ; $ F ; $ $ $ ; - - $ $ # # $ # $ F F $ $ $ $ $ # # $ $ $ $ # + # F F $ $ ; $ F F $ @ # # $ F $ $ $ $ % d { Z Z ] 6.r.m.r.r.q.6.2.~.@.@.@.i Y o.o.o.{.,.Z <.<.<.}.}.3.1.3.0.0.0.0.0.0.0.0.0.0.0.0.4.4.3.3.}././.o.o.~.~.Y Y ~./.<.2.1.1.1.1.Z }.Z o.@.o.{./.o.o.o.[.{.[.[.[.}.}.}.}.0.k.0.k.0.0.4.3.1.,.~.h @. . .&.&.&.&.&.#.&.:.&.&.&._._._.&.&.&.&.&.&.h.^.^.h.&.:.^.:.^...m x / / / * ( ( * * * ' ) ( ' ( * * * + # * = + ' ( * ( ) ) ) * ' * * * # / - # # - # # # # / # # # / # # # # # / ' ' / # # * ' ' / / # # 0 # # a a a a 4 6 4 4 7 l 6 8 7 7 7 7 7 7 6 8 7 6 8 7 6 ",
"o r r % 3 3 3 3 3 a 2 2 3 3 3 3 # # # % % % 2 2 3 3 2 # a a a 3 a a a a a 3 3 a 3 3 3 4 5 a a 5 # 0 a a a a # # # 0 0 # # # # # # # # # # # # d d # # % d # % # % % 3 % # # # % 2 # # # % 2 % # $ # $ $ # # # # # $ $ # # + # $ # - $ $ ; F $ - F $ # # - - $ $ - - $ $ $ $ $ $ $ $ $ @ $ ; # # - $ $ $ $ # ; $ F $ # $ # $ $ $ $ # # $ % % d Z 2.3.0.q.r.q.q.0.6.1.,.o.o.o.@.@.Y o.o.,.Z Z <.<.1.}.1.3.1.3.0.0.0.0.0.0.0.0.0.0.0.0.4.4.3.3.1.,./.o.~./.~.Y h v ,.2.1.3.1.1.1.}.}.[.o.@.o.o.o.o.o.{.[./.[.[.}.}.}.}.l.0.0.0.0.4.0.0.3.3./.o.o.i @.......:.:.^.:.:.:.&.&.&._._._._._.&.&.&.&.&.:.:.^.&.&.:.h.^.^.m x / / ( ( ( * ( ( ( ) ) ) ) ) ) * ' ' = ' ) ) ) ( * # # # # # * # / ' # * - # # d # # # # # # / / / # / # # # / * * # # / / / / / / # / # # # a 4 4 4 4 4 6 8 8 l 7 7 n 8 7 n A o 8 A 8 7 7 6 7 ",
"L r r % % % 0 3 3 # # # % % 2 % # % $ % % 2 3 % # 3 % # 3 3 a a a 3 a a a 3 3 3 3 3 3 a a a 3 5 3 a a 3 a 0 0 # # 0 0 0 # / / # a 3 # # # % # % # # % % % # # 2 % % 3 2 2 2 # # % % # + # % $ # 2 + # $ $ $ # # # # $ $ # + + # $ + $ - $ $ - - $ $ - # # - $ $ # # $ # - $ $ $ $ $ $ @ $ + # $ $ $ # # $ $ $ $ $ $ $ $ # $ $ # $ % $ # # % d ] 3.0.r.r.r.q.0.0.0.6.3.2.<.,.{.o.Y o.{.<.Z <.<.}.3.1.3.4.3.4.0.0.0.k.k.k.k.0.0.0.k.0.4.4.3.1.2.<.,./.~.,.{.Y ~.{.,.,.1.3.3.1.1.}.}.}.{.o.@.@.o.[.}.l.l.}.}.}.}.}.}.l.4.0.0.0.0.4.0.4.3.3./.o.o.@.@.......&. .&.&.&.&.&.&.&.&.&.&._.&.&.&.:.:.&.&.&.^.^.:.:.h.&.:.a.x x / * ( ( ( * ( ~ ~ ) ) ) ) ' ' ) ) ' ' ! ! ) ' ) * ' * # * * # # # d # 0 % 0 d # * / # # # * / / * * / / * / / / # / * / / # 0 0 a # 0 3 4 5 5 7 6 4 4 4 6 6 7 8 8 n 8 8 8 8 8 8 8 8 8 6 l 8 ",
"L r r @ 3 3 0 # a 3 2 3 % # # % 2 2 % % % % 2 2 # # 3 3 3 a 0 a a 3 3 a 3 a a 4 4 a a a a a 3 3 3 3 3 3 3 a a 0 / / 0 a 0 # # # a 3 % # # % # % 3 # # # % # # % # # # # $ # # # $ 3 % # 2 2 $ # $ # # $ @ $ # # $ $ # $ $ # - # # # $ + # $ $ = - # # # $ - $ $ $ - $ $ # r r $ $ $ $ $ $ $ $ $ $ $ $ $ # $ $ $ ; $ @ F $ $ # # @ % $ # # d Z 2.6.0.q.m.m.k.q.q.0.3.6.6.1.2.2.,.o.o./.,./.,.<.1.}.1.3.3.3.3.0.0.0.k.k.k.k.0.0.0.0.k.4.3.3.3.}.,././.o.~.~.~.~.~./.,.1.3.3.3.1.}.}.}.[.o.o./.[.1.l.4.l.}.}.[.}.}.l.4.0.0.0.0.4.4.0.4.4.s.[.~.~.Y i i ....^.^...:.&.&.&.&.&.&.&.&._.&.&.&.^.h.&.&.&.h.^.^.^.h._.:.a.x / * ( ( ( ( ' ' ~ ! ) ) ' ' ' ' ' ! ' ' ) ! ' ' ) ) ) ) ) * * * * * ' ' d / * * * * - * ) ) ) ~ ' * ' * ' ' # / * / * * / 0 0 a 3 5 3 4 6 7 7 7 6 7 8 7 8 8 l 7 8 A 8 A A 8 A A 7 6 o 7 6 l 7 ",
"L r r @ % 3 3 3 3 3 3 3 2 2 % # % 2 2 2 2 % 2 3 3 # 3 3 # # 3 a a a a # a a 0 3 3 3 3 5 5 4 4 3 3 3 3 3 3 0 # / / 0 0 0 / / / # # # # # = # # # % % # # # # # # # # # + # # $ $ # 2 # # % 2 2 % % $ # # # # # $ # # # $ # + + - - # + = - $ $ + # # # # # - - $ $ - $ $ $ k @ $ $ $ $ @ $ $ $ $ $ F $ $ ; # $ $ ; $ $ $ ; $ $ # $ # # # d Z ] 3.6.4.4.k.k.0.0.0.0.0.6.6.3.2.Z {.~.,.<.,.<.<.<.1.}.1.3.3.3.3.4.0.0.k.k.0.k.0.0.0.0.0.4.4.4.3.1.Z ,./.o.~.~.~.~.~.,.Z 2.3.3.3.1.}.}.}.[.}.[.[.[.l.l.l.}.}.}.}.}.l.4.0.0.0.0.4.4.4.3.0.3.3.[./.{.o.i i ....m m ^.^.:.&.&.&.:.&.&.&.+.+.&.&.^.h.^.^.&.:.h.h.h.^.h.^.9 x |.~ ( ( ( ( ) ) ! ) ' ' ' ' ' ' ! ! ! ) ) ) ' * * * + + = # = ' * * { ' # ' - ' = - * ' ' * ) ~ ) * ( ' * ' ' * * # # 0 0 3 3 4 4 6 6 6 6 6 5 7 4 6 8 8 8 8 8 8 8 8 8 A A 7 8 7 o 7 6 n l 4 3 ",
"L k r @ % % 3 3 3 3 3 2 % 3 3 # % 2 2 2 2 @ 3 3 2 % 3 3 0 3 3 # a 3 3 a 3 3 3 3 3 5 3 3 3 a 3 3 # 0 3 3 3 0 / / 0 0 0 # / # # # # # % d = # % # % % # # # # % # # # $ # # + # # + % 2 2 % # $ # $ $ # $ $ $ $ $ $ % % % # + # # # # - # - # - # # $ # # $ $ - # # $ $ # # % $ $ $ $ $ @ $ $ $ $ $ $ # # $ $ - F r $ # $ # $ $ $ # + $ d d - ] 6.0.4.0.0.0.0.0.4.0.4.0.0.3.Z <.{.~././.<.[.[.<.Z 1.1.3.3.3.4.4.0.0.0.k.k.k.k.0.0.0.4.4.4.3.}.}.<.<.,.~.o.Y i ~.{.,.Z 1.3.3.1.1.}.}.}.}.}.[.[.[.l.l.}.}.}.}.l.l.4.4.0.4.4.0.4.3.4.3.3.3.1.}.[.~.o.i i ...... . .&.&.&.+.&.&.&.&.+.+.+.&.&.^.:.^.^.h.h.^.^.h.^.&.^.9 x |.( ' ( ( ) ) ) ' ' ' ' ' ) ' ) ! ) ! ) ' ' ' ' ' ' ' ) ) # * * # # * # d * % * ' ' ' ' ' ) ' + ) ( * * * * # # # 0 3 3 3 4 4 4 4 6 6 6 6 6 4 8 8 7 8 8 7 7 8 8 8 8 8 8 8 7 8 7 n n @ 2 4 3 0 ",
"L r r @ @ % % 3 # # 3 2 % % % % 3 @ 2 $ 2 @ 3 2 2 3 3 3 3 3 # 0 3 3 3 3 3 3 3 3 3 3 3 3 3 a 3 3 # 3 3 3 3 a a a 0 0 # # 0 0 # # d # % % % # # $ % % % % # = # % # + # # + + 3 2 + # % % # + # $ # # # $ @ $ + # $ % # # # # # + - # - + # % - - - $ # - + # $ $ $ $ # - # % % @ k $ # # # $ $ $ $ # $ $ @ $ # # @ # $ $ $ $ F $ # $ $ d - - ] 6.0.k.m.m.0.0.0.4.0.4.0.4.6.1.1.}./.{.{./.[.[.[.[.}.1.3.3.3.4.4.0.0.k.k.k.k.k.k.0.0.0.0.0.3.}.}.,.,./.~.o.Y o.~./.,.2.3.3.3.3.3.}.[.[.}.[.[.[.[.}.}.}.}.l.l.4.4.4.4.4.4.4.4.1.4.4.3.3.4.3.3.[.~.o.Y i ........d.^.&.&.&.&.&.&.&.&.&.&.&.&.:.:.:.^.h.&.^.^.h.^._.^.9 t.|.~ ( ( ) ) ' ' ' ' ' = ' ! ' ' ! ' ' ' ' ' ' ' ' ' ) ~ ~ = ! ) # ' ' ' ) ! ' ' ' ' ' ' ' ! ! * * * # * # 3 a a a 3 4 l 3 4 4 4 4 6 7 7 7 8 8 7 8 6 7 8 7 7 6 7 6 8 6 l 7 6 6 n 4 2 3 3 0 * * ",
"L r @ r @ 3 # % % # % 2 2 $ % 3 3 3 2 2 @ 2 3 3 3 3 2 3 3 # 2 3 3 3 a 3 3 3 a 3 3 a 3 3 3 3 3 3 3 3 3 3 0 0 a 0 # # 0 0 # # # # # # % % 3 % # # $ 2 % % % # % 2 % # 3 # = + $ # = = % 2 # # 2 # $ % $ $ $ # # $ # # $ $ # + + + - - # - # d - d # # - $ $ $ # - $ % $ # # $ $ $ $ $ $ $ $ $ # # $ $ F $ $ $ $ + $ + $ $ F $ F $ # # - d - 2.Z 3.0.q.m.k.k.0.0.0.0.0.0.4.3.4.3.}.<././.[.[.[.<.Z }.1.1.3.4.4.0.0.0.k.k.k.0.k.k.0.0.0.4.4.3.3.3.Z <./.o.o.o.~.~./.<.3.3.3.3.}.}.}.}.}.[.[.[.}.}.}.[.l.4.4.4.4.4.0.4.4.4.1.4.4.4.3.3.3.3.1.3.}.[.~.Y i i  .....&.&.&.&.&.&.&.&.&.&.&.&.&.&.&.&.&.:.h.^.^.^.h.h._.^.9 t.|.~ ( * ' ) ' ' = ' = = ! ! ' ' ' ' ' ' ' ' = = ' * * ) ' + ) ' ' ! ' ! { ' ' ' ' ' = = + + + + # 2 3 3 a 3 3 3 4 4 6 6 4 6 6 7 6 6 6 6 6 8 7 3 7 6 6 6 6 l 3 l 3 l l l 6 l 2 0 2 0 # 0 + * * ",
"L r k $ % 3 3 3 2 % % 2 3 % % @ % % @ @ 2 3 @ 3 2 2 2 3 3 % 3 3 # 3 a a 3 3 # 3 3 a 3 3 3 5 3 3 3 3 0 0 3 3 # # # # 0 0 # # # # % % % % % % % # % 2 % % % $ % % % % 2 # # 2 % # + + 2 % = + % # % 2 $ # # $ $ $ # # $ $ # + + # # - - # d d - - # # $ # $ $ # - # # # # # - + - # r r $ $ $ # # $ # F ; + $ F ; $ # $ # $ # # # $ # - d Z ] 2.6.r.m.m.m.m.k.k.0.0.0.4.3.3.3.3.Z [.[.[.[.[.[.[.}.}.3.1.3.4.4.0.0.0.k.k.k.0.0.k.0.0.0.4.3.3.3.3.}.Z ,.o.o.o.o.~.,.Z 2.3.3.4.3.}.}.}.[.[.[.[.}.}.}.}.l.4.4.4.4.l.4.l.l.1.}.1.3.3.1.4.4.3.}.3.4.Z /.Y i i .... .` &.&.&.&.&.&.&.&.&.&.&.&.&.&.&.&.&.&.^.&.&.h.h._.!.9 t.|.( ' * = ' = = = = = = ! ! ' ' = ' ' ' ' ' + + ' ' ) ) ' ' ' = ' ' - { = = = = = = # # + # 2 2 0 0 4 4 3 3 3 4 6 6 6 7 l 7 7 8 8 8 6 l 4 6 6 3 6 6 l l l 3 3 6 3 6 8 3 3 4 3 0 0 0 0 0 + * * ",
"L r k $ % 3 3 3 2 2 3 2 3 2 % 3 2 3 k 2 $ 3 3 % 2 3 3 3 3 % 2 2 3 3 a a 3 3 a 3 3 3 5 3 a 3 3 3 3 3 a 3 3 3 % # # % % # # # 3 3 % % # # # % 3 % # # # % % $ # + $ % % % # # 2 # + $ 2 # # # $ % # # # $ $ $ # # # # + + + # # + # # - d d - # - % $ # = - # $ % $ # # $ % $ $ @ @ @ r # # # # # # $ $ # $ @ $ # $ $ # $ $ $ # $ r r # d ] 6.6.r.m.n.m.u.u.n.m.k.0.0.0.0.4.3.3.1.<.[.[.[.Z Z Z }.1.3.3.3.4.4.0.0.0.0.k.k.0.0.k.0.0.0.4.4.3.3.4.3.3.1.<././.~./.Z Z 2.3.3.3.4.}.3.}.}.[.}.[.}.}.1.4.4.0.k.0.4.}.}.}.}.}.}.}.1.1.1.3.1.1.1.3.3.Z [.{.Y i i .... .&.&.&.&.&.&.&.&.&.&.&.&.&.#.#.&.&.&.&.#.&.^.^.:.m 9 |.B ( ) * = , = = = = = = = = ' ' + + ' * + * + + = ' ) ' ' ! ' = ' ' = ! = = ' = = + + # % % 2 3 4 3 3 4 4 4 4 4 7 7 6 6 6 6 l 6 6 6 l 4 4 6 l 3 3 3 3 3 3 3 3 3 3 3 3 2 2 3 3 4 0 2 0 / * * ( ",
"L r r $ % % % 3 % % 3 % 2 2 $ % 3 @ @ $ 2 @ % % 3 3 % 3 3 % % 2 3 3 3 3 3 3 3 6 3 3 3 3 a # # 3 # 0 3 3 3 % d d % 3 % d # # 3 3 % % % # $ # % 3 # + # % % % % % # # $ % # # 2 # # # $ # # 2 2 3 % $ $ 3 2 $ # # # # # + # # # + - # # d # ' - # d # - $ @ - - # $ % # % @ $ $ % $ $ @ @ $ $ $ # # $ $ $ # $ - $ # # # $ # $ $ $ # r - 2.] q.r.0.r.m.m.u.v.n.n.m.m.4.k.k.4.3.3.1.Z [.[.Z [.Z }.}.}.3.3.3.4.4.4.0.0.0.k.k.0.0.k.0.0.4.4.3.}.}.3.3.3.3.1.2.Z ,.Z 2.1.1.3.3.3.1.}.4.}.}.[.[.[.}.4.4.4.4.0.0.4.}.[.[.}.}.}.}.}.}.}.1.1.3.3.3.3.3.}.Z <.~.Y j  ... .&.&.&.&.+.&.&.&.&.&.&.&.&.#.#.&.&.&.&.:.:.h.^.:.m 9 t.|.( ) ' = , = = = = ' ' + + ' ' ' ' ' + # + ' ' = ' ' + ' ! ' = ' ' ' ' = = # + = $ @ 2 @ @ 3 l 4 4 6 4 3 4 4 4 6 7 6 7 6 l 4 l 4 4 3 3 3 4 4 3 3 @ 3 3 3 3 6 2 2 2 0 3 3 3 3 3 0 0 * ( / # * ",
"L r r $ % % % 3 % % 3 2 2 3 % 2 3 2 $ 2 @ @ 2 2 3 2 # 2 3 2 2 2 2 2 3 3 3 a 3 5 3 3 3 3 3 3 3 3 3 0 % 3 3 % # # % % % % # % # # % # % % 3 % $ 3 % % 2 % $ 3 3 3 # # 2 2 # % % % 2 % 3 2 # 2 $ $ % 3 2 $ # # % % # # # # + # # + - - - = d % 0 # - # - $ $ # # # - - - r @ # # # - # $ % % @ @ $ $ # # # # # ; $ # # $ $ - $ $ - + % { ] 6.r.r.r.m.m.n.u.u.m.m.m.k.0.k.0.4.4.1.}.}.Z Z }.}.}.Z }.}.3.3.3.4.4.4.0.0.0.k.k.0.0.k.0.0.0.4.3.3.3.3.3.3.3.1.1.1.1.3.3.1.1.3.1.4.4.}.3.}.}.[.}.}.}.4.4.0.4.4.4.1.}.[.[.}.}.}.}.}.1.}.3.3.4.4.}.}.3.8.Z [.~.Y i j .... .&.#.#.#.&.&.&.&.&.&.&.&.&.&.&.&.&.&.&.:.&.:.^.9.p./ ( ( ' * = , + + = = = = # # + * * * * + # # + + + = = + ' = = = ' ' = = = = % 2 2 l o l @ @ 3 l 4 6 7 4 4 6 6 6 6 7 6 7 7 l l 6 4 4 4 4 4 4 4 4 3 @ 3 3 3 # 3 3 3 3 3 3 3 4 3 3 4 4 0 / 0 0 0 ",
"L k r % r % % % % 2 2 3 3 2 3 @ 3 2 2 2 $ 2 3 3 2 2 3 3 2 2 2 2 2 l 3 3 6 3 a 3 3 a 3 3 3 3 3 3 3 3 3 % % % 3 3 % d d % % # # % % % # 3 3 % % # # % % % % % % # % # 3 @ # % 2 3 2 # % # % % # # % % $ % $ $ $ $ # # # # + $ # # # # % d - # - # % # - $ $ # # $ $ # - $ # # @ k $ $ F # # e F $ $ $ - # $ - ; $ # # $ # + # # - % % z 2.] r.r.m.m.m.u.n.m.m.m.m.k.k.k.0.1.1.1.}.}.Z }.}.Z }.}.1.3.3.3.3.4.4.4.0.0.0.k.k.0.0.0.0.4.4.4.3.3.3.3.3.3.3.1.1.1.1.1.3.1.3.4.3.4.4.4.4.}.}.}.}.}.}.}.1.0.4.4.}.[.[.[.[.[.}.1.}.}.1.1.4.1.3.4.}.}.}.Z [.[.~.o.Y j  ... .` ` +.#.+.&.&.&.+.#.&.&.#.&.&.&.&.&.&.^.:...^.a.x x _ ) # 0 + ; = = + + # # # # # 0 # # # # # 2 0 # # # # + + % # + + + % % % % 3 @ @ @ 3 @ @ l l 6 4 4 6 7 7 6 6 6 7 6 l 6 l 4 4 6 4 4 6 7 6 5 6 4 3 3 3 3 6 3 6 6 6 3 3 6 3 6 3 3 3 0 3 5 a 0 a ",
"L r r % % % % % % 3 3 3 3 2 @ @ 2 2 2 $ 2 @ @ 3 2 % 3 2 % 3 2 2 2 6 3 3 # 3 3 3 3 3 3 3 3 3 3 3 3 3 % % % % 3 3 3 # # 3 # # # % % % # 2 3 $ % % $ % % # # # # % # # 2 3 # % % 2 % # % # % $ # # % $ 2 $ 2 $ % % $ $ # $ + 2 # # # # % # # % % # % $ $ % $ # # # # # # $ # $ @ # $ $ F # # @ # $ $ $ - # $ # + # # # % - - # - - % % d 2.6.r.r.m.r.m.m.m.n.n.m.m.m.q.0.0.1.4.1.}.Z Z }.}.[.Z }.1.}.3.3.1.4.4.4.0.0.0.0.0.0.0.0.0.4.4.0.3.3.3.3.3.3.3.3.3.1.1.1.3.1.1.3.1.4.4.4.4.3.4.4.}.}.4.}.4.4.}.}.}.[.{.[.1.1.<.1.1.1.3.1.3.1.4.3.8.}.8.8.[.[./.o.Y i j j  . .` ` ` ` #.#.&.&.&.&.` #.&.` #.&.#.&.&.^.:.m 9 x x * 0 # ' # + + + # # + + 0 # 0 a 0 0 0 0 0 2 2 2 3 2 2 # # # + $ % # # 2 % 3 @ l o 8 o n l 8 8 7 4 8 7 4 6 4 6 7 7 6 6 6 4 4 4 4 5 4 4 3 a 8 7 3 3 3 3 3 3 3 5 4 3 3 3 3 4 6 3 7 4 4 3 a # a a ",
"L F r r % % 3 % % % 3 3 2 2 @ 3 2 2 2 $ 2 @ 2 2 2 # % 2 # 2 3 2 2 3 3 6 3 3 3 a 3 4 3 3 3 3 3 3 3 # # d % 0 0 0 a 0 0 0 # # # # % % # 2 2 $ % 3 % # # # # # % % % # # # # 2 # # # 2 3 # # # 2 % % 2 2 $ $ % $ + # # + + # + = # # # # # # % # # % % $ $ # # # # # $ $ @ # @ e # e $ F @ # @ @ # $ $ - $ r # - # # % % # # % d - d d 2.6.r.w.m.m.w.m.r.m.m.m.m.m.k.q.0.0.0.4.3.}.}.}.}.}.Z }.}.3.3.3.3.3.4.4.4.0.4.0.0.k.0.0.0.0.0.0.0.4.4.4.3.3.3.3.3.3.1.3.3.3.3.3.4.4.3.4.4.0.4.4.4.3.4.4.4.4.4.l.}.}.}.[.<.1.1.1.1.1.6.4.3.3.1.4.0.3.}.3.4.}.[.[.{.Y @.@.j  .` ` ` ` `  .&.&.` `  . . .&.&.&.&.&.&.&...!.a.x / / ( ( * * # # # # 0 # # + 0 / * # # 0 0 2 2 2 # 2 l 3 3 3 3 3 2 3 3 3 3 l 6 8 l 6 l 7 8 n l 8 7 7 7 8 4 4 4 4 4 6 6 6 7 8 7 7 4 4 5 a 4 a 0 4 0 3 4 5 4 4 3 3 3 3 3 3 3 3 3 3 0 a 3 3 4 4 a 5 0 ",
"L r r r $ # % % % % % % % 2 $ @ @ @ 2 $ 2 @ @ 3 @ 3 2 2 $ 2 3 3 3 3 3 4 3 3 3 a a 3 3 3 3 3 a 3 3 3 d d % 0 # 0 0 0 # # # # # % % % % 2 2 # # 2 3 % # # # # # % % % # % % % # # # 2 3 # # + # $ 2 % # 2 + % % 2 # # $ # % + $ + # # # # # # % # % % $ # # # # $ # # $ @ # F $ # $ $ $ @ # @ @ # # - + # $ $ # # # # % d d % d - % z ] 6.r.m.m.m.w.m.u.m.m.r.m.m.q.0.0.0.0.1.1.}.}.Z }.}.}.1.}.}.3.3.3.3.4.4.4.0.0.0.0.0.4.0.0.0.0.0.4.4.4.4.3.3.3.3.3.3.1.3.3.}.3.3.3.4.3.4.4.4.4.0.4.4.4.4.4.}.}.}.}.[.[.[.}.1.1.1.1.1.1.3.3.3.4.3.3.3.3.3.4.}.[.[./.o.i @. .`  . .j  .`  . ....... ... . . ...:.d.&...m 9 x x x x / * * # 0 0 * # 0 # # * a 0 0 3 0 3 3 3 0 2 2 3 3 3 3 3 3 4 3 2 3 l 6 l l 7 8 7 6 6 7 6 8 8 7 7 6 7 4 7 4 4 4 6 7 6 7 6 6 6 4 5 5 5 6 4 4 4 4 5 6 5 a a 0 0 3 4 4 4 4 3 3 3 3 4 5 4 5 4 a 7 5 ",
"b.r $ r % % % % % % 3 3 3 @ $ 2 2 2 e 2 2 @ @ 2 $ 2 $ $ 2 2 2 3 3 3 # 0 a 3 3 3 3 0 a 3 3 3 3 3 3 3 3 3 % % 0 a 0 # 0 # # # % 3 % # $ 2 @ $ # 2 3 $ # % 2 % % # # # % 2 % 2 % # # % % # % # # # # % + @ % 2 $ 2 $ 2 2 # 2 # 2 # % $ # # # # % % $ % $ # # # # $ # ; ; @ $ $ # $ # $ ; $ $ F $ $ # $ # # $ $ $ # - # d d d d d % 3 2.] 6.0.r.m.w.r.r.m.m.m.m.m.m.k.0.4.3.3.1.}.}.}.}.}.}.}.}.}.}.}.3.4.4.4.4.4.0.0.4.0.0.0.0.0.0.4.3.4.3.3.3.3.3.3.3.3.3.3.1.1.1.3.3.1.3.3.4.0.4.4.0.0.0.4.4.4.4.1.}.}.[.{.<.}.1.1.1.1.1.1.1.1.1.4.3.1.1.3.}.}.}.[.{.o.o.o.i j  . .`  . .i i ....'.m .. . . . .&.&.&.&.m 9.x x x x x x x 0 4 4 3 0 0 # 0 3 a 3 # 0 a 0 0 3 4 3 l 4 4 3 4 3 3 4 4 3 0 4 4 4 4 7 l l l l 7 6 4 l 6 6 6 6 4 4 5 4 4 4 6 7 7 7 7 7 7 5 4 4 5 5 4 5 5 5 5 5 5 5 5 5 4 3 3 3 3 3 3 3 4 4 4 4 4 4 4 3 4 5 ",
"k r % r % % % @ 3 3 @ 3 2 3 2 $ e e e @ 2 2 @ @ 2 2 $ 2 2 $ 2 3 3 3 3 a 3 3 3 3 4 3 0 a 0 3 3 3 3 3 3 3 3 3 3 3 3 0 0 0 # # % % % % # e @ $ % $ 2 % # # % # % 2 # # # % # # # % # # # # 2 % % # % 2 2 3 % % $ # % 2 # # $ + $ $ % % # # # # # # # $ % # # # # # # # $ F F $ ; F e F ; $ $ F $ F $ $ # # $ $ $ $ # % % % % d d d d 2.6.6.0.0.r.0.r.r.r.r.r.r.r.m.m.k.k.4.1.[.[.}.}.}.}.[.}.}.}.}.3.3.3.4.3.4.0.0.0.0.0.0.0.0.0.0.0.3.4.3.1.3.3.3.3.3.3.3.1.1.3.3.3.3.3.3.3.3.4.4.4.4.4.4.4.4.4.4.4.1.}.}.[.}.1.1.1.4.6.1.1.1.3.1.4.3.1.4.4.}.}.}.}.[.o.o.~.~.o.i Y Y h h {.w h h h '.i .. . . . .&.&...m 9 x x x x x x 0 / 0 a a 0 4 0 0 0 a a 3 6 3 3 3 4 7 a 4 7 4 4 6 4 4 4 4 4 4 4 4 4 4 7 4 4 6 3 4 4 4 4 4 3 4 5 0 a 7 7 4 4 4 6 4 7 7 7 6 4 4 4 5 5 4 4 4 a a a 5 5 5 3 3 4 5 4 4 4 4 4 4 3 3 4 3 a 4 4 a a ",
"k r r % r % # # # % % % $ @ @ 2 @ e $ e @ 2 @ @ 2 2 2 2 2 % # 3 3 3 6 0 3 3 3 3 3 3 3 3 a 3 3 3 3 3 % % 3 3 0 0 0 0 # # # # % % 2 2 $ e e $ # # $ 2 % # $ # % 3 # % # % % # # 2 2 # # % % # # % % % 2 # # # 2 % $ # + $ + # + + + # # # # # # # # # # # - # # # # $ F e F F ; F @ $ $ @ $ F e $ $ # - $ $ # - - # # # # # d d d 2.] 6.0.r.r.r.0.r.r.r.r.r.r.r.m.k.k.k.3.1.}.Z Z [.}.}.[.}.}.}.3.4.4.3.0.4.4.0.4.0.4.4.0.0.0.0.4.4.4.4.3.3.4.3.3.3.1.3.3.1.3.3.3.3.3.3.3.3.3.3.4.4.4.3.4.4.3.4.4.3.3.}.1.}.1.1.1.4.4.4.4.4.4.4.1.1.}.1.3.1.}.Z Z Z [./.o.o.~.~./.,./.,.,.v {.w w w h '.@... . .&.^.^.m 9 x x x x x x f f f a 9 7 f a 0 a a 4 0 0 3 3 4 a 0 4 a a 5 4 7 7 6 7 4 4 4 4 4 4 4 a 4 4 4 5 a 3 3 5 4 0 a 4 7 0 a 9 7 4 a 4 4 3 4 4 4 3 4 5 6 5 4 4 4 4 a a a 4 a a a a 4 3 # / / # a 3 3 3 3 3 a 0 # / 0 ",
"k r $ d r @ # # % 3 # # 3 @ e $ e 2 $ e @ 2 @ 2 # 2 2 2 2 2 % 2 3 # 4 # 3 3 0 # 2 3 3 3 3 3 2 3 3 3 % % 3 % # # # # # # % % % 3 @ @ $ $ $ $ $ # $ 2 $ $ % % 2 % = 2 # % 2 2 # # % % % % # + % % # $ $ # 3 % $ $ $ # $ 2 # 2 + # $ # # # # % # # # # $ # # % % # # $ $ F F $ $ F F # $ @ $ $ F $ $ - # $ $ - - # $ # # # - - # % - ] 6.0.r.0.0.0.0.0.r.0.r.0.0.0.0.0.4.3.3.}.[.1.}.}.}.}.}.}.8.3.}.4.3.0.4.4.4.0.0.0.0.0.4.0.4.4.4.3.3.3.3.3.3.3.3.1.3.3.3.3.3.}.3.3.3.3.0.4.3.4.4.4.4.4.4.4.4.4.1.}.}.4.1.1.1.3.1.1.6.6.1.1.3.1.1.1.3.}.}.}.}.}.[.[.[./.{.o.~.,.,./././././././.,.{.~.'.i m m ^.^.^.m 9 x x x f f f f f 7 9 7 8 5 4 4 4 4 4 4 4 4 a 4 4 4 9 5 f f 9 5 5 7 5 7 4 4 4 5 7 a 4 4 4 4 4 4 4 a 4 5 0 f 4 4 a f 4 4 a 4 4 l 3 3 l 4 4 6 4 4 4 3 a a 4 a 0 0 a a a / / / ' ( ' * / # # # # * / * / / # / ",
"o F r $ $ % % % 3 @ % $ $ $ $ $ $ 2 2 @ @ 2 @ @ 2 @ @ 2 3 2 # 2 3 # 3 # 3 3 # # 3 3 # 3 3 3 3 3 # % 3 3 3 3 3 3 0 0 0 % % % 3 3 2 $ F $ $ @ $ # $ 2 2 $ $ $ % % # # # % % % # # # # % % % % % % % # 3 2 2 2 # $ $ % 2 % $ $ $ 2 2 % # # % # # # # # % # # % % # # $ $ $ @ $ F F $ # $ $ @ $ $ @ $ F F $ # # # # $ # # % # - # % d ] 6.0.0.0.0.0.0.7.0.0.0.1.1.1.1.1.1.1.4.1.[.1.}.Z }.}.}.}.}.3.4.4.4.0.0.4.0.0.0.0.0.0.0.0.4.0.0.3.3.3.3.3.3.3.3.1.1.3.3.3.3.}.3.4.3.3.3.3.3.4.3.3.4.4.4.4.4.4.4.4.1.1.1.4.3.3.1.6.3.1.1.4.4.3.3.3.3.3.3.3.}.}.}.[.[.[.[.{.{.,.,.,./.,.,.<.,./.,.w {.i  . . ...d.9.m 9 x x x f a x f f 9 f 9 9 9 f 9 4 5 9 7 7 7 7 7 7 4 9 7 7 7 9 9 4 9 4 7 7 7 9 4 4 4 7 5 5 4 4 5 5 4 4 9 4 5 a a 4 4 4 f 0 3 4 4 4 3 4 l l 6 3 3 4 4 4 a a a 0 / / / / / / * ( ' * * * * * ' ( ( # / 0 / # * ",
"L F r r % r r % % % % @ @ e e @ $ $ $ e @ 2 2 2 2 2 2 3 @ 2 # 2 2 3 6 # 2 3 3 3 3 3 # 3 3 2 2 3 % % 3 3 3 3 3 3 # # # % # % 2 2 $ $ @ $ F @ $ # $ # % 2 $ $ % % % # # # % % % % # # # % % 2 % % $ % 2 $ # $ % 3 2 2 $ + $ # $ % # # # # # # # % # % $ # # # # # $ # $ # @ F $ $ $ # $ $ F $ $ $ $ $ $ # # $ $ $ $ # # r % - d % - ] 6.6.0.0.0.0.0.0.7.7.1.7.1.1.<.<.1.[.}.}.Z Z }.}.}.}.}.1.}.3.4.4.4.4.4.4.0.4.0.4.4.0.0.4.0.4.4.4.4.3.3.3.3.3.3.3.3.3.1.1.3.3.3.3.3.3.3.3.3.4.3.3.4.3.4.4.4.4.4.1.1.3.3.1.1.1.1.3.3.3.1.4.4.4.3.3.3.3.4.}.}.}.}.}.}.[.[.<././.,.,.,.,.,./.w w w {.w 9 '.'.'.m m x x 9 f x f f f f f f f / 0 / x x f f 4 4 4 4 4 4 4 4 4 4 4 7 5 5 8 5 4 5 7 9 9 9 5 5 4 9 4 5 5 f 5 7 5 4 4 0 4 4 a 4 a a 4 0 3 3 3 3 2 3 4 3 4 0 0 4 4 4 4 f 4 a 0 / / * / / 0 0 / / / / / * * * * # # * * 0 * ",
"L r r @ $ % r % @ % % @ @ e e @ e e @ @ 2 2 2 2 2 2 2 3 3 % % 3 3 3 l % 2 3 3 2 3 3 2 2 3 2 2 3 3 3 3 3 3 3 2 # # # # # # % % 2 3 @ @ $ # $ $ $ $ $ $ $ 2 % $ % 2 2 # # % % % % % # # % # # % % # $ # $ % $ $ % # $ $ # % $ # # % $ # # # # # % # % % # # # # $ $ $ $ $ $ $ $ & $ $ $ $ $ $ $ # # $ $ $ $ r @ @ r $ # % # - # % d 2.3.6.0.0.0.0.7.0.0.7.1.7.7.7.1.<.1.}.}.}.}.[.Z [.Z }.}.3.3.3.3.3.4.3.3.3.4.4.0.4.3.4.4.4.0.4.4.4.4.3.3.3.3.3.3.3.3.3.3.1.3.3.3.3.3.3.3.3.3.4.3.4.4.3.3.3.3.4.4.Z 3.0.4.}.1.1.1.1.1.3.}.1.1.4.1.}.}.}.4.4.}.}.}.}.[.~.{.<.,.,.,./.{.w h h 9 x x |.x.y.x.x.x.t.p.p.f 9 f x f x 0 0 f f f / 0 * x f f f a 4 4 4 4 4 4 4 4 4 4 5 4 4 9 9 5 7 4 4 7 7 7 4 9 7 7 7 7 4 4 4 4 4 4 0 4 4 a a a 0 4 a 0 3 2 3 2 3 3 0 3 3 a 4 a 4 4 4 4 a 0 a 0 / / / / / / 0 0 0 0 # * * # * ( ( / # ( ",
"L r r @ % $ r @ % # @ @ $ e e e $ 2 @ 2 2 @ @ 2 2 3 2 2 2 2 2 2 2 % 3 2 3 2 2 # % 3 2 2 2 3 2 3 3 2 2 2 2 3 2 2 2 2 # # 2 2 2 2 2 2 e $ $ $ @ $ $ 3 2 2 $ $ # % % % % # % # # % 2 # # % % # # % $ # $ 2 2 % 2 # + # % 2 2 $ % 2 2 % % % % # % % % % % # # # % % % $ $ F $ $ $ # $ @ F $ $ $ F $ $ $ r F $ $ F $ F $ # $ # d % % d 2.] 0.0.0.0.0.7.7.7.7.7.7.1.7.1.4.1.Z <.Z }.[.<.[.}.}.Z }.3.3.3.3.3.3.4.3.3.4.3.3.4.4.4.4.4.3.3.3.3.3.3.3.3.3.3.3.3.3.3.3.1.3.3.3.3.3.3.3.3.3.3.3.3.3.3.3.3.4.3.1.4.4.1.Z 1.}.4.1.1.4.3.4.4.3.1.}.}.}.4.8.}.}.[.[.[.[.<.Z <.,.{.h h h w |.x.y.y.z.A.B.C.C.y.y.x.x x x x x f a 0 0 0 0 / / 0 / * / 0 4 4 4 3 4 a l 7 4 4 0 5 4 5 5 6 7 7 7 4 8 7 4 6 4 5 4 5 4 4 4 4 4 5 4 4 4 4 4 4 3 4 0 4 a 3 3 3 3 3 3 3 # 0 3 3 4 4 4 4 a a a a a 0 / / / / / / / / / / * * ( # + + * 0 * ( ",
"L r r r r $ r r # $ @ @ $ e @ e e e e 2 2 e 2 2 2 2 2 2 % 2 2 2 3 3 % 2 3 3 3 3 % 2 2 3 3 2 2 3 2 % 2 2 2 3 3 3 2 3 3 2 2 3 3 3 2 $ $ $ 2 @ @ $ % % % % % % % % # # % % % # % # # # # % % 2 # % % % % % $ % 2 2 3 2 $ % % % 2 % % $ % # # % # # # % % # # # % % $ # $ @ $ $ F $ $ e F # $ $ F @ $ $ $ $ $ $ F F $ $ $ % $ d d d Z 6.3.0.0.0.1.0.r.k.0.0.m.m.7.7.0.1.}.}.<.<.Z }.Z Z Z [.[.}.1.3.1.3.3.3.4.3.4.4.4.4.0.0.4.4.4.4.0.3.3.3.3.3.3.3.3.3.3.3.3.3.3.3.3.3.3.3.3.3.3.3.3.3.3.3.0.4.4.4.3.4.4.Z <.[.1.}.3.1.}.1.4.4.4.1.}.4.4.}.}.}.[.[.Z [.[.<.2.z w h h x |.x.y.B.D.D.D.B.A.D.D.B.B.D.B.E.t./ f f x / / / * / / / 0 0 / / * 0 0 # a 6 0 3 3 4 7 4 6 3 3 6 4 4 l 7 4 7 4 a 4 6 l 4 4 4 4 4 a 4 5 4 4 4 a 4 4 3 3 0 2 0 3 3 3 3 3 3 3 2 0 0 # 0 0 0 a 0 0 0 0 0 0 / / / # # / * * * # # # + # ' * ( # * * ",
"L k r $ @ r r @ @ k @ F e @ @ F @ @ e 2 2 2 2 @ 2 2 2 2 % 2 3 3 3 3 2 3 3 3 3 3 3 3 2 2 3 3 3 3 2 2 @ 3 2 3 3 3 2 2 2 2 2 2 2 3 3 @ @ $ $ 2 $ % 2 % % % # % 3 % % % % # % % 2 # # % # # # 2 # # % 2 2 2 $ $ $ 2 2 2 $ # + $ 2 # % $ $ # # $ # # # # # # # # $ # # # # @ $ $ $ $ $ $ $ # $ e F F $ - $ $ $ F F $ $ $ $ $ $ # # d - 3.6.r.m.m.0.r.m.n.m.k.0.0.0.0.0.4.1.<.<.<.1.Z <.Z [.<.Z }.}.1.1.1.3.3.3.3.3.4.4.3.3.3.3.3.4.3.3.3.3.3.3.3.3.3.3.3.3.3.}.}.3.3.3.3.3.3.3.3.3.}.3.4.4.4.4.3.4.4.3.4.0.}.<.Z 1.}.}.1.4.4.4.}.}.}.}.}.}.}.}.}.Z Z }.}.<.Z 2.w w x t.y.z.D.B.D.B.B.B.B.B.D.D.D.D.D.z.F.E.t.x x x * / x * 0 0 0 0 a a a * # 0 # a 3 0 a 0 0 3 4 4 4 4 3 4 3 6 7 4 4 6 l 4 6 6 6 6 6 6 4 4 4 5 4 4 4 4 4 a 3 3 3 3 4 0 0 2 # # # 2 3 3 3 0 0 0 + # 0 a a a a a / * * / # 0 0 0 0 # + + + # + * * * ( * ",
"b.k r r @ @ @ r r @ @ @ @ @ @ e e e 2 2 2 2 2 @ 2 $ 2 2 2 3 2 # 2 2 2 3 % 2 3 3 3 3 3 % 2 3 3 3 3 2 3 2 2 3 3 3 3 3 2 # 2 2 $ $ $ $ $ 2 @ 3 # $ 3 % % 2 # # 3 # % % % # # # % % % % # # # % % % # # $ 2 % 2 $ $ # # 2 2 % $ 2 $ % $ $ # # $ # # # # # # # % $ $ % $ # @ F $ e ; e $ $ F e @ e $ $ $ F $ $ $ F F @ r $ $ $ $ # d - 2.q.r.m.m.v.m.r.r.0.1.{.{.{.<.{.{.<.<.{.<.}.1.}.}.[.[.1.}.}.}.}.1.1.}.}.1.3.3.3.3.3.3.3.3.3.3.3.3.3.3.3.3.3.3.3.3.3.3.3.Z 3.3.3.3.3.3.3.3.3.3.3.3.3.3.3.3.3.3.3.1.3.}.1.3.3.4.1.3.1.}.}.}.}.}.}.4.}.}.}.Z Z }.}.<.,.,.x z B y.z.D.D.D.B.B.B.B.B.B.z.y.y.y.y.z.y.G.H.|.t./ * ( ( * ( * * ( * * * 0 ( * * * * 0 0 # # # 3 3 + + + 2 l 3 3 3 3 4 l 3 2 3 2 6 4 3 4 4 6 7 6 4 4 3 4 4 a 3 3 3 3 @ 4 2 3 0 + + 0 0 0 3 3 3 4 2 0 a 0 0 / / 0 0 0 0 0 0 0 0 0 0 0 0 3 # # 2 ' + * ( # ",
"b.k k @ r r r r @ @ @ @ @ @ @ @ @ @ @ 2 $ e @ 2 2 2 2 2 2 3 3 2 3 3 % 3 # 3 3 2 2 2 3 3 3 2 2 2 3 2 2 2 2 3 3 3 3 3 2 % 2 2 $ $ % % % 2 3 % # @ o % # # # # 3 % % % # + # # % # % % % $ # 2 2 2 # # # # % 2 2 $ % % $ 2 @ 2 $ % % $ $ # # % # # # $ # # # # $ $ $ $ # @ $ $ @ & @ $ $ F @ e $ $ $ F F $ $ $ $ $ $ F $ - d $ # d d ] 6.0.m.m.r.0.7.1.<.o.@.@.@.o.o.<.<.<.<.<./.[.Z <.<.<.<.<.Z 1.}.}.1.1.1.3.1.3.3.3.3.3.3.3.3.3.3.3.3.3.3.1.1.3.3.1.1.3.3.3.3.3.3.3.3.3.3.}.3.3.3.3.3.3.3.3.3.3.3.1.Z [.Z 3.1.1.}.1.}.}.}.}.}.}.[.}.[.Z Z Z }.}.}.,./.z |.x.C.B.B.B.A.B.z.z.z.C.y.E.t.j.j.t.j.t.t.E.|.t.x x ( ( ( / ( * / * * * # # * * ( * ( ( * ( * * * * + + + + ' ) * + + + # + + + + 3 2 # 3 4 4 4 a a a 3 4 3 # 3 2 4 4 3 3 4 4 4 3 2 3 0 0 0 2 3 3 0 0 0 0 # / / 0 # 0 0 # # 0 # # # # + # # + 2 ' * * ( * ",
"k r r r r @ @ r @ @ @ @ @ @ e e e @ e $ 2 @ @ 2 2 2 2 3 3 3 3 2 2 2 2 3 2 3 2 2 3 3 3 3 @ 2 3 3 2 2 2 2 2 3 3 2 2 3 2 2 2 2 2 2 2 % % @ l % # 3 3 # # % % % % % % # 3 2 # # 2 $ $ % # # % 3 + # % % % $ 2 + $ 2 % 2 2 $ $ 2 $ $ $ $ $ # # # # # $ $ % # # # $ $ $ # & e $ $ @ & $ # $ # $ # $ $ $ F F $ $ @ n @ F r r $ $ $ # # % ] 3.6.0.0.1.2.{.o.o.@.@.o.<.<.<.1.1.Z 1.<.<.<.}.<.[.<.<.<.<.}.}.}.}.1.1.1.1.3.3.3.3.3.3.3.3.3.3.3.3.3.3.3.1.3.2.Z 1.2.1.3.2.3.Z Z Z Z 3.3.3.3.3.3.4.3.3.3.1.1.}.1.Z }.[.}.}.}.}.1.3.3.}.3.}.}.[.[.[.}.1.Z }.<.<.<.B F.y.C.A.z.C.z.z.A.z.y.y.E.E.I.9.^.^.:.#.#.+.:.:.:.+...9 x |.* / * * ( ( ( ( ~ ' ' ) # ~ ~ ( ( ( * ( ~ ' ' ' ' ' = ' + ' ' + + + + = ' + + 2 4 4 4 # 4 a 0 4 3 0 3 3 3 4 3 3 3 0 2 3 3 3 0 3 3 3 3 3 # # # # # / 0 # # * # + + * ' * # 0 # + # # # = ( + * ( ",
"k r r r r @ @ @ @ @ r F @ k e e @ e e e e e e 2 2 2 2 2 2 2 2 2 % 2 3 3 2 3 3 2 3 3 2 3 3 2 2 3 2 2 2 2 2 2 2 $ 2 3 # % 2 2 2 2 2 % # 3 % % 2 # # % % % 3 % # $ % # % 2 # # 3 # # % # # % $ % # % $ % $ $ $ $ 2 $ 2 2 $ $ $ $ $ $ $ $ $ 2 % $ % $ $ 2 % $ $ $ # 2 # @ @ $ $ e $ $ $ # $ @ $ $ $ $ F $ $ $ $ $ r $ $ @ $ $ r r # % d Z <.<.<.,.~.~.@.i o.{.,.<.<.2.1.1.<.}.<.<.<.Z <.<.<.<.<.<.[.Z }.}.}.1.}.}.1.3.3.3.3.3.3.3.3.3.Z 3.Z 3.3.Z }.3.3.Z <.<.<.Z Z Z 3.Z }.}.3.Z Z 3.3.3.3.4.4.3.1.3.Z <.[.[.[.3.4.1.}.}.}.}.}.}.}.}.}.1.1.1.i.j.j.E.x.C.A.A.A.A.A.z.y.z.y.G.x.t.9.^.^._.*.;.=.;.;.=.;.;.;.*.%.+.:.a.( ( ( ( ( ( ( ( * ( ( ) # ) ' ( ( # ( ' ' = ) ' = = ) ) = ) ) = ' ' = ' ' = ' + # # 3 * 0 0 # 3 2 2 3 3 3 3 3 2 3 3 3 3 3 2 2 3 3 3 0 * # # / # # 0 # # # # # + + # ' + 2 # # # + + + = ' * * ) ",
"L k @ @ @ @ k @ @ @ @ F @ k @ @ @ e e e e e 2 2 2 2 2 % % % % 2 2 3 3 3 3 3 3 3 2 2 % 2 3 2 2 2 2 2 2 2 3 2 2 $ 2 2 # % 2 2 2 $ 3 # = 2 # # 3 % # % @ $ % % % % % % % % # % $ # % $ $ $ % % % # % $ $ $ $ $ 2 e 2 2 $ $ $ $ $ $ $ $ # % 2 $ 2 $ $ $ 2 $ 2 $ # $ $ e 2 $ $ e $ e $ # @ $ $ @ $ & $ $ $ $ $ $ # $ $ # r r r r @ $ % % ,.Z ,.o.o.@.Y o.~.~.{.{./.,.<.<.,./.<.<.<.<.<.<.Z <.<.<.<.[.[.Z 1.1.}.}.}.}.}.3.}.}.3.3.3.3.1.1.3.3.2.3.3.2.2.Z <.Z Z ,.Z <.Z Z }.Z Z }.1.3.3.3.3.3.1.1.3.3.}./.<.1.3.}.}.1.1.3.}.[.}.8.}.[.[.}.1.2.,.{.j.x.y.C.B.B.A.A.A.z.z.C.y.x.J.p.!.=.K.$.-.$.=.*.=.*.=.=.*.=.$.$.$.#.:.a./ * * ( ( ( * * ( * ' + = + ( ( ( ~ ) ' = ) , ) ) ! ! ) ) = + + = = = + = ' ) ) ) * ' # # # # + # # 0 # + 3 3 * 0 0 0 0 # 0 0 0 # # # # / ' ' / / * * # # # + # # # # * * ) * = + = = + = ) ) ",
"k r % r $ $ @ @ F @ @ $ @ @ @ @ @ e e @ @ @ 2 2 2 2 2 % % % 2 2 3 3 3 3 3 3 3 2 % 3 3 2 2 2 2 2 2 3 2 2 3 2 2 2 2 2 % 2 % 3 2 # 3 % % 3 # % @ # % % $ 3 % % $ % # # % % % % % % 3 % % $ # % 3 % $ # $ $ $ $ 2 @ e 2 $ 2 2 $ $ $ $ $ $ $ $ $ e $ $ 2 $ $ @ $ $ $ $ $ & & e 2 $ e # $ e & + $ $ $ # # $ $ $ F $ $ F $ $ F r $ % $ $ r v /./.Y ~.Y o.~./././.~././.,.<.<.<.Z <.<.,.,.<.Z <./.<.<.}.}.}.Z }.}.Z }.}.}.1.}.}.3.3.Z Z 1.1.3.3.1.2.3.3.Z ,.<.Z Z <.<./.Z <.Z <.Z <.[.}.Z <.Z Z Z Z }.<.o.{.Z 1.1.1.1.1.}.}.}.[.[.[.Z [.<.Z ,./.,.B y.z.z.B.B.A.z.z.A.z.z.y.E.L.+.-.-.=.=.-.$.>.=.=.=.=.=.$.>.>.$.$.$.#.$.:.9 x * * / * * ( ( ) ' ) ' ) ) ) ' ' ! = + ; , ) = , , = ) ) = , , ; ; = = = + ! ) ' * + * ' ' ( + + # # + 3 4 * # 0 0 # # # # # # # # # * * / * ' / * ' = # $ # = + # # a / / = # ' ) ' * * * ",
"L @ r @ @ $ @ @ @ @ @ @ @ @ @ @ e @ @ @ e e e @ 2 2 2 2 3 3 3 2 3 3 0 0 3 % 2 2 % 3 3 2 2 2 3 3 3 3 2 2 2 2 2 % 2 2 % 2 % % 2 % 2 # # 3 # # 2 # % $ # % % % $ % $ % % % % % $ % % % % % % % % $ $ # $ $ $ $ $ $ $ 2 2 2 2 # & $ $ $ $ $ 2 $ 2 e @ 2 2 $ 2 e e $ $ 2 e e $ # $ & & e & $ @ & $ @ $ $ e $ $ F F r @ r $ $ F $ $ $ % r r r % /./././././.v ,.w /./.,.,.<.Z Z ,.<.,.,.,.<.,././.,.<.<.Z Z }.}.Z Z Z }.}.}.}.3.3.}.1.1.1.1.}.3.2.}.2.Z <.Z Z <.Z <.,.<.,././.<.[./.[.[.,./.[./././.~.o.{.[.<.<.Z <.<.[.[.[.}.}.[.[.<.,./.w z x.M.B.B.B.B.A.z.z.B.B.y.E.p.^.=.N.f.>.>.-.-.=.>.-.=.=.>.=.=.-.>.>.$.$.-.-.).:.a./ * / / * ( ~ ( = = = ) ' ) ' + ) ) , ; , , = = = = , ! ! ! ! = = , ) = = ' ' ' ) ' ' ) ' + # + + 0 + 0 # # 0 0 0 # # / # 0 # # / # # # / ( / # * ' = = + + + * ' = # * * ' ' = = = * ) ) ",
"L r r @ @ @ k k @ @ k @ @ @ @ @ e @ @ 2 2 2 2 2 2 2 2 2 3 2 2 2 # 3 # 0 3 0 3 3 2 2 2 2 2 3 3 3 2 2 3 3 2 3 2 0 2 2 # 2 % % 3 2 2 2 # 2 % 2 3 % % # % % % 3 $ # $ % # % # # 3 # # $ % % % % # # % 2 2 2 $ 2 $ # $ e 2 2 $ $ $ 2 2 $ $ $ 2 $ e @ e $ e 2 $ e e $ $ $ 2 e $ $ e e @ @ $ e @ $ & $ $ $ $ $ $ F F F r F $ r r r $ r r r d d d % /./.,.,.d % % % ,.,.d d Z ,.Z <.<.,.,.,.,.,.{.~.{.<.<.<.}.}.}.}.Z Z }.Z Z Z }.}.1.3.3.1.}.Z 2.Z Z Z <.Z Z <.<.Z Z Z Z ,././././././.[.[.~./.{.o.{.o.o./././.<.1.<././././.[.[.<./.{.{.h |.u O.P.z.B.B.B.z.z.z.z.y.J.Q.*.K.K.f.-.=.*.=.=.=.-.>.*.=.-.>.=.=.-.-.-.$.>.$.-.)...9 ( |./ / |.( ) * = + ) , = ) ' = ) ! > ! ! ! > = = = = = , ! ! = = ) ) ) ' * ' ) * + ! ' # + + + 2 0 # # # # # # # # / / # / / / / / / ' ' # # ) * ' ' ) = # ! * - ) * * * ' ' = = = * ' ",
"b.# - % r $ r @ $ @ @ @ @ @ @ @ 2 2 e @ 2 2 $ % % 2 2 2 2 2 % 2 3 3 0 3 3 3 3 3 # 2 3 2 2 3 3 3 3 3 2 3 2 2 3 2 0 2 # 2 2 # 2 3 2 2 2 # # 3 3 % # # 2 3 $ $ $ $ # # % $ % % $ # % $ % # % % % $ $ # # & $ 2 2 $ $ 2 $ $ $ $ $ $ $ $ $ $ $ $ e e $ $ @ 2 $ $ $ $ 2 2 $ $ & $ $ $ $ $ e & + e 2 $ $ $ $ $ $ $ $ $ F $ $ F $ $ $ $ r r % % % % % % d % % d % % ,./.,.,.,.,.,.,.,././.,.<.<.{.~.~.~./.Z Z Z }.1.}.}.Z Z Z Z <.}.Z Z 3.2.Z }.2.<.Z Z <.Z Z Z Z <.,.<.<.<.<./././././.~.{.{.{.{.~.o.o.~.<.<.<.<.<././.~./././.[./.~.h w x.M.R.B.z.A.B.D.B.A.B.z.E.Q.>.K.K.K.K.N.f.*.=.*.=.=.>.=.*.>.-.=.=.=.-.e.-.>.-.-.>.-._...x |.( ( |.( ( ) ' ) , ) = = ) $ , ! ! ! ! ! ! = = ! ! ! ! ! ! ! = = = = = = * * # # ' = # + + + 2 0 # # # * * * * / * / / ' ' ' ' ' ' ( ) { ( # # ) = + # # = # * * / # # - ' ' * * * * ",
"L r $ @ @ @ @ @ @ @ @ @ @ 3 $ @ 2 2 e @ @ @ 2 2 2 2 2 2 2 2 2 3 3 3 3 3 a # 3 3 # 3 2 # 2 3 2 2 3 3 2 3 3 0 3 3 0 2 3 % % % 2 2 2 2 2 # # % 2 % # + % $ 3 $ $ % $ $ $ $ $ $ $ % $ $ $ $ % $ $ # $ $ $ $ 2 e @ @ e 2 2 $ 2 2 $ $ # $ $ 2 2 $ 2 $ $ $ e $ $ $ $ $ $ $ $ + # $ $ $ & $ e & & e e $ $ F F $ F $ $ $ F $ $ $ - $ $ $ $ - % d r % - d d % % % 3 % d ,.,.,.,.,.,.,.,./.,.,.,./.~.~.o.~.,.<.Z Z Z }.}.}.Z Z Z Z <.Z }.Z }.1.1.2.Z Z Z ,.Z Z d <.<././.,./.,.,./././././.{./.{.{.{.o.o.o.{.,.,.<.<././././././././.{.{.j.x.z.D.D.B.B.B.D.D.B.A.y.J.^.=.K.K.K.f.f.f.f.f.f.f.=.=.>.>.>.>.=.f.f.=.-.-.-.e.-.-.-.-.-._.!.x |.|.z * ( ) ' = & ) ) = = $ ) ! ! ) ' ! ! ! = = ! ! ! ! ! = = = + = ' ' ' = = # * + + ' + + # # # # # / / * ' ' ' / / ' ' ' ' ' / / ' ) * * - = * ' = # # = ) # / # # - * * * ) ' - ",
"A @ % r k @ % @ k @ @ @ $ $ $ $ 2 @ @ 3 3 3 3 3 2 2 % 2 2 3 3 3 3 3 3 3 0 # 3 3 0 2 # % 3 3 3 3 3 3 2 3 3 0 3 3 0 2 3 0 0 0 # 0 2 2 2 3 3 2 % 2 % $ # # $ 3 $ $ $ $ $ $ # $ 3 % # $ $ % $ $ # # 2 @ e e 2 $ $ 2 $ $ $ $ $ 2 $ $ $ $ e e 2 $ 2 $ e e @ 2 2 $ 2 e $ + e $ $ 2 $ $ 2 $ $ $ $ $ $ $ e e F $ F $ $ $ $ $ F F $ @ r $ $ $ r d r % d d % % % % % d - 2.d d ,.Z Z /./.,./.{.{.{.~.o.o.o./.,.Z Z Z Z <.<.}.Z <.<.<.<.Z }.Z 3.3.Z Z }.<.,.<.<.<.,././.,././././././.{././././.~.{.{.o.o.o./.{.<.Z <.{./.<./././.{.~.{.B y.z.D.D.B.B.B.D.D.D.A.x.I.S.N.;.*.;.N.;.f.f.>.=.f.f.f.f.f.>.=.f.f.=.f.f.g.-.e.e.=.e.-.>.-._._.!.t.|./ / ( ) + + + 1 , ; ) = ! = ! ! ' ' ! ! ' = = = = ! { ' = = = { ' * * # = ' * = * + # # = + # # * * / * * * ' ( ' ' / # * ' / # ) ' - ~ ) = = = = = = * # % * ' - ) = d - ' * * ",
"L $ # # % % # @ @ @ @ @ 3 2 $ $ @ @ 3 2 2 2 2 2 2 % % 2 2 2 2 0 0 3 3 3 3 a # 0 0 # # 3 3 2 3 @ 3 3 3 2 2 3 2 2 3 3 0 3 2 # # # 2 # # % 2 % % # % 3 % % 3 $ % % $ # $ $ # # $ # # $ $ # % $ $ $ $ $ $ $ $ & $ $ $ $ $ $ $ 2 $ $ $ $ e 2 $ 2 @ $ 2 $ @ e e $ $ e $ $ # 2 $ $ $ # $ $ $ e e $ $ $ $ $ F $ F F F $ $ $ F F $ @ r $ $ $ F F r d d d - d % d - - % - d d ,.,.,./././.{.{.{.~.Y ~.o.o.<.<.<.Z Z Z Z }.Z Z Z Z Z <.Z Z Z }.2.Z Z }.Z <.,.,.<.,././.,././././.{./.~.~.,.{.~.~.~.~.o.o.~./.,.,.,./.~./././.,.,.w x B y.A.B.D.B.B.B.B.B.D.A.E.^.f.N.K.;.;.N.K.N.N.f.>.>.f.T.f.f.>.-.e.=.e.e.e.g.e.g.f.e.e.f.-.>.>.).-._.9 |.( ( ( ( ' ) 1 ! = ; , ) ! + ' ~ = ' ' ' { ' ' ' ' { ' ' ' ' = = ' ' ' + # = = = = # # # * * # * ( ) * / ' ' ) ) ' ' ' / / / / ' ) ) # * = * = # = = * - = * # # 0 * = # * * / / ",
"L % $ % @ @ % @ @ @ @ @ 3 3 3 $ 3 3 3 3 2 2 % % % 2 2 2 2 0 0 0 3 3 3 3 3 3 3 0 0 2 # 2 3 3 3 3 3 2 3 2 2 3 2 2 3 3 2 3 2 2 # # 3 3 % 3 3 % 3 # # $ 3 @ @ # $ $ $ $ $ $ $ $ $ $ $ $ $ $ $ $ $ e $ # # $ $ 2 @ @ 2 2 $ $ 2 2 2 $ $ $ $ $ $ $ e $ $ $ e $ 2 $ $ $ $ e + e e $ e 2 $ $ $ $ @ $ 2 @ F F F $ F $ $ F F $ F F - $ $ $ $ - $ $ $ - d d = - 3 % d d % d d v % ,.,././././.{.{./.{.,.,./.<.<.<.Z Z Z 2.2.Z Z Z Z Z <.<.Z }.Z Z Z Z Z Z ,./.<././././.,././././.{./.~.~.,.~.o.~.~.o.o.o.~./.,.,.{././././.,.,.w j.x.C.B.B.D.B.D.B.B.D.B.y.J.^.K.K.K.f.f.;.f.*.=.=.f.f.f.f.T.T.f.e.>.f.f.e.e.g.e.e.f.T.U.e.e.>.-.e.>.>.-.^.p.( ( * + + ) ) = = ) & , ! = ' ) = ' { ! ~ ' ' ' ' { * * ' ' = = = = = = # = * * = = = = * * * * # ) ) ) ) ' ' ) ' ' ' ' ' ' * * / - / # * ) = = * * * # * * * # d d - - - ' / # ",
"L % % @ @ @ % @ @ $ @ @ $ $ 2 $ % 2 3 3 3 3 3 2 2 2 3 3 2 2 3 3 3 3 3 3 # 3 3 2 2 3 2 # 3 3 3 3 3 3 3 2 3 3 2 3 3 3 3 3 2 3 % # 3 2 # 2 3 % 3 2 + # % % @ # # @ @ @ $ $ F F $ F $ $ $ e $ $ $ $ F $ $ $ $ e e 2 2 2 $ $ $ $ $ 2 $ $ $ $ $ $ $ 2 e $ 2 $ $ $ 2 $ $ $ $ $ e $ $ 2 $ $ $ 2 e $ e e $ $ F $ F F F F r F $ F $ $ $ F $ $ $ F r - - # - - % d d d - - - d % d ,.~././.{./.{.,.2.<.2.3.3.<.,.Z Z Z Z Z Z Z Z ,.Z Z <.Z Z }.<.Z Z ,.,.,./.<././.,././././.{./././.~././.~.~././.o.o.~.{././.,./.~./.,.<.,.w x x.z.B.B.B.B.D.D.D.B.B.y.I._.N.f.e.=.f.f.f.N.f.f.f.T.T.f.f.f.T.f.>.e.>.e.e.f.f.e.e.U.e.e.e.-.f.>.-.f.>.-.-.^.p.( ( * + ' ) = = , = , ! ) ! ' ' ) { ! ~ { ) ' = ' ' ' ' ' ' = ! = % = # # + # # ' { * * * ) * # * * * ) ' * ' ) ) ) ' / / / / { / / * ) ! - # # = * # # # # * * # # # d # / - ",
"J # % % % % % @ % $ @ @ 3 3 3 2 2 3 2 2 3 3 3 3 2 % # # 0 3 3 3 3 3 3 3 3 3 3 # 2 3 3 3 3 2 3 l 3 3 2 2 3 2 3 3 2 3 3 2 3 3 % % % % # # 3 3 % % $ 3 # % @ # # @ r # @ $ $ $ $ $ $ $ $ # $ F $ $ $ e @ e 2 2 $ & $ e 2 2 $ $ 2 @ e 2 e $ $ 2 2 e @ $ 2 2 $ 2 e $ $ $ $ & $ e & $ $ $ @ e $ $ $ & & & F F F r r F r F F F F F F F F $ $ r @ $ - - # - % - d d z d % - d d ,.,.2.,.,.2.2.2.2.1.1.1.Z ,./.,.<.Z Z Z 2.Z Z Z <.Z <.Z Z Z Z Z <.,.,.,././././.,./././././././.~.o././.~.o.~.o.Y ~.,.{.,./.,./././.,.,.,.z x.C.B.B.D.D.B.D.D.V.D.y.p.#.N.K.N.f.f.=.f.f.f.T.T.f.f.f.T.T.f.f.T.f.=.e.=.f.f.f.f.e.e.e.e.e.e.f.f.>.>.e.-.>.$.!.f |._ ( ) ) ) , , ) ) ; , ! ) ' ' ' ' ! ! ~ ' = = ' { { ' = = ! = # ' = + * = = ' { * ' { ~ * * * * * ( * # * ) ' * - # - / - d * * # # # # # # * - # # # d d # - - - - # # # ",
"L % % % % % 3 @ 3 3 @ 3 % 3 3 3 3 3 3 2 2 2 2 2 2 # # # # 0 0 0 3 3 0 3 3 3 3 3 3 3 3 3 @ 3 @ l 2 2 3 3 3 2 3 3 2 3 3 2 3 3 % 3 % 3 2 # @ 3 # 2 % @ @ $ @ % # $ # # $ $ # $ $ $ # $ $ # $ $ # # $ $ 2 2 2 2 $ # $ $ 2 e e $ $ $ $ 2 e $ $ e @ $ @ $ $ 2 @ $ $ 2 $ $ e @ e e $ $ $ # $ $ $ e $ e e F @ e F @ r r @ F F F F F $ $ F $ - $ $ # # - d # # d % % - d d % - ,.,.z ,.2.6.2.2.2.<.2.6.Z Z Z ,.,.,.Z Z <.Z ,.Z 2.Z <.<.Z Z Z Z <.<.<.<.,./././././.~./././.,././.o.o.~.o.~.{.o.Y i ~./.o.,./././.,.,.,.x x x.C.B.B.B.D.D.B.D.D.R.y.a.*.N.*.=.;.f.>.-.=.=.f.f.f.e.e.g.f.T.T.f.f.T.T.f.T.f.g.g.f.e.e.f.>.e.e.=.f.f.=.-.>.>.-.).!.x ( ( ( = = , , ! ) ; ; = = = ' ) ' { ' ! ' = ' * ) ' ' = = ' = = ' = = { ! { ' ' * ' ~ ' * * ) ) ' * * - * ' - # - = = - # # * ' * # 3 # d # # # # # - - - # # - - # # / * ",
"L @ % % % % 3 3 % 3 3 % % 2 2 2 3 3 3 3 3 2 % 2 2 3 3 3 3 a 0 0 3 3 3 3 3 3 3 3 2 3 3 2 3 @ 3 2 2 2 3 2 2 3 3 3 2 3 3 2 3 % % 3 # % # # 3 % % 3 % % $ $ @ $ $ @ $ $ $ $ $ $ F F $ F F $ F F $ F $ $ 2 e 2 2 e @ @ 2 $ 2 e 2 $ 2 $ $ $ $ $ $ e $ e e $ $ @ $ $ e $ 2 e @ 2 2 e e @ @ $ @ @ e e $ $ F F F r e F F F F F F F F F $ $ $ - $ $ # $ # # # # # % d d d 2.% - d d 2.2.2.6.2.2.6.1.6.6.2.2.2.<.,.,.<.<.<.<.,.Z Z <.Z <.<.Z Z <.<.<.,.<././././././.~./././.{.~./.~.o.o.o.~.{.~.o.Y ~./.o./.,./.{.,.,.x x |.C.D.D.B.D.D.D.B.D.z.x.a.#.N.;.*.=.>.>.>.-.=.=.=.f.f.f.f.f.=.f.T.f.=.=.=.e.e.g.f.U.U.f.f.e.>.e.=.e.-.f.f.>.>.$.$.=.:.m x * ( ) ) , , ! , ; ; ; , ! ! ! ! ! ' { ' = ' ' ' ' * = = ' ' = = # = { ' ' # * ' ' { - * * ' ' = = * ' = = = - - - # # - - # # % * * * * # # # ' * d % # - # - / # # - # ",
"k @ # % % % 3 3 % 3 % d 3 3 2 3 2 3 3 3 3 3 2 2 2 3 3 3 3 3 a 3 3 3 3 3 3 3 3 3 2 @ @ 2 2 @ 2 2 e 2 @ 2 2 3 3 @ 2 2 @ 3 2 % 2 3 % % 3 # 3 @ 3 @ $ % # $ @ % $ @ r $ F F F $ $ F F F F $ F F F @ $ $ $ $ $ $ $ 2 2 $ $ $ $ 2 2 $ $ $ $ $ 2 $ $ # e @ $ $ e $ $ 2 $ 2 2 $ e e e e e e $ e $ $ @ e $ F F F r r F F F $ F F r F r F $ $ r $ # # # # # # - - 0 - d % d d % % ,.z ] 2.2.2.2.1.6.3.2.2.2.,.,.<.,.,.<.2.<.,.2.<.,.Z Z <.,.<.Z <.<./././.,././././././.~.~.~.~.~./.~.o.{.o.Y ~.Y o././.~./.,./.{.{.w x E.y.D.D.D.D.D.D.D.V.R.x.9.#.N.;.*.*.*.*.f.>.e.=.f.f.f.f.f.f.f.f.f.f.f.g.=.f.f.g.f.f.f.e.f.f.-.e.=.>.e.e.>.>.>.>.>.>.>.$.:.a.x ( | ! ) = , ; ; , , > ! ~ ' ' ! ' ! ' = ' ' ' ' ' = = ' = = = = ' ! { { ' { ! ' ) - * * = ' = # = = = ' = # # - # # # # # # 3 # # # d # * d * * # # - / # / / # # - # ",
"L % # 3 3 % 3 3 % 3 % # 3 @ 2 3 2 2 2 2 3 3 3 3 2 # # # # 0 3 0 3 3 2 3 3 2 3 @ 3 2 2 @ k @ e @ 2 2 @ 3 2 3 3 @ 2 2 @ @ 2 2 2 2 2 3 $ # 3 3 % 2 % 3 $ @ @ % $ # $ $ $ $ $ $ $ $ $ $ $ $ $ $ $ $ $ 2 $ $ $ 2 2 $ $ 2 2 $ $ e 2 $ $ $ e $ e e $ $ @ e e e e $ 2 $ e e e e e $ $ @ e $ e e F $ $ e e @ @ e F r F F F F r F F F F $ F F @ $ # # # % 3 % # d % d d % % - % % % d 2.2.2.2.2.1.6.2.2.2.2.,.,.,.,.,.<.Z <.,.<.2.<.,.<.Z <.Z Z <.<.,./././././././././.~.~.,.~.o.o.o.o.~.~.Y i Y o././.~.~./.,.,.w w |.y.B.D.D.D.D.D.D.D.V.G.9 *.N.;.*.=.*.f.f.f.T.f.f.f.f.=.f.f.f.f.f.f.f.f.f.f.f.f.f.f.T.e.e.-.=.f.e.e.e.>.T.e.-.=.f.=.>.>.$.N.).m x ( ) = + = , ; ; = , ! ! ' ! ! = ' ' ! ! ' ! ' ' ! ' = ' = ' = ' ! ' ' ! { ! ' { ' ' = = ' ' = = - % = = # # + - # + = = = # # - - # # = # * % - - # # / - - - - * / ",
"b.% % 3 3 3 3 3 2 % % % 3 3 3 3 3 2 3 3 3 3 2 3 2 # # 0 0 3 3 0 3 3 2 3 3 2 2 3 3 2 2 @ @ @ @ @ e e @ @ @ @ @ @ 2 2 @ @ 2 $ $ 3 3 @ % # $ @ $ $ % $ @ @ $ % $ $ $ $ $ # $ $ $ $ $ $ $ $ $ r $ $ e @ 2 $ $ e 2 $ 2 e 2 $ e @ 2 $ $ $ e e e e F F e e @ @ F F e e @ @ e e e $ e e e $ e @ $ $ F @ e e e e F e e F F r F F F F F F r F % $ # # # % % # % % # # d % % % 6 d % ,.,.,.<.2.2.2.2.2.2.2.<.<.,.,.,.,.<.,.,.,.<.2.2.,.<.2.d Z <.,.<.,./././././././././.o.o./.Y o.~.o.o.o.Y i i o.~.~.~.~.~.{.{.{.w |.y.A.D.D.D.D.D.B.D.W.y.9.+.;.;.*.=.*.*.f.f.f.T.T.f.f.f.f.f.f.f.f.f.f.f.f.f.f.f.f.f.f.f.e.e.f.f.f.f.=.>.>.>.>.e.f.f.f.>.>.>.>.>.$.m x * # + ) ; & = , ; , ! ' ! ' + ' ) ! ! + ! ' = ~ ' = ) ' ' = ' ! ' ' = { { ' ' ' ' * * ' ' ' { = = = = + - $ % # # = = - - # # # * - # # * % - ' # # ' / - / / ' * ",
"L 3 % 3 3 3 3 2 # 2 3 3 3 2 2 2 3 3 4 3 0 3 0 3 3 0 0 3 3 3 0 # 3 3 3 3 3 3 3 3 3 @ @ @ 2 2 @ @ @ @ e 2 2 @ @ 2 2 2 @ 3 $ $ $ 3 $ @ @ 3 # # $ $ $ @ r % # $ @ @ $ $ $ $ $ $ $ $ $ $ $ $ % r $ $ @ @ 2 $ $ $ 2 $ e $ 2 2 e e 2 $ $ $ $ $ $ F e F $ F @ @ e $ $ e @ @ F F @ e @ F F e e @ F F F @ F F e F F F F $ e F F r F F r F $ $ $ $ # # # % % # # # # # # # % % % d % % d ,.,.,.Z 2.2.2.2.2.2.,.,.,.,.,.,.,.,.,.<.Z <.,.<.Z ,.,.,./.,././.,./././.~.~.~.~.o.v ~.Y v v o.o.o.o.@.i ~./.~.~.~.~.,.w w t.y.B.D.D.D.D.D.D.V.V.y.9.#.;.;.*.*.=.=.*.f.f.f.f.=.f.f.f.f.f.f.f.f.f.f.f.f.f.f.f.f.f.f.f.=.=.f.f.f.f.=.=.=.>.=.=.=.=.>.e.>.;.>.>.>.+.m f * ' ) ! , ) ) ; ; , ! 1 ~ ) ' ' ! ~ ' ! = ' 1 = = = = = ' ' - ' ' = { ' = = ) ' ' ! ' = ' = - = = + = = = + + = = = ' ! - = - # # # d - - = = ' ' ) ' ) ) * ) ) ",
"L % 3 3 3 3 % % # 3 3 3 3 2 3 2 2 2 3 3 2 3 3 3 3 3 0 3 3 3 0 0 3 3 2 0 3 3 3 3 3 @ @ @ @ @ @ @ @ @ @ 2 2 2 @ @ @ 2 2 3 @ @ $ $ 2 $ $ 3 @ $ $ # $ $ @ $ @ $ $ $ $ $ $ $ $ $ $ $ $ $ $ $ % % $ $ $ $ $ $ @ $ e 2 @ $ $ 2 $ $ e @ $ $ $ $ $ $ @ F $ $ @ @ @ $ $ e e e @ F F e e e @ e $ e @ e $ e e e F F F F $ F e F F @ F F r F F r F # $ $ $ $ $ % @ r # $ @ # # d d % % d d ,.<.,.Z <.,.<.2.2.2.<.,.,.,.,.,.Z ,.,.2.2.,.<.<.<.<.,.,././././././.v ~.~.v ~.o.o.o.~.o.v o.v o.o.o.@.i ~.v ~./.~.{.w w j.y.B.D.D.D.D.D.D.D.V.C.p.*.*.;.=.*.=.=.=.=.f.f.f.=.=.f.f.f.f.f.f.f.f.f.f.f.f.f.f.f.f.f.f.=.=.g.f.f.=.=.=.>.g.=.g.=.=.e.>.e.e.f.>.).$.>.+.a.|.( + ! ! = = # + = = ' ) ! ! ! ! ! ' = + = ! + ) = + = ! = # ! ! ' { ' ' ' { = ) { ) ' ' ' ' ' = # # - # # # % + = # ' d = * - ' ' - - ' ' - { ) ' * { ~ * = ) ",
"L % 3 3 3 3 3 3 2 2 2 2 3 2 3 3 3 3 3 2 3 2 3 0 2 3 3 3 3 3 0 0 # 0 3 3 2 3 3 2 2 3 @ @ @ @ e e e @ @ e e @ @ @ @ 2 2 @ @ @ @ @ @ @ # # @ @ $ # @ $ $ $ @ @ $ $ $ $ $ # $ @ $ # $ r $ $ $ $ % r $ 2 $ $ @ $ e $ @ $ $ 2 2 $ 2 e $ $ $ F F $ F F e @ e F e F e e F F @ F e @ F $ @ @ $ e @ e F F e e F F e e F F F F F @ F F F $ F $ $ $ $ $ $ @ $ $ $ $ # # $ $ % d - % % d d d 2.Z <.2.2.2.2.,.,.<.,.,.,.,.<.2.,.,.2.2.,.<.<.,.,.,.,.,././././.v ~.v v ~.~.o.o.o.~.~.~.o.~.o.@.@.i Y Y ~.~./.v {.h j.x.B.D.D.D.V.D.D.D.D.y.p.#.;.*.=.=.=.=.=.f.f.f.f.=.=.=.f.f.f.f.f.f.f.f.f.f.f.f.f.f.f.f.f.=.=.g.g.=.=.=.=.g.e.e.e.e.e.e.e.e.e.e.=.e.>.>.>.$.m |.|.0 ( ) = = + + = ) = ) ) ! ! ! ! ! = = = = = ! ) = ) ! ) = ! ! ' ! ' { { ' ' ' ' ' ' = = - = = # - = = + = + ' ' # ' # ' = - ) ' - - ' ' ' ) ' ' - ) ! * * ' ",
"L $ $ 3 3 @ @ 3 3 # # 0 2 3 3 @ 3 3 2 3 3 0 3 3 3 0 0 2 # 0 0 3 3 3 3 3 2 3 3 2 2 @ @ e 2 e e e @ @ @ 2 e @ @ e 2 @ @ @ 2 2 @ @ @ @ $ $ $ $ $ # $ % $ # $ @ @ $ $ $ $ $ $ % $ $ $ % $ $ % % $ % $ $ e $ @ $ e # e 2 e 2 e e $ $ $ $ $ F F $ $ $ @ @ F $ F e @ e e e e F F @ e $ e k F $ e e e e F F F F e e e e F F F F $ F F F F F $ r $ ; F @ $ F $ $ F $ $ $ % % d d d d d d Z ,.,.2.2.2.,.,.,.,.<.Z ,.,.,.2.,.,.2.2.,.,.<.,.,.,.,./././.v v v v v v ~.o.~.~.~.o.~.o.v ~.Y i @.i ~.~.~.~.w ,.{.9 H.z.B.B.D.D.D.D.D.D.z.j.#.N.*.*.*.=.=.f.;.;.f.f.=.f.=.g.e.f.f.f.f.f.f.f.f.f.f.f.f.f.f.f.=.=.=.g.g.e.e.=.e.e.e.e.e.e.e.e.e.e.e.e.f.e.>.>.-.>.:.a.x x ( ) * ) ' = = ) , , = ' ! ! ) ) ! , ; = , , ! ) ! ! ) ' ' ' = ! ' ' ' * ' ' ' ' { { ' * ' ' = = + = = = ' ' ! # { * { # # ) - * ' * ' { ' ' ) * - # = ~ ! ",
"L % 3 @ 3 3 3 2 3 2 2 2 2 3 3 3 2 3 3 3 3 0 3 3 3 0 # 2 2 2 2 3 3 3 2 0 2 3 4 3 @ @ @ e e @ @ @ @ e e @ e 2 e e 2 2 e @ @ $ $ $ @ @ r $ # $ $ $ $ @ @ @ # # $ r @ @ @ r $ $ $ % r $ # % @ % # $ $ $ e 2 e $ @ $ 2 2 e $ $ e $ 2 e e $ $ F e F F e e e e @ F F F e e e @ F e e e F @ e $ e e @ e F F F e F F F F F F F F F @ @ F r @ $ $ F $ F $ - @ @ $ $ $ F F $ d d d d d d d ,.2.2.2.,.,.,.2.,.,.2.2.,.,.2.2.,.<.2.2.,.,.,.,.,.,.,./././.v v v ~.~.o.o.o.~.o.Y o.o.Y v Y Y i @.Y ~.~.{.~.w w w H.y.z.B.A.A.A.A.A.B.A.H.!.N.;.=.*.*.=.=.N.N.f.f.*.f.f.f.=.=.f.f.f.f.f.f.f.f.f.f.f.f.f.f.f.f.=.=.g.e.e.e.e.e.e.e.e.e.e.e.e.e.e.e.e.=.e.-.>.-.-.>.:.a.x |.* * ' ' ' = + + = = ) ) ! = = ) ! , , , ; ! ! ! ! ! ) ! = = ! ! ' ' ' ' ) ) ) = * * * # = ' ' = # = = + = = % - d ' # - { * ' ' - / { * / ' - # * * + # ",
"L @ @ @ 3 2 % # % 3 3 3 3 3 2 2 2 3 4 3 0 3 3 0 3 3 0 2 3 3 3 3 3 3 3 4 4 3 3 3 3 2 2 e @ @ @ @ @ @ @ @ @ @ @ e 2 @ @ @ @ $ $ @ @ F # $ $ @ r @ $ $ $ @ @ @ $ $ # # $ $ $ $ # $ $ $ $ $ % % $ $ $ $ @ e $ $ e 2 $ 2 @ e $ $ 2 e e F $ $ F e e F F F F @ @ F $ F F F @ @ F e F e e F @ e F e @ F e e e e F F F F F F F F F @ F $ F $ - $ $ $ F F $ $ $ - $ $ $ F $ - - % % % d d ,.2.z z ,.,.,.2.,.z ,.,.,.,.2.,.,.,.,.,.,.,.,.,.,.,./././.v ~.~.o.~.o.o.o.o.~.o.o.~.o.Y o.Y Y @.@.Y ~.~.~.~.w h |.y.z.z.A.z.C.C.y.C.z.x.9.*.*.=.=.=.=.=.f.f.f.f.*.f.f.f.f.f.f.f.f.f.f.f.f.f.f.f.f.f.f.f.f.f.f.f.f.=.=.e.e.e.e.e.=.=.e.e.e.-.e.e.-.-.e.e.e.f.>.).-.$.^.a.x x / * * = + + + = = , = ) = = , ! , ! , = ! ! = ! ) ' ! = = ! ' ' ' ' * * * * # * ) ) # = = = = % # # # # # # # # # d d - - - # * # - # # * # # ' ' 0 # ",
"L $ @ 2 @ @ 3 3 # 2 2 2 2 2 3 2 3 4 4 3 # 3 3 0 3 3 3 0 0 # 3 3 3 3 3 3 3 0 0 2 3 2 2 @ @ e e @ @ @ @ e @ @ @ e 2 @ @ @ 2 2 2 @ @ $ $ F $ r $ $ $ @ $ $ # F @ @ $ $ # # % % $ $ $ % r $ $ % % $ $ $ 2 @ $ $ $ 2 $ 2 e @ $ $ 2 e $ $ $ $ F F $ $ F F F F e e F F @ F e @ $ F e @ e F F F @ F e e e e e e F F e F F F F r F F F $ F F F F $ $ $ $ r $ F F F r $ $ $ # d % % % % d d z ,.z 2.2.,.,.,.,.,.,.,.,.2.,.,.,.,.,.,.,.,.,.,./././.v ~.o.~.o.~.~.o.o.Y o.o.~.~.~.~.~.Y Y @.@.Y ~.~.~.w x p.x.z.z.z.A.C.y.y.y.y.y.p.*.N.=.=.=.N.N.f.f.f.=.=.f.f.f.f.f.=.=.=.=.f.f.f.f.f.f.f.f.f.f.f.=.f.f.f.f.=.=.e.e.e.e.=.=.=.e.e.e.e.e.e.=.>.-.e.e.e.-.-.-.>.$.h.a.j.|.* / 0 # = + + = = + ) = = ) ) , , , ! ! ! = ) = = ) = ) ! = ' ' * * ' * # * ' / # * # # # # = # # + + # # # # # d d d # d 0 * # # + # # # # 0 # # + ",
"L $ @ 2 3 3 3 3 2 3 0 0 2 3 3 2 3 3 3 3 # 0 # 3 3 3 3 3 3 # 2 0 3 2 0 0 0 2 3 @ l @ @ @ @ e e e 2 e e e 2 2 e @ e 2 2 e @ 2 $ 2 $ 2 @ @ $ $ $ $ $ @ @ $ # $ @ @ $ $ # # $ $ $ $ $ $ @ $ $ % % $ $ $ $ e e e $ e 2 2 $ e $ $ 2 @ 2 $ $ F e F $ $ @ @ F $ e @ e F e e e e F @ e F F e e e e $ e @ F F F F F e e F F F F r F F r F F F # # $ F # $ F $ $ $ ; $ $ # $ % % % % d d d d d ,.,.2.2.,.,.,.,.,.,.,.,.2.,.,.,.,.,.,.,.,.,.,./././.v ~././.~.o.o.o.o.o.~.~.~.~.~.~.o.Y i @.@.Y ~.v w h x t.C.z.y.C.z.C.y.y.C.y.j.#.N.=.*.f.f.N.N.f.=.*.f.f.=.>.f.f.f.=.>.>.=.f.f.f.f.f.f.f.f.f.f.f.f.f.=.f.f.=.=.e.e.e.e.g.=.=.=.e.e.e.e.e.=.e.-.-.-.-.-.-.-.>.*.>.h.a.j.t.x / / * % $ = = , ) ; = , , , , ! ! ! ) ! ! ' ' ) ) ) ) * ' ) * * ' * / ' / # 0 # # 2 # % # % # # # # # 3 # # # # # # # 3 # # # # # # # # 2 0 # # ",
"L @ @ e $ 3 3 2 2 0 3 3 3 3 3 2 2 2 0 3 3 3 3 3 3 3 3 3 3 0 3 3 3 3 3 3 4 4 3 3 3 2 2 @ @ @ @ @ @ @ e 2 2 e @ @ 2 2 2 e e e 2 2 2 $ $ $ $ $ @ @ $ # $ @ @ $ F $ $ $ $ $ $ $ $ $ $ $ $ $ r @ $ $ e 2 $ 2 e 2 $ 2 2 2 2 @ $ $ $ e $ $ $ $ F F $ $ @ e F F e @ F F @ @ e $ F n e F e e e e e $ @ e F $ F F F e F F @ F $ F F F @ F F F $ $ $ $ # $ r $ $ $ $ $ $ # r % # d % % % d d ,.,.,.z 2.z ,.z z ,.,.,.,.,.,.,.,.,.,.,.,.,.,.,././.v ~.~.~.~.o.o.~.~.o.o.~.o.o.~.~.~.Y Y i i i Y /.v w h j.x.z.C.C.C.C.y.y.C.y.t.:.N.;.*.f.f.N.;.f.=.=.=.=.f.=.>.f.f.T.f.=.=.f.f.f.f.f.f.f.f.f.f.f.=.f.=.=.f.=.=.=.g.e.e.e.=.=.=.=.e.e.e.e.e.-.e.-.-.-.-.-.-.-.).-.>.>.:.9.x x x / * 0 3 % $ + = & = + + + & ) , ) = = ! ' = ' * # * * * * # # a # / # a # 0 3 # # # 3 3 # # 3 3 0 # 3 3 6 3 3 3 3 2 2 3 3 3 3 3 2 0 # 0 2 # * ",
"L F @ @ $ @ 3 % 2 # 3 3 0 3 2 2 3 3 3 2 3 3 4 3 3 4 3 0 0 0 3 3 2 3 3 3 3 3 3 2 2 2 2 2 @ @ @ n n l e e e @ @ e e e @ @ @ @ @ @ 2 $ $ $ @ @ $ $ $ $ $ $ r $ $ $ @ @ @ @ @ $ $ @ @ $ $ F @ e $ $ e e e 2 2 $ e $ $ e e @ $ 2 $ 2 $ $ $ $ $ e $ $ F $ F e e e F F e e e e F e F e @ F $ @ n F $ e e e e e F e F F @ F F F F F F F F F $ - $ $ - # $ $ $ $ $ $ $ - $ # # - d % % % % w 2.,.z z z ,.z z ,.,.,.,.,.,.,.,.,.,.,.,.,.,.,./.v v ~.~.o.o.o.~.~.~.o.Y Y o.o./.Y o.o.Y Y i i Y v {.w x x.C.C.y.C.C.y.y.y.C.H.!.;.N.;.K.N.f.T.f.=.=.=.f.f.f.f.f.f.f.f.f.f.=.=.=.f.f.f.f.f.f.f.f.f.f.=.=.=.=.=.=.=.=.e.g.=.=.=.=.=.e.e.e.e.e.e.e.f.-.-.-.-.-.-.-.-.-.-.$.:.m a.f / * 0 0 0 $ $ + & ) & & + & = $ + = + ' + # + # # # # # # # # # # # 3 3 3 3 3 3 0 a 0 0 # # 0 3 3 0 3 6 6 3 3 3 4 3 2 3 2 2 4 3 2 0 0 0 3 0 * ",
"L F k @ 2 3 % # 2 3 3 3 3 4 3 0 2 3 3 0 # 0 3 # 0 4 # # 3 0 # 4 0 3 3 0 0 3 3 3 3 @ @ 2 e @ e e 2 e e e e e e @ e 2 e @ @ 2 2 2 @ @ $ $ $ @ $ $ $ r $ # $ @ r $ $ $ F $ $ @ $ $ @ e $ F @ F F e $ $ e 2 e $ @ $ $ 2 2 2 $ 2 $ e $ $ $ $ $ F $ F e F F e F e e F e e F e e e e e e e F e @ F $ e e e e F F e F $ F F F @ F F F F F F $ - $ $ $ $ $ $ # # # $ $ - F # r % d d % % d ,.z ,.,.z z ,.z z z z z z ,.,.,.,.,.,.,.,.,.,././.~.~.~.~.~.~.~.~.~.Y Y Y Y Y Y Y Y Y o.Y Y i Y ~.~.~.w |.y.C.y.C.C.y.y.y.y.y.I.$.;.*.;.K.K.K.f.=.=.=.f.T.;.T.f.f.f.f.f.f.f.f.=.=.f.f.f.f.f.f.=.f.f.f.=.=.=.=.=.=.=.=.g.g.=.=.=.=.g.e.e.e.e.e.e.e.=.-.-.>.>.>.-.-.-.-.).-.$.:.^.a.x x a 0 0 + # 0 $ + $ + & $ + $ $ = # + # # # 3 # # # # # a # # a a a / a 0 a 4 4 6 3 3 3 4 3 3 4 3 3 6 6 0 3 3 3 4 4 l 3 3 3 3 3 3 0 0 3 3 # ",
"b.F n e e @ 3 2 2 2 3 3 2 3 3 0 3 3 3 3 3 3 3 # 0 3 # 0 3 2 0 3 0 0 0 0 3 3 3 2 2 @ l @ e @ @ 2 2 e e e e @ e 2 2 2 @ @ 2 2 2 2 @ @ # # $ @ $ @ $ @ $ $ # $ $ @ $ $ $ $ $ @ $ $ F @ F F F F e e $ 2 e $ e $ e $ 2 e $ 2 $ @ $ 2 $ $ F $ $ F $ F e F F F $ e @ F e @ e $ e @ e e e F e e F e @ e F F e F $ e e F F F F r F F F F F F F $ $ $ # F F $ $ F $ $ $ - F $ % % # d d d d d d ,.z ,.,.,.z z z z ,.z ,.,.,.,.,.,.,././.,.v ~.~.~.~.~.~.~.~.Y Y Y Y Y Y Y Y Y ~.Y Y i Y Y Y v w w j.x.C.C.C.C.C.y.y.y.y.E.^.;.*.>.f.;.N.N.N.f.g.e.f.T.N.;.f.f.f.;.;.f.f.f.f.f.f.f.f.f.f.=.=.f.f.f.=.f.f.f.=.=.g.=.g.g.e.e.e.e.e.e.e.e.e.e.-.-.-.-.-.>.>.>.>.-.-.e.>.-.$.>._.^.m 9 f / a 0 3 3 2 $ 2 & 2 2 2 2 2 # 2 2 0 # # 3 # # 0 # # a a a a a a 3 a 3 5 4 4 4 4 4 6 6 6 4 3 3 4 4 4 3 3 4 4 4 4 a a 4 3 3 4 a a 0 0 3 # ",
"k F n F F @ @ 3 2 0 0 2 2 3 3 0 3 l 3 3 3 3 3 # 0 3 3 3 3 3 3 3 # 2 3 3 3 3 3 2 2 2 @ @ @ @ @ @ l @ e e @ @ @ 2 2 e @ @ 2 2 2 e 2 $ $ @ @ @ $ $ $ $ $ $ $ 3 $ $ $ $ $ $ F e $ $ e e F F e e e e e e 2 $ e 2 $ $ 2 e $ e 2 @ $ $ $ $ F $ $ F $ F e $ F e $ F @ F F F e e e F e F F e e @ F e F e F F F e F e e F r F F F $ F r F F F F $ $ $ $ F $ $ F F ; $ F $ $ $ # # % % d d d % ,.,.z ,.,.,.,.,.z ,.,.,.,.,.,.,././.v v v v ~.~.~.~.~.~.~.~.~.h h Y Y Y Y Y Y Y Y Y Y Y Y Y h h {.z x.x.C.C.C.y.y.y.y.y.H.9.=.K.;.;.;.;.;.=.K.g.=.f.f.T.;.;.f.f.=.f.f.f.*.*.f.f.f.f.f.f.f.=.=.=.=.f.f.f.=.=.=.e.e.e.=.e.e.e.e.-.e.e.e.e.e.e.-.e.>.=.>.-.-.-.>.$.).e.=.>.-.$.>._.:.m 9 / a 0 a 0 0 $ 2 + $ 2 2 2 2 2 3 2 0 0 0 # # # # a # a a a a a 0 3 a 4 5 4 4 4 6 6 7 6 6 7 4 4 4 3 3 3 3 4 a 3 4 0 0 0 + + 3 0 0 0 + 0 0 ",
"k @ n @ $ 2 % # 2 3 3 3 3 l 3 # 0 3 0 0 2 3 3 0 2 3 3 0 2 # 3 3 2 3 3 3 3 3 3 l @ 2 2 e @ e e @ @ @ @ @ e e @ @ @ 2 e @ @ e 2 e e e @ $ $ $ $ $ e F $ # $ @ @ $ @ @ $ $ e $ F e e F F e e e e e e e $ $ 2 e 2 e 2 e & $ $ e $ e $ $ F $ $ F F F F $ e @ F F @ F e e e F F F @ F F @ F F F e e @ F F F e e F F F e F F F $ F r F F F F F $ $ F F $ F r F $ $ F F $ - - # # d d % ,.,.,.,.,.,.,.,.,.,.z ,.,.,.{.w ,././.v ~.v ~.~.~.~.~.~.h h h h h h h Y Y Y Y Y Y Y i Y ~.Y i Y ~.h h |.C.C.C.C.C.y.y.y.y.H.p.).;.;.K.K.;.f.f.g.T.=.f.T.T.T.T.f.f.f.>.>.>.>.>.=.f.f.=.f.f.f.f.=.=.=.=.f.f.f.=.=.=.e.e.e.=.>.e.e.-.-.-.e.e.e.e.-.-.-.e.*.*.>.-.-.-.-.).).>.>.e.-.$.).$.:.^.a.9 x 0 0 0 0 @ 0 0 2 2 2 2 $ 2 # 2 3 a # # 0 0 a a a a # # a a 4 5 5 5 5 5 5 6 4 5 6 5 4 3 3 4 0 0 0 0 a 3 a 5 a a # * * + + # # * * * ",
"k r @ @ e @ 3 2 2 # 3 3 2 3 3 2 3 3 3 3 2 3 3 2 2 3 2 2 3 2 3 3 0 0 3 3 2 2 2 3 @ @ @ @ @ e e e e e e 2 2 @ @ e e e e e e e 2 2 2 2 2 $ $ @ @ $ $ $ @ @ $ # $ @ $ $ $ $ e F $ e e $ e e e e e 2 e e 2 2 $ 2 2 @ $ e $ e $ e e e $ $ $ $ $ $ $ $ e $ e @ e $ F F e F @ F F F F F e @ F F e e F e e F F F F F F F F F r @ F F r F F F $ F $ ; F r ; F F $ F $ F F $ ; # # d d % % % d ,.,.w ,.,.,.z ,.z w w w {.w w ~.w w h ~.~.Y Y Y Y Y Y h Y Y Y Y Y Y Y Y Y Y Y i i ~.Y Y Y Y w h h B X.z.C.y.C.x.x.y.y.t.:.*.*.;.;.;.=.=.-.=.N.f.f.f.f.f.f.f.>.>.f.*.>.>.>.f.f.f.f.f.f.f.f.=.=.=.f.f.=.>.=.=.e.e.e.>.=.>.e.e.-.-.e.e.e.e.e.-.-.-.).-.=.-.-.-.$.-.-.-.-.-.e.-.>.>.*.-.+.^.m f f a a + 3 2 2 2 0 2 n 2 3 2 3 3 3 3 3 3 a a a a 3 3 5 a 5 5 5 5 5 6 6 7 6 5 4 5 4 4 4 4 4 a a 3 a a a a 4 0 0 * / * * 0 0 * * 0 # ",
"b.r @ @ e e 2 @ % % 2 3 $ 2 3 2 3 3 3 3 2 3 3 3 2 2 2 2 2 2 2 2 4 l 3 2 2 3 3 @ @ @ @ @ @ @ @ e e e e 2 2 @ @ e e @ @ e e e e 2 2 e e $ 2 @ @ 2 $ $ @ $ $ $ $ 2 $ $ $ e @ e F 2 $ 2 e e e e e e e e e e 2 2 e e 2 e e e e F e e $ n $ $ e $ $ $ F $ $ @ @ & $ F F F @ F e F F F F F @ F e @ F & & F F F F F F F $ J r J e F r r F F ; F F $ F F F Q F ; r F F @ $ ; $ $ # d % % d d ,.,.w w w /.,.w w w {.w w w ~.~.{.~.~.Y Y Y Y Y i i Y Y Y Y i i i i Y Y i i Y i ~.~.Y Y j h Y Y z y.X.X.C.C.y.y.y.y.x.p.*.K.N.*.=.f.=.-.-.f.N.f.f.f.f.;.f.>.>.f.f.f.>.>.f.f.f.f.=.=.f.f.f.f.e.=.f.f.e.-.e.>.>.>.>.=.=.e.e.e.e.e.e.e.e.e.e.e.-.-.-.-.>.>.-.>.>.e.e.-.-.-.-.-.-.f.-.-.>.$.:.m 9 f a 0 0 0 2 2 2 7 @ 2 3 8 l 3 6 6 5 5 4 6 3 a 5 5 5 5 5 5 5 5 5 6 6 4 6 5 4 7 4 4 4 4 4 0 4 4 a 0 0 0 0 / / / 0 0 * * 0 * 0 0 0 ",
"L @ @ @ e $ 2 @ 2 2 3 l @ @ @ 2 @ 3 3 3 3 3 3 2 2 # 2 2 2 2 2 2 2 2 2 3 3 @ 3 @ @ @ @ @ @ @ @ @ @ @ @ @ @ @ @ e @ @ @ e e @ @ e 2 2 2 @ @ @ k @ 2 2 2 $ $ $ $ $ $ $ $ $ $ e $ e $ $ $ 2 e e e 2 2 2 2 @ 2 2 e 2 e @ $ e e F e F $ @ # # @ @ k e $ F @ $ e F & & ; e e F @ F F e r F J $ F r F e J r F F r r F F F r F r e F r r F $ $ ; $ F F F r F F F F ; F F $ $ $ $ # # % d - d % w v w w ~.{.v w w w {.{.~.~.~.h h h Y i i Y i i i Y h Y i i Y i i i Y h Y Y h h Y o Y @.h Y w x.C.C.z.z.C.y.y.y.x.t.^.*.;.*.=.=.;.f.=.=.=.f.f.f.;.;.;.f.f.f.f.f.f.=.f.f.f.=.=.=.f.f.f.f.=.g.g.f.f.>.-.-.e.>.>.=.=.=.>.e.e.e.e.e.e.e.e.e.e.e.e.-.-.-.>.-.e.e.-.-.-.-.-.-.-.-.-.>.=.-.-.).:.m 8 4 + # # 0 0 3 3 2 2 2 2 2 2 2 2 @ 6 3 a a a 4 3 a 5 6 3 5 6 6 6 6 5 6 4 3 4 4 4 3 4 4 a 0 a a a 0 0 0 0 0 0 0 0 0 * 0 0 0 / 0 ",
"L J e e @ @ e k 3 @ 3 3 @ @ $ 2 3 2 2 3 3 3 3 2 2 3 2 2 3 3 3 3 2 2 3 @ @ 2 2 @ @ @ @ @ e 2 2 @ l @ @ @ @ @ @ e e e e e e e $ $ 2 2 e @ 2 $ 2 2 2 e 2 $ $ $ $ 2 2 $ $ e e e e e e e e e e e e e 2 2 2 e $ 2 @ e e e e @ e $ e F F $ # $ $ # e e F @ k $ F e F F F F F F n @ r n F F F $ F J F F F F & & F r r r J J r r r F F r F F r $ $ F F ; F r ; F ; ; $ $ $ F ; - - d % d d % % v ~.v v h h h Y h ~.~.h h h i i Y h Y i i i Y Y i i i i i i i i i @.i Y Y Y ~.Y Y v Y i h h x y.C.z.C.z.C.y.y.y.x.9.*.*.*.*.=.*.=.;.f.f.*.*.f.;.;.;.;.f.f.f.f.*.f.f.f.f.f.=.f.U.g.f.f.f.f.f.g.=.=.f.>.-.-.>.=.>.>.>.e.e.e.e.>.e.e.e.e.e.e.e.-.e.-.-.-.-.-.e.-.-.-.-.-.-.-.-.-.-.-.).-.-.-.:.!.9 0 0 a a 0 0 0 a 0 3 2 2 3 3 l 6 6 5 4 5 5 5 6 3 5 6 4 4 6 5 6 6 4 4 4 4 4 4 4 3 3 a 0 0 a a 0 0 a a a a 0 0 0 0 * * 0 0 0 0 ",
"L @ $ F @ @ e @ 2 % 2 $ 2 2 $ @ @ 3 3 3 3 3 3 3 3 3 2 2 3 2 2 3 2 3 @ @ 2 2 2 @ @ @ @ k @ @ 2 2 e 2 e e e e @ @ @ @ @ @ @ e 2 2 2 2 2 2 2 2 2 2 $ $ 2 e 2 2 2 $ 2 2 e @ e e e e e e e e e 2 2 e e e @ @ e 2 e @ e e @ e & $ e $ $ e @ k e # $ $ F e F e @ @ e F @ @ F F J r $ @ r r e F F F ; F F F F F F r F F @ F F F F e r @ r F r r F F F F F r F r F F F $ F $ = + - - # d d % d d v v v h Y i i i i i i Y i i i i i i i i i i i i i i Y Y i @.i i i i i Y h h ~.~.Y Y Y h 9 |.C.z.z.C.C.y.y.y.y.t.&.N.$.$.=.=.=.=.=.=.=.*.f.f.;.;.;.;.;.f.f.f.f.f.f.f.f.f.=.g.g.g.g.f.f.f.f.g.e.=.f.=.-.e.>.=.e.e.e.e.e.e.e.>.>.>.e.e.e.e.-.e.-.-.-.-.-.-.-.-.-.-.-.-.-.-.-.-.-.-.-.-.-.=.-.:.^.a.5 4 4 4 a 0 a 0 4 4 3 l l 8 8 6 7 8 7 5 5 8 6 7 8 6 6 6 4 4 4 3 3 3 3 4 3 4 4 l 4 4 4 4 4 a 3 4 a 0 0 0 0 0 0 a a 0 0 a 0 ",
"b.J F e @ e e 2 2 # 3 2 2 2 @ l @ 3 3 3 2 2 3 3 3 3 2 2 2 % 2 2 2 2 2 2 e @ @ @ @ 2 2 2 @ l @ @ e e @ @ @ 2 2 e @ e e e @ @ @ @ @ e 2 $ $ @ @ e e 2 @ e $ $ 2 2 @ @ e $ $ $ e e e e 2 2 2 2 2 2 2 2 2 2 e 2 2 e e e @ e F e e F e e F $ F e F F @ k k F F k e F e @ r F r r & e F F F F r r F r F F F r F F F r e ; e r F J r r $ ; $ $ $ F r F r J r r F F ; ; ; - - - - - - d # d - - % % v h Y @.i i @.@.i Y i Y Y @.@.@.j @.@.@.@.i i i i i i Y Y Y Y i i i Y Y h h Y Y h i h x.O.z.C.y.y.y.y.y.x.p.$.N.$.$.*.*.*.>.>.=.=.=.f.;.;.;.;.f.f.f.f.f.f.f.f.=.=.=.=.U.g.g.g.f.f.f.=.f.=.f.f.f.>.>.>.>.>.e.e.e.e.e.>.>.>.e.e.e.e.-.-.e.e.e.e.-.-.-.-.-.-.-.-.-.e.e.-.-.-.-.-.-.-.-.-.+.+...a.9 4 4 a 4 4 a 4 3 3 7 7 8 6 4 8 7 7 8 6 4 6 6 6 l l 6 4 3 4 4 l 4 3 4 3 3 3 0 3 4 4 4 4 3 a a a a f a 0 a 0 4 4 4 f a a ",
"b.k @ @ e 2 2 $ 2 $ 2 2 3 @ % $ @ 2 3 2 2 3 2 3 @ 3 3 3 2 2 2 2 2 @ @ 2 e @ @ @ @ 3 2 2 @ @ @ e e @ @ @ @ e e @ e $ 2 e e $ $ 2 2 2 2 $ 2 @ e $ $ $ e 2 2 e @ e e e e $ $ $ $ e e e 2 2 2 2 2 e e e 2 2 e e 2 e e e e e e e F $ e $ $ $ e @ & F F F e F F o k $ e F r F r J F @ r r F F r r F J @ r F r F F F @ r ; r F ; r r r r F r $ ; r F ; F F F F $ F - $ $ - # - - $ d # # d # % d d % v h j i i i @.@.@.j j @.j j j @.@.j @.@.Y h h h h 5 % 5 8 8 Y Y Y Y i h h h h Y Y x x.C.C.C.y.y.y.x.x.t.^.*.;.*.=.*.N.*.=.=.=.=.>.*.f.;.;.;.f.f.f.f.f.f.f.=.=.=.=.f.f.g.e.g.g.f.f.g.g.f.=.>.=.f.f.e.>.>.e.e.e.e.e.e.e.>.e.e.e.e.-.-.e.e.e.-.-.-.-.-.-.-.-.e.e.e.-.-.-.-.-.-.-.).+.).-.+.:...m 7 4 7 7 7 4 4 4 6 8 7 7 7 6 7 5 5 7 6 4 6 3 3 l 4 4 4 4 4 4 3 3 3 4 3 3 4 4 4 4 3 3 4 4 4 4 4 4 4 4 4 4 4 4 f f f 4 4 ",
"b.F @ @ $ 2 @ 2 @ 3 3 3 @ l $ + @ 3 @ 3 @ @ 3 @ 3 2 3 3 2 3 2 % 2 3 @ l l @ @ @ @ 2 2 @ @ 2 2 2 e @ @ @ @ 2 2 @ @ $ $ e e 2 2 @ e e @ 2 $ $ $ $ 2 2 2 2 2 @ @ @ @ e e e e e 2 2 e @ @ e 2 2 2 e e e e @ e @ e $ @ @ $ e e $ F F e F F $ F F ; @ @ $ e k $ F $ ; e F r r @ k @ @ r e F F F F F r r r r r r F $ F $ ; F e r r F F @ $ r F $ r F F F r r F F F $ F $ - $ - - $ % $ - - % @ % d d % % h Y Y i i i i i i i i j j i i i i Y h 5 a % 0 / # # # 0 6 8 Y Y Y h h h h i w H.y.y.y.C.y.y.y.x.H.p.$.;.*.*.*.*.*.*.f.f.=.=.-.>.*.f.;.;.f.f.f.f.f.f.f.f.f.f.=.f.f.=.g.e.g.f.f.g.e.f.=.>.>.f.f.e.-.>.e.e.-.e.e.e.e.e.e.e.e.-.-.-.e.-.-.-.-.-.-.-.-.-.e.-.e.-.e.-.-.-.-.-.-.-.-.-.-.-.-.-.+.!.m m 8 8 8 4 4 7 8 6 6 7 6 6 5 4 l 3 4 6 4 4 l 3 3 3 3 3 4 l 4 4 7 4 4 l 4 4 4 4 4 4 4 4 l 5 4 4 4 4 7 4 4 / a 4 4 4 ",
"b.F n n $ $ l @ 3 2 l @ @ @ @ 2 @ @ 2 2 3 3 3 3 2 2 3 3 2 3 2 2 2 2 @ l @ 2 2 2 2 2 @ k l @ 2 2 2 2 2 e @ 2 2 @ k @ @ @ @ @ @ @ 2 $ 2 2 2 2 2 e e 2 2 2 2 2 e e e e $ $ $ $ 2 2 e 2 2 2 2 e e e 2 2 2 2 2 e e $ e @ e e @ F F e e F $ F F F & @ k e @ o F F F & F r @ F F r F r r r F & F r F F F F F F r r F F r r $ F F $ F F F $ $ F F F r r ; r F $ r $ $ $ $ F $ # - - $ # - - # % % # # d - - % % 6 6 5 6 5 6 8 6 o 6 6 6 % 2 3 3 # / / ' ' / / ' / 3 6 h h Y h h h h i x H.y.y.y.y.y.y.y.y.E.9.$.=.=.*.*.*.*.=.*.f.f.f.*.*.*.f.;.f.f.f.f.f.f.f.f.f.f.f.f.f.f.f.g.g.U.f.f.=.g.g.>.>.>.f.>.e.e.>.>.e.e.>.e.e.e.-.-.-.-.-.-.-.-.-.-.-.-.-.-.-.-.e.e.-.-.-.e.-.-.-.-.-.).-.-.-.).).-.).).:.:.!.m 8 8 7 5 4 4 4 4 5 6 5 5 4 l 2 3 6 4 4 6 3 3 4 4 3 4 l 4 4 4 4 4 l 4 4 4 4 4 4 4 4 4 4 4 4 4 4 4 4 4 a a a 4 4 ",
"b.@ @ @ e $ 2 2 + + 2 # % $ 3 @ 3 @ 2 2 3 2 3 @ 2 2 3 2 2 2 2 2 2 2 2 @ e 2 e @ @ 2 2 @ @ @ 2 @ l l @ 3 @ 2 2 2 2 $ $ 2 2 $ 3 @ e 2 2 2 2 2 @ @ 2 2 2 e e 2 $ 2 e 2 $ $ $ 2 e e 2 2 2 2 2 e e 2 2 2 e e e e e e e @ e F e F F e F F e r F e F F & F F F F J J J F F F r r F F F F F J F r @ F $ F F F F @ F F r r r $ $ F $ F F F $ ; F F F r r F r F F r $ F F r r r $ - - - # # - - # $ $ $ # - - - { / # * # ' / # * # # * # + # + # * * # * * * * - # # # 3 6 Y h h h i i x H.y.y.y.y.y.y.y.H.p.&.$.*.*.*.;.;.;.*.*.;.N.N.N.;.f.f.;.f.f.f.f.f.f.f.f.f.f.f.f.f.f.f.g.g.f.f.f.f.g.e.>.f.=.>.>.>.>.>.e.e.e.e.e.e.e.e.e.e.e.e.e.-.-.-.-.-.-.-.-.-.-.-.-.-.e.e.-.-.-.-.).-.).-.-.-.).).-.).-.).).:.:.!.m 8 7 4 4 4 3 l 6 6 6 4 4 4 3 3 0 3 4 3 4 4 l 4 4 4 4 4 4 4 4 4 4 4 l 4 4 4 5 4 4 4 4 4 4 4 f 4 4 4 a a a a ",
"b.@ $ $ l @ 2 2 2 2 2 # 3 2 3 @ @ l @ @ @ 3 @ @ 2 @ 3 2 2 2 2 3 3 2 2 e @ @ @ @ @ 2 $ 2 @ @ @ 2 @ @ 2 3 @ @ 2 3 @ 2 2 @ 2 2 3 @ 2 2 2 2 2 $ 2 2 2 2 e e e 2 $ 2 2 $ 2 @ @ @ e $ 2 e e e e e e e e 2 e e e 2 e @ 2 e @ e e F F e F F F e F F F e F e F $ F e $ F F r F F @ F r @ r F J F r J F $ F F F F r $ $ r F @ @ @ @ F F ; $ F F $ ; $ F ; r F ; $ F $ r r r F F $ r r # # $ # $ r $ $ $ # % # = ' % 3 d # # # 2 # 2 2 # 2 $ + + # = # # # # # = * = # # % 3 8 h h h i ..t.G.y.y.y.y.C.C.H.p.:.*.*.;.;.*.;.K.K.;.*.f.f.f.f.f.f.f.f.f.f.f.f.f.f.f.f.f.f.f.f.f.f.f.f.f.f.f.f.f.e.-.e.f.=.>.-.>.>.>.>.e.e.e.e.e.e.e.e.-.-.-.-.-.-.-.-.-.-.-.-.-.-.-.-.-.-.-.-.).-.-.-.-.).-.-.-.-.-.-.-.-.-.-.).:.:...m a.7 4 4 4 4 7 6 7 4 a 4 3 3 3 3 3 3 4 3 4 4 4 4 l 4 l 4 4 4 4 4 l 5 7 7 7 4 4 7 5 4 5 4 4 4 4 4 a a 4 a ",
"k F $ $ @ 3 @ @ 3 3 3 2 3 3 2 2 @ @ 3 @ @ 3 3 2 2 2 2 2 @ @ @ @ @ @ 2 2 2 2 2 2 2 @ @ @ @ @ @ 2 2 @ 2 3 @ @ 2 3 @ 3 3 3 2 2 @ @ 2 2 $ 2 @ @ @ 2 2 @ e 2 2 2 2 e $ $ $ e e e e e 2 2 2 e e e e 2 2 2 e 2 e e 2 e e e e e e e F F F & ; e r & & F k o e @ @ @ F $ F @ F r J F F @ @ F J F F F F F e @ F F $ $ F @ F r r @ @ $ $ F $ F r $ ; F r F k F F F F F F F $ $ $ $ r @ $ - $ # r @ $ F $ # % @ # d % # * ) # # # # + + + # 2 + % % % % # = ' = + + = # % # # # 7 8 h m h |.G.y.C.y.z.C.H.a.+.$.;.=.*.;.*.;.K.;.;.f.f.f.f.f.f.f.f.f.f.f.f.f.f.f.f.f.f.f.f.f.f.f.f.f.f.f.=.f.f.g.e.e.>.>.e.e.>.>.>.>.>.e.e.e.-.e.-.e.e.-.-.-.-.-.-.-.-.-.-.-.-.-.-.-.-.-.-.-.-.).-.>.-.).-.-.-.-.-.-.-.-.-.-._._.+.+.^.m a.9 4 f f l l l 7 3 a 4 5 5 4 4 4 4 4 4 4 4 4 4 4 4 4 7 7 7 7 7 8 5 4 7 7 5 5 4 4 5 4 7 7 4 4 4 4 4 4 ",
"b.@ k @ 2 $ 3 3 % 2 3 3 3 3 2 # @ 2 @ @ @ @ 2 2 2 2 2 2 @ e @ 2 2 2 2 2 2 @ 3 2 @ @ @ 2 2 2 @ @ @ @ 2 2 @ @ 2 3 3 2 3 @ 2 $ 2 2 2 2 $ 2 @ 2 2 e e @ 2 $ $ $ 2 @ 2 $ $ $ F e e e $ $ $ 2 e e e 2 2 2 2 2 e e 2 e @ e e e e e e F e e r F F e F F e n e F @ e e e e F F r k r F F F & r F r r F $ F F r F $ F @ F F F $ r @ $ $ @ $ r @ F F F r F F ; F F F r F $ $ $ $ - $ $ $ $ F $ F $ # $ $ - # # # # - # 3 * ' + = + + # + ) + # $ # = + + = = = + # + + # # # ~ 3 8 Y i p.H.G.y.C.C.z.x.9.$.*.*.;.*.*.;.;.N.;.;.f.f.;.;.f.f.;.;.f.f.f.f.f.f.f.f.f.f.f.f.f.f.f.f.f.f.f.f.=.f.g.e.e.e.e.>.>.>.e.e.>.e.e.e.e.e.-.-.-.e.e.-.-.-.-.-.-.-.-.-.-.-.-.-.-.-.-.-.-.-.-.-.-.-.>.-.-.-.-.-.-.-.-.-.-.-.:.$.-.)._.^.m a.9 4 f 4 3 3 7 4 4 a 3 a a 4 4 4 4 7 7 4 4 4 4 7 7 7 7 9 5 5 7 4 4 5 4 4 4 4 4 4 f 4 4 f a a 0 a 4 ",
"b.n k @ e 2 % 2 2 2 2 3 3 l 3 $ l @ l @ @ @ 2 2 @ @ 2 @ @ @ @ @ @ @ @ @ @ @ @ 2 2 @ @ 2 2 2 2 2 2 @ 2 3 @ 3 2 2 2 2 2 3 3 2 @ @ @ @ @ @ @ 2 2 2 $ $ $ 2 @ 2 2 e $ $ e @ @ e e 2 2 e e e e e e e e e e 2 2 e e @ e $ @ e F e e F F F @ F F k @ e $ $ F F @ @ e F e e F F F F F r @ r r r r F F F F F F F F F F F r F $ F F F F F $ $ r $ r F F F ; F F F F F $ $ $ $ $ $ $ $ $ F F F F $ # $ $ # # # - - # % 3 % # = = $ $ # & ; ; = ; + = ! + & + + + & & & # $ # + % 5 m i p.H.F.y.C.C.G.a.#.*.*.=.*.;.*.*.N.N.f.f.>.f.f.=.>.>.f.f.f.f.f.f.f.f.f.f.f.f.f.f.f.U.U.f.f.f.f.U.g.e.e.U.f.e.e.e.f.f.e.e.>.e.e.e.-.e.e.-.-.-.-.-.-.-.e.-.-.-.-.-.-.-.-.-.-.-.-.-.-.-.-.).).).-.e.).).).-.-.>.-.-.-.-.-.-.).+.+.&...m a.9 f f 0 0 2 0 4 0 a a a 4 4 4 4 9 4 4 7 9 4 9 5 7 7 8 8 7 9 5 9 7 5 4 4 4 4 4 4 4 4 4 a a a a 4 ",
"b.@ $ 2 e 3 2 2 3 0 # 3 2 3 2 2 @ @ @ @ 2 @ e @ @ @ @ @ e e @ @ @ @ e e @ @ @ @ 2 2 3 2 2 2 2 2 2 2 2 3 @ 3 3 @ @ 3 3 3 3 2 2 2 2 e e 2 2 2 2 e 2 $ $ e 2 $ $ 2 @ e 2 e e e e e e e e e e 2 e e 2 e @ e e 2 e n e $ @ $ $ e e F F F F F F & $ e e $ @ @ $ $ $ $ F e F @ @ @ F F r r F r F F F F e @ F @ @ $ ; F F F F $ $ r F F F $ J $ F r F F F r r r r F F F F F $ F r F F F $ $ F $ $ $ $ # # # - # # # = # $ # + # # + & ; ; ; ; # # ; + ; ; ; $ $ & + ; ; = F $ = 3 w |.x.G.C.z.y.p.$.*.=.N.*.;.K.*.>.N.;.f.f.f.f.f.*.=.=.f.f.f.f.f.f.f.f.f.f.f.f.f.f.f.f.U.U.f.f.f.g.e.e.e.f.f.e.e.>.f.f.>.e.e.e.-.-.-.-.e.-.-.-.-.-.-.-.e.e.-.e.-.-.-.-.-.-.-.-.-.-.-.-.-.-.).).).-.).).).-.-.-.e.).).).>.>.-.-.-.)._...!.m 9 f f 4 4 3 3 a a a f 4 4 4 4 7 9 4 8 7 4 9 9 5 4 4 4 9 7 9 5 9 9 4 4 9 9 4 4 4 4 4 4 4 a f 4 ",
"b.@ $ @ @ 3 3 l 3 # 2 3 # % % 3 3 @ @ @ @ @ @ @ @ @ @ e 2 2 2 2 e @ 2 $ $ 2 2 $ @ @ @ 3 2 2 @ @ 2 3 2 3 3 3 3 @ @ 2 2 3 2 $ # $ $ % % $ e @ e @ @ $ 2 @ 2 $ 2 2 2 2 2 $ $ $ 2 e e 2 $ $ 2 2 2 2 e e 2 & 2 e 2 @ e e e $ k k F e e @ & F @ $ e e e $ @ @ $ # + ; $ @ @ @ @ @ @ e F F $ F F e F F F $ $ F n @ r @ F $ F $ ; F F F F ; F F ; r r F F J r F F F F F F F F F @ F F F $ $ F $ $ $ $ # # # # # # = ' = # % + = = ; $ $ F ; = = ; & $ $ ; ; $ $ ; , ; & ; , ; ' / ( H.G.G.y.G.p.$.K.=.=.=.=.;.;.;.;.;.;.;.;.f.f.T.;.;.N.;.f.f.f.f.f.f.f.f.f.f.f.f.f.f.U.U.U.f.f.f.=.e.>.=.f.=.e.e.>.>.>.>.>.e.e.e.-.e.e.e.e.e.e.e.-.-.-.-.e.e.e.e.-.-.-.-.-.-.-.-.-.-.-.e.>.-.-.-.e.).).-.>.-.-.e.-.).-.=.>.-.=.>.-.+.+.&...m 9 9 9 5 l 4 4 a a 4 f 5 9 4 7 7 4 9 9 4 9 9 9 9 9 9 8 8 7 9 7 8 7 5 7 7 7 7 7 4 9 7 7 4 4 4 ",
"b.@ e @ 3 3 3 3 2 # 3 3 3 3 2 @ 3 @ 2 @ @ @ @ @ e @ @ @ @ @ e e @ @ 2 $ e @ @ 2 2 @ 3 2 $ 2 @ 3 2 2 3 3 3 3 3 3 @ 3 2 @ 3 2 3 3 3 @ 2 2 @ @ 2 2 @ 2 2 2 $ 2 @ e 2 e @ 2 $ $ 2 2 e e e 2 $ 2 2 e @ e e $ e @ e e @ @ $ $ k e $ $ F @ F F e F e e e $ 2 # 2 2 # # $ F F r F r F F F F F $ $ F F F F r @ F F @ F F $ $ @ @ $ $ $ F F $ $ r ; F r r F J r F F F F F @ F F F $ F F r @ r F $ ; $ $ $ $ $ # # # # # = # % + + = ; & ; ; ; + + ; ; ; $ F ; ; $ ; ; ; = > > ; = # ( H.F.F.H.9.#.;.=.-.g.5.>.;.*.;.;.>.f.;.f.f.-.f.f.;.N.f.f.f.f.f.f.f.f.f.f.f.f.f.f.f.f.f.f.f.f.f.=.e.>.f.f.>.>.>.=.>.>.=.>.e.e.e.e.e.e.e.e.e.e.e.-.-.-.-.e.e.e.e.-.-.-.-.-.-.-.-.-.-.-.-.-.-.-.-.).).).).-.-.-.).).f.-.).-.-.-.-.-.).).-.` ..a.9 5 4 4 3 0 0 a f f 5 7 4 7 7 9 9 7 9 4 4 9 9 4 4 4 4 4 5 5 9 4 4 7 9 4 5 5 7 7 9 7 4 4 7 ",
"k @ @ @ e 3 3 3 3 3 3 3 3 3 2 3 3 3 $ e @ @ @ @ e @ @ @ @ @ @ @ @ @ @ $ @ @ @ 2 $ $ $ 2 $ 2 3 2 2 2 3 3 2 3 3 3 @ 3 2 @ @ 2 @ @ @ @ 3 @ @ @ 2 $ 3 2 2 2 $ 2 @ @ 2 @ @ e @ $ e @ e e e e $ e $ e e e $ e e e e $ e e e $ $ F $ $ F e e e e $ e @ e $ $ e e e @ e F F F F F F $ F $ F F $ $ F F F F r J F J F $ F $ $ @ F $ $ $ @ r ; F F $ r r r F ; F F F r F $ @ F F F F F F k r F F $ ; $ F $ $ $ # ; + # # + # # + # $ + # $ = ; = & & ; ; $ ; , = $ ; ; & ; V ; Q ; - ) Y.M.y.p.+.;.;.*.=.f.f.=.;.;.;.;.f.f.;.f.f.;.f.T.T.f.f.f.f.f.f.f.f.f.f.f.f.f.f.f.f.f.f.f.f.f.f.=.>.>.=.=.>.>.>.=.=.=.=.>.e.e.e.e.e.e.e.-.-.-.-.e.e.e.-.-.e.e.-.-.-.-.-.-.-.-.e.e.-.-.-.-.-.-.-.-.-.).).).-.-.-.).-.-.-.-.-.-.-.-.).-.).-.` :.m 9 f 4 4 0 0 a f f f a 4 5 7 9 5 9 5 9 5 5 9 9 4 9 9 4 9 9 9 4 4 9 7 5 4 4 7 7 4 8 7 4 7 ",
"k e @ 2 e @ 2 3 l 3 3 3 % % % % 2 2 $ e e e @ @ @ e F $ $ @ k @ e 2 @ 2 2 2 2 2 $ 2 2 @ @ 3 3 3 3 3 3 3 3 3 2 2 @ @ $ 3 2 2 3 % $ $ % $ $ $ @ 3 @ @ @ @ @ 2 2 2 2 2 2 @ @ 2 e @ @ e e e F e F $ $ $ e e e e e e F F e e F F e e F e e @ @ e e e $ $ e e e e e F F F F F F F $ $ F F F $ @ @ @ r F r J F F F F $ $ $ $ $ $ F r J r F F F F r F F F F F F F F F ; r F $ F $ F F r r F ; $ ; F F ; ; ; # - + # # # # + + # # + # $ ; = = = ; ; ; $ ; $ ; F ; Q F F F ; > ! + ~ Z.G.p.:.*.;.;.;.N.K.=.;.;.;.;.;.;.;.;.;.;.;.T.T.f.f.f.f.f.f.f.f.f.f.f.f.f.f.f.f.f.f.f.f.f.f.f.f.f.f.*.>.>.>.>.>.>.=.>.e.e.e.e.e.e.e.e.-.-.-.-.e.e.e.e.-.e.e.-.-.-.-.e.-.-.-.e.e.-.-.-.-.-.-.).).-.-.-.-.-.-.).).-.-.-.-.-.-.-.-.-.-.-.).-.` :.m 8 9 f 0 a f f a 0 f 4 4 5 5 5 5 5 7 9 9 9 7 7 9 4 4 7 7 9 4 7 7 9 9 9 7 7 6 7 8 7 4 l ",
"k @ @ e @ @ 2 2 3 % % 3 3 3 3 3 3 @ @ @ @ @ @ @ @ @ @ F $ e @ @ e 2 e @ @ @ e 2 @ @ @ @ @ 2 2 2 2 2 2 2 3 3 2 2 @ 3 2 e @ @ @ 2 @ @ @ @ 3 $ $ 2 2 @ 2 @ @ 2 e $ 2 @ @ @ @ @ @ $ $ $ $ e @ e e e e e @ e F F $ e e F $ e e $ F e e e e e F F e k e e k J F F F e e e F F F F $ $ $ # # $ $ F $ $ $ r J J F r @ @ F F F F F @ e F F F F F F F r F F F F r F r F F r F ; F F $ $ ; $ r F F $ F $ $ $ $ $ ; ; + # # # # # $ ; ; $ $ & $ & = ; & = ; ; $ = ; Q , ; ; Q ; ! ! ' ~ } x &.;.*.*.;.;.N.N.;.;.;.;.;.;.;.;.;.;.f.f.f.f.f.f.f.f.f.f.f.f.f.f.f.f.f.f.f.f.f.f.f.f.f.f.f.f.f.f.f.f.f.>.>.>.>.e.e.e.e.e.e.e.e.e.e.e.e.e.e.e.e.e.e.e.e.-.-.-.-.e.e.-.-.-.e.e.e.e.-.-.-.-.-.-.-.).-.-.).-.-.-.-.).).-.-.-.-.-.-.-.).).).$.$.&...m 9 5 f f f f f 5 9 f a a 4 4 5 7 5 4 4 4 4 4 4 4 4 4 f 4 7 4 a 4 4 4 4 4 4 l 7 n @ ",
"k k e e @ 3 2 3 3 % % 3 3 3 3 @ @ @ @ @ @ @ @ @ @ @ @ @ @ @ @ @ @ $ $ @ e @ e 2 @ l @ 2 3 % 3 3 % % % 2 2 2 2 3 2 $ @ e e @ e e @ @ @ @ @ $ 2 @ @ @ $ 2 2 2 @ 2 2 2 @ @ e @ @ $ e @ F e e e e $ F e e e e e F F e $ & F e F $ F $ F F F F e e J e e J J e e e e F F F e F F F $ $ $ $ r $ $ $ # $ F F J F F F F r F F @ @ e r ; F F F r F F r r F F F F F F F F F F F r @ F F $ F r F $ ; F $ $ ; ; $ ; $ $ ; + # + # $ ; $ $ ; & & ; , ; $ = ; & & ; ; ; V ; ; ; ; > ! ~ ( 5 &.;.;.*.;.;.;.;.*.;.;.;.;.;.;.;.;.;.;.f.f.f.f.f.T.T.T.f.f.f.f.f.f.f.f.f.f.f.f.f.f.f.f.f.f.f.f.f.f.f.f.f.f.>.>.>.e.e.e.e.e.e.e.e.e.e.e.e.e.e.e.e.e.e.e.e.-.-.-.e.e.e.-.-.e.e.e.e.-.-.e.e.-.-.-.-.).-.-.).-.-.-.-.).e.-.-.-.-.-.-.).).).).).).` +...m 9 f f f x f 9 7 4 4 a 3 4 6 7 4 4 4 5 4 f 4 4 4 4 4 4 4 4 4 4 4 4 4 7 6 l 8 7 @ ",
"k @ e e @ 2 2 3 3 3 3 3 3 % % 3 @ k @ F @ @ @ @ @ @ F $ e @ e $ e e e @ $ @ @ 2 2 2 $ % 3 % % 3 2 % % 2 2 % $ @ 2 $ @ 2 $ @ $ $ $ $ $ $ 2 @ @ @ 2 2 $ @ e 2 @ e @ @ $ @ @ @ e @ e F e e e F e F e e e e F e e e e e F F $ $ e F $ F e e e J e e F e e e e e e e F F F @ @ F F $ $ $ $ @ F $ F F @ e r J r J $ $ F $ $ @ @ r k J J F F F J r r F F F F ; ; F F r F F r $ F F r r r ; F F $ @ @ F $ ; $ ; $ ; + # $ ; + $ = ; ; ; $ $ & ; ; ; = ; ; Q V ; Q V ; Q Q Q , ! ) 5 j N.;.=.*.;.;.;.;.;.;.;.;.;.;.;.;.;.;.f.f.f.f.f.f.T.f.f.f.f.f.f.f.f.f.f.f.f.f.f.f.f.f.f.f.f.f.f.f.f.f.f.f.>.>.>.>.e.e.e.e.e.e.e.e.e.e.e.e.e.e.e.e.e.e.e.e.-.-.e.e.e.e.e.e.e.e.e.e.e.e.-.e.-.).).-.-.-.-.-.-.).).-.-.-.-.-.-.e.-.e.-.).-.).)._.).#.+...m 9 9 4 / x f 7 5 5 3 3 3 4 4 4 4 4 7 7 4 4 5 7 7 4 4 7 4 7 8 4 7 4 8 7 4 6 n @ ",
"k F e e @ @ 3 3 3 3 3 3 3 @ 3 $ @ @ @ @ @ @ e e @ @ @ $ e e F F @ @ @ 2 $ @ @ 2 2 % % 3 @ % % 3 2 2 3 @ 3 2 2 @ @ 2 @ e 2 @ @ e e e $ @ 2 @ @ $ e e e e 2 e @ e @ @ @ @ e e $ @ @ e e F F F e e e e e e e e e e e e J e F e e $ & $ e e F e e e k n k e F & F e F F F F F F F $ F @ r @ F $ $ $ @ @ F r r @ $ F @ F @ @ r r J V F r F F @ r F F F F F F ; F F F F ; r F r F $ F F ; F $ $ F F F $ & F $ $ ; ; ; & + # F + ; ; $ & & & F ; & & & ; ; ; Q Q ; ; V ; ; Q , 4 j *.;.=.>.*.;.;.;.;.;.;.;.;.;.;.;.;.T.f.f.f.f.f.f.f.f.f.f.f.f.f.f.f.f.f.=.f.f.f.f.f.f.f.f.f.f.f.f.f.f.f.f.f.>.>.>.>.>.e.>.>.e.e.e.e.e.e.e.e.e.e.e.e.e.-.e.e.-.-.e.e.e.e.e.e.e.e.e.e.-.e.e.e.-.-.-.-.-.-.-.-.-.e.-.e.).e.-.-.-.-.e.-.-.-.-.).)._._.).).+...m a.f x 0 0 4 4 4 3 4 4 4 5 a 4 3 4 4 4 4 9 4 4 4 4 7 4 4 6 4 4 4 7 7 4 l l l ",
"k r e $ 2 @ @ 3 @ 3 3 3 3 @ 3 $ % 2 @ @ e @ e e @ @ e e @ @ @ @ e e @ $ $ @ @ $ @ @ @ @ 3 3 3 @ 3 3 3 3 2 @ 2 2 e $ @ @ e @ e @ @ @ $ @ e @ @ $ @ @ @ @ $ e e $ $ e @ e F e e @ e e k F e F F F e e F e e e e F F e e $ F e $ & e & e e e J e F e k J e e e e e e e @ F F F F F $ $ @ r F F F @ @ r r F F @ $ r r $ $ F F r J r J J e e r F F F r $ F r ; $ F ; ; F F J @ ; $ $ $ $ F ; F $ $ F ; & F & F $ $ + ; ; $ F ; $ F r ; ; Q ; V V & ; V F ; Q ; ; ; V F V Q 2 i ` *.$.$.*.%.;.N.;.*.N.N.;.;.;.;.f.f.f.f.f.f.T.T.f.f.f.f.f.f.f.f.f.f.f.f.=.f.f.f.f.f.f.f.f.f.f.f.f.f.=.=.f.=.>.>.f.f.=.>.>.>.e.e.e.e.e.e.e.e.e.e.e.e.e.-.e.e.e.e.e.e.-.e.-.e.e.e.e.-.e.e.).).e.-.-.-.e.e.e.e.-.-.e.e.).).e.-.-.-.-.=.-.-.-.-.).).).).).+.+.^.m 9 f f 0 a 5 3 3 4 3 4 7 4 a 4 4 4 a 4 4 4 4 4 4 4 4 a 4 4 4 4 4 4 7 8 n n ",
"J J e e @ e 2 2 3 @ 3 3 3 3 3 @ k $ k @ $ e @ F @ @ $ $ $ $ @ @ & e k @ @ @ 2 $ @ 3 3 3 2 3 2 3 2 % % $ % 2 2 2 e 2 2 e e 2 $ 2 e @ e e $ e e $ $ 2 e @ e @ @ @ @ e e e @ e e e e e e e e e e e F e e e F & $ F F F e F F $ $ F e e e e e J e e e J e e e e J e e @ @ F F F @ k F $ F F r r $ r $ F J F $ r $ $ r F F r r J J J J r r F F F & $ r F F F ; F @ F $ $ $ $ $ $ ; ; $ $ F F @ F F F F F $ ; ; & ; + $ ; + & = ; & F F e V F F V Q > Q ; ; Q Q ; ; ; V V & Y ` *.$.$.=.*.%.%.;.;.;.;.;.;.;.;.f.f.f.f.f.;.T.;.;.;.f.f.f.f.f.f.f.f.f.f.f.*.f.f.f.f.f.f.f.f.f.f.f.f.f.=.=.=.>.>.>.f.f.f.f.>.e.>.>.e.e.e.e.e.e.e.e.e.e.e.e.e.-.-.e.-.e.e.-.-.e.e.e.-.-.-.e.-.).-.-.e.e.-.-.-.-.-.e.-.-.-.-.-.e.e.(.-.-.-.-.-.-.-.-.e.e.-.).).:.^.a.9 5 a 0 3 3 3 4 3 0 4 4 4 4 3 3 4 4 4 4 4 3 a 4 4 a 0 4 4 6 4 4 4 4 4 l ",
"J e F @ @ @ @ 3 3 @ 3 3 @ @ @ @ @ # @ e $ $ @ $ $ e @ @ F $ e @ $ 2 @ @ @ @ 2 $ @ % 2 2 $ 2 % 3 2 2 3 2 2 3 2 2 @ @ 2 e @ e @ e e e e e e e @ e $ F $ e e e @ @ @ e e e e @ @ F e e F e J e e e F F e e e F F F F $ F e e e e e e e e F F e @ @ e @ k e e J e e e e F $ F F F @ F $ $ $ @ @ $ $ $ $ $ $ r r r F r F r F ; F F F r F F $ F F ; F r $ F F F F r F F F F $ F @ $ ; $ & @ F F ; & $ @ $ F ; & $ ; ; $ + ; F & $ F & & & ; F ; F F Q ; ; ; ; Q ; F F ; V n j *.*.$.*.*.*.;.>.*.K.N.;.f.f.f.f.f.f.f.f.f.;.;.;.;.;.f.f.f.f.;.f.f.f.f.f.f.f.f.f.f.f.f.f.f.f.f.f.f.*.>.=.=.>.>.>.>.f.f.>.>.>.>.e.e.e.e.e.e.e.e.e.e.e.e.e.-.-.e.-.e.e.e.e.-.-.e.e.-.].e.e.).).-.-.-.-.e.e.e.-.e.e.-.).).-.-.e.=.=.-.).-.-.-.-.-.-.-.-.e.].-.-._.:.m a.f a # 3 3 4 4 6 a 4 4 4 4 4 4 4 4 4 4 4 4 3 3 4 4 3 a 4 6 4 3 0 0 3 l ",
"J J e F @ @ @ @ @ 3 3 @ @ @ @ @ @ F e e $ $ @ @ e @ @ @ @ @ @ @ @ $ $ 2 2 2 $ $ @ 3 3 % % @ 3 3 2 2 @ 3 2 2 2 $ 3 @ $ @ e 2 @ e e 2 e @ @ e @ @ @ @ $ e e $ e $ e e e @ e e @ F F e F e e J e F e e F $ e e F F e e F e e $ e e e e F e e e J e F e k e e n k e @ e F F F F F F $ $ F r @ @ $ r $ $ $ $ $ F $ F @ r J k F F F F $ F F F F F $ r F ; $ F F $ $ $ F F F & $ F $ $ $ $ F $ $ & $ F F F F F $ $ $ $ # + # $ $ $ F F & Q ; F Q V F Q ; ; ; ; V , , F > Q i ` %.$.*.*.*.;.;.;.K.K.;.N.;.f.f.f.f.f.f.f.f.;.;.;.;.;.;.f.;.;.;.;.;.;.f.f.f.f.f.f.f.f.f.f.f.f.f.f.*.*.>.=.=.>.>.>.=.f.=.>.>.>.>.e.e.e.e.e.e.e.e.e.e.e.e.-.-.e.e.-.e.e.e.e.e.e.e.e.-.].-.-.(.(.-.e.e.e.e.e.-.-.e.e.e.e.-.-.(.-.e.e.e.).-.-.-.-.-.-.-.-.e.e.e.e.).-.:.m 9 f * 3 3 3 2 4 0 4 4 4 4 4 4 4 4 4 4 4 6 4 a a 4 4 0 0 a 3 4 3 0 # 4 ",
"J k J @ @ @ $ $ 3 % % % r @ @ k k @ F @ @ $ F @ @ @ @ $ F n e # @ @ @ l @ $ $ @ @ 3 2 $ 2 @ @ 3 % % 2 % $ 2 2 2 % 2 $ @ 2 $ @ $ 2 e e e e e e e e e F @ @ e @ F @ @ $ e @ $ e @ @ e e e F J e F e e F & $ F F F F e e e e F e e F e e e J e J J F J k e J n k e k e e J @ @ @ @ F @ @ @ $ # $ $ $ r @ $ $ $ $ $ $ = ; F F F r k r F F @ F $ $ F F $ $ F F $ F F $ $ e & $ $ $ F F $ F & $ $ F @ $ $ $ F ; = $ @ $ ; & ; $ ; & F F F F F ; ; V Q ; ; > > F , , F = + j ;.$.$.N.*.;.;.*.;.K.T.T.;.f.f.f.f.f.f.f.f.f.f.f.f.;.f.;.;.;.;.;.;.;.;.;.f.f.f.f.f.f.f.f.f.f.f.f.f.f.*.f.f.f.f.f.f.f.f.f.>.>.e.e.e.e.e.e.e.e.e.e.e.e.e.e.e.e.e.-.e.e.e.e.e.e.e.e.e.-.].].].].-.e.-.e.-.-.e.e.e.e.e.-.-.-.-.-.e.e.e.-.-.-.-.).-.-.-.).-.e.-.(.(.).>.+.^.m 9 x 0 0 2 0 a 0 4 6 4 a a 4 3 3 3 4 4 4 3 4 3 4 4 0 0 a 3 4 3 4 l 7 ",
"J @ r k k @ @ @ % @ @ @ @ @ % @ @ $ $ @ @ $ $ F e @ @ $ e n @ $ k @ @ k e 2 2 @ @ 3 3 2 @ 3 3 3 2 % 2 2 2 2 3 3 3 3 2 @ 2 2 @ $ e e e e e e e F e e e @ @ @ @ e @ @ @ $ e e e e e e e @ e F F @ e F F F $ e e e F F e F F e e F e e J e F J J k J k J e J n J e e e r @ r F F F F @ r @ $ $ $ r @ @ @ $ F $ $ r $ ; F F F r F $ $ F F @ F $ $ $ F F $ $ F $ F ; ; $ F $ $ $ $ $ F $ $ $ $ $ $ @ e F & F F ; $ F # # $ $ @ F $ F & F F Q ; Q Q ; ; ; Q Q $ ; = ; & 5 ` N.$.*.;.*.;.;.;.;.f.f.;.;.f.f.f.f.f.f.f.f.f.f.f.f.f.;.;.;.;.;.;.;.;.;.;.f.f.f.f.f.f.f.f.f.f.f.f.f.f.*.f.f.f.f.f.f.f.f.f.>.e.e.e.e.e.e.e.e.e.e.e.e.e.e.e.e.e.e.e.e.e.e.e.e.e.e.-.].e.].].e.e.e.e.].-.-.).e.e.e.e.-.-.-.).e.e.e.e.).-.-.-.e.-.-.-.e.(.-.-.)._._.(.e.).+.^.m 9 a + 0 3 0 0 4 a 4 a a 4 4 4 3 4 4 4 4 6 4 3 4 4 4 4 4 4 4 4 l 6 ",
"J J r e @ @ n k @ v @ % @ @ % r r F @ @ e $ e @ @ @ @ e @ n @ $ @ @ $ $ 2 @ @ @ 2 @ @ 3 3 % % % % 2 3 3 3 2 % 2 3 3 2 2 2 3 @ 2 @ @ e @ e e e F e e e F $ e @ e $ $ @ e e e e e e e e F e @ e e e e e e F F e e e e F $ F e F F e e J J F J J J J k J e k b.k J J e F r r e @ @ n n @ @ r r @ @ @ r r $ F r r r F F r F r r F F $ $ F $ $ F $ $ $ $ $ F @ $ ; # $ $ # $ $ $ e $ $ F & $ $ $ # e e $ + ; $ # # # # & $ # = $ F & & & ; Q ; Q ; & ; ; F ; ; ; = = & ..` *.;.;.;.;.%.>.;.N.f.f.;.f.f.f.f.f.f.f.f.f.f.f.f.f.f.;.;.;.;.;.;.;.;.;.;.;.;.f.f.f.f.f.f.f.f.f.f.f.f.f.f.f.f.f.f.f.f.=.>.>.e.e.e.e.e.e.e.e.e.e.e.e.e.-.-.e.e.e.e.-.e.e.e.e.e.e.].].`.].e.e.e.-.e.-.e.e.-.-.(.(.-.-.e.e.-.-.].).).).(.(.e.e.-.].e.e.-.-.-.).).(.).(.).-.:.!.a.9 a 0 0 0 0 0 * 3 3 3 3 3 3 3 3 4 4 4 4 3 4 l 3 0 4 0 a 4 3 3 l ",
"J k J @ @ @ @ @ @ @ @ % @ @ r @ @ @ k @ $ F @ @ e @ e F @ @ $ $ $ $ $ $ 2 @ @ @ 2 3 3 3 3 # % 2 3 3 2 % 3 3 2 2 2 2 2 2 2 3 2 2 @ e e e e @ @ e e e e F F e @ @ e $ 2 $ 2 @ @ @ e e @ e @ e F e e e e e e F F F $ $ F F e e F & F F J J F J e F J k J e k k J J k k J J @ @ @ k k @ @ F $ $ @ @ F $ F $ $ F F F F r r r r F $ $ $ $ F $ $ F $ $ $ $ $ $ F F $ F $ # # $ $ $ $ $ e $ ; $ & $ $ & $ & ; , + + + # # = # # ! ; $ ; ; & ; ; F F & ; ; = ; = ; ; ; F L ` ` *.;.;.;.;.;.>.*.;.;.f.f.>.f.f.f.f.f.f.f.f.f.f.f.f.;.;.;.;.;.;.;.;.;.;.;.f.f.f.f.f.f.*.*.f.*.f.*.f.f.f.f.f.f.f.f.f.f.f.f.=.>.>.>.e.e.e.e.e.e.e.e.e.e.e.-.e.-.e.`.e.e.-.e.e.-.e.e.].].-.e.e.e.e.e.-.e.-.(.-.(.].-.].-.e.].e.-.e.e.-.).(.(.(.].].e.e.].).-.).).).).(.(.).)...m 9 f * * 0 a 0 a a 3 3 3 3 0 3 4 4 3 4 3 3 6 6 + 0 4 3 0 0 0 4 l ",
"J J @ k n k @ @ @ @ @ @ @ @ r r @ # @ @ # $ $ # $ @ e e @ e $ $ $ $ @ $ 2 2 2 $ 2 2 $ 3 @ 2 3 @ @ 3 3 2 3 @ 3 3 3 2 @ 3 2 3 % 2 2 2 $ e e e @ @ @ @ @ @ @ F F F @ @ @ @ e @ $ $ e F $ e @ F @ @ e e e e e F e e F F F $ & & $ F $ F e e e J J e J n k J k J F F e r r F F F @ k @ @ @ $ $ $ @ @ r r F @ r r r r r r r $ r $ $ $ @ $ @ $ $ r F $ $ F F $ ; $ $ $ ; ; # # ; $ ; ; $ $ $ @ F F e $ $ ; $ $ $ # # # $ + $ @ # $ $ & & & ; ; F & ; > ; ; ; = ; ; ; F Y ` ` *.;.;.;.;.;.;.;.;.;.;.f.f.f.f.f.f.f.f.f.f.f.f.f.;.;.;.;.;.;.;.;.;.;.;.;.f.f.=.=.=.=.=.=.>.*.*.*.f.f.f.f.>.>.>.>.f.*.f.f.f.f.>.>.>.e.e.e.e.e.e.e.e.-.-.-.-.-.e.e.e.-.).e.e.(.(.e.e.(.].e.e.-.e.e.-.].].(.-.-.-.-.(.].].].e.e.-.-.).-.).).].].].].e.-.-.-.-.).-.-.-.(.).-._.:.m f ( * 0 a 0 a 4 4 3 4 6 3 3 4 4 4 6 4 3 3 4 4 4 4 3 4 3 3 4 l ",
"J k @ n n @ @ @ @ @ % % @ @ @ @ @ $ k @ $ $ $ $ @ @ $ $ @ @ $ $ $ k k $ @ @ @ 2 2 2 2 @ 3 2 3 3 3 2 3 3 3 3 2 3 3 2 3 2 2 2 2 2 2 e @ e e F e e e e e @ @ F F F @ e $ @ 2 e @ @ e e @ e e e @ $ e e e e e e e F e e e F F $ $ e & F F F e e e e e e e e k J F r J F F F F e F @ @ @ F $ r @ @ r r r F r F r F $ r r $ r r $ r r @ @ @ $ $ @ r $ $ $ $ F $ $ # = $ n $ # = $ e $ + $ e n n $ $ $ & ; $ $ F & $ $ $ $ # $ # $ ; $ $ ; & ; $ ; Q = ; ; ; ; ; # # $ i %.*.;.;.;.;.;.*.;.K.;.f.f.f.*.*.f.f.f.f.f.f.f.f.f.f.;.;.;.;.f.f.f.;.;.;.;.;.f.=.>.=.=.f.f.f.f.*.*.>.*.f.f.f.>.>.>.>.>.>.f.f.f.f.>.>.>.>.e.e.e.e.e.e.e.-.-.-.e.-.e.-.-.e.-.-.-.(.-.e.e.-.-.e.e.(.].e.e.e.e.].e.].(.-.].e.e.e.e.-.-.-.-.-.e.e.e.e.].].e.-.-.-.-.)._.-.-.).).-.)._.^.a./ / 0 f a 4 4 6 4 3 4 3 3 l 4 3 4 4 3 3 0 3 a * a 5 4 4 4 7 ",
"k k @ @ @ @ @ @ @ 3 $ $ @ @ 3 @ @ @ @ @ @ 2 2 @ @ @ 3 @ @ @ $ $ $ v @ $ @ @ @ 3 2 3 3 @ 2 2 @ 3 3 3 3 3 3 2 2 2 2 2 2 2 2 2 2 2 2 2 $ e $ e e @ e 2 e e @ e $ $ @ @ $ 2 2 2 e @ e $ @ @ $ e @ $ e @ e e @ e e F e k e e & F F @ F F F F e e F @ e F e e @ @ e @ @ F F $ $ @ $ @ r @ $ r F r @ $ r $ F r $ r $ $ F F $ r r r r % $ F @ $ # F F $ F $ $ $ $ # $ @ $ $ $ # F $ $ $ $ F & & $ $ ; # ; & ; ; $ ; $ # $ $ # ; & $ ; F ; ; $ ; ; ; F ; ; $ ; & # # = @ ` *.*.;.;.;.;.;.;.;.;.;.f.f.f.f.f.f.f.f.f.f.f.f.f.f.f.f.f.;.f.;.;.f.f.f.f.f.f.*.*.*.*.f.f.f.f.*.*.=.=.f.f.f.=.>.>.>.>.>.*.=.f.f.f.>.=.>.>.e.e.e.e.e.e.e.e.e.e.-.-.-.-.-.-.e.e.e.).e.-.-.-.e.e.e.e.-.-.e.e.-.e.e.].].-.e.e.e.e.e.-.-.).e.-.-.e.e.-.].].-.-.-.-.-.)._.-.-.).-.-.).).:...f ( f f / 0 a 7 4 3 l 4 4 4 4 3 0 3 3 0 0 a 0 a 4 4 3 4 3 4 ",
"k J @ @ F @ @ @ k @ @ @ 3 2 $ @ 3 2 @ 2 @ @ @ @ $ $ $ # # $ @ @ @ @ @ @ @ 3 $ 3 3 $ $ 3 3 2 @ @ 3 3 3 3 2 $ 2 2 2 2 2 2 2 2 2 e 2 2 @ 2 # @ $ $ $ e @ $ e e $ $ # $ $ 2 e $ $ e $ $ @ @ $ e @ e @ @ @ @ F $ e e k @ e e F e F k e F F F F F F @ e F @ @ e F @ @ @ @ @ @ @ k r F $ @ @ r $ $ @ $ $ - $ F r r $ r r F $ r $ $ r $ - # F $ $ $ $ $ $ $ $ $ $ ; $ F $ ; ; $ $ $ F $ & $ $ F F $ # # ; ; $ $ $ ; & ; ; # # $ & ; ; F ; & F ; ; & @ $ = ; ; $ F - ! 8 %.*.*.*.*.*.;.;.;.;.;.;.;.;.;.;.f.f.f.f.f.f.f.f.f.f.f.f.f.f.f.f.;.f.f.f.f.f.f.f.*.*.*.f.f.f.f.*.*.=.=.=.f.f.=.>.>.>.>.=.=.>.>.>.>.=.=.=.>.>.e.e.e.e.e.e.e.e.-.-.-.-.-.-.-.-.-.e.-.-.-.-.-.-.-.-.e.e.-.-.-.].e.e.].].e.e.e.e.e.-.-.-.-.).).-.-.].].].].-.-.-.-.-.).).-.-.-.-.).)._.-._.8 5 5 a f a 4 7 4 3 l 4 4 3 3 4 3 0 0 0 a a 0 0 0 4 3 4 0 3 ",
"k k @ @ r @ r $ @ @ @ @ @ @ @ @ @ @ @ 2 @ @ $ 3 $ 3 @ % @ @ $ % $ % @ @ @ @ 2 3 @ 3 $ @ @ 3 @ @ 3 3 % $ 3 3 3 2 2 2 2 2 2 e e e e 2 l @ $ @ $ 2 k @ @ @ @ $ e @ $ $ e e e $ $ @ e $ e e e @ @ e e e e e e F r F r @ @ e F F F @ e F F F F e F F F F F e @ @ @ n @ F $ k @ F F F $ r $ @ F $ F $ F r r r r r $ r r r F r $ r @ r - $ F F F F $ $ $ F $ F F $ $ F $ # $ $ F F F F & ; F F $ $ $ ; ; ; ; ; $ $ $ $ $ # + # $ ; ; $ ; ; ; ; ; ; $ ; ; ; - = $ - ' i %.*.*.*.*.*.*.;.;.;.;.f.;.f.;.;.f.;.f.f.f.f.f.f.f.f.f.f.f.f.f.f.f.f.f.f.f.f.f.f.f.f.f.f.f.f.f.*.*.=.=.=.=.f.=.=.>.f.f.=.=.>.>.>.>.=. +=.>.>.>.e.e.e.e.e.e.e.e.-.-.e.-.-.-.).-.-.-.-.-.-.-.-.-.-.-.e.-.e.].].].e.].].e.e.e.e.e.e.-.-.).-.-.-.e.e.e.-.e.e.-.e.-.-.-.-.-.).-.-.-.-._.-.-.^.m 7 a 4 4 7 8 4 4 l 4 3 4 4 3 3 a a a a a 0 a # 0 # 4 0 + ",
"k @ @ @ @ @ @ $ r $ @ @ @ @ @ @ 3 3 @ 2 @ 3 $ @ @ @ @ % @ @ # $ $ $ @ @ @ $ % 2 3 2 % 3 @ 2 @ 3 $ % % % 3 @ @ 2 2 2 e 2 2 e e e $ # $ $ & $ $ $ $ $ 2 $ @ $ $ 2 $ $ @ e e e $ e $ $ e e F e $ $ @ @ F F F F F F $ e @ F $ & F F $ F F $ F e F F @ @ r @ @ @ @ @ @ F # @ r F F F $ r F @ F F @ $ $ $ r r $ F $ $ $ r r r F r $ - $ $ F F F F F F F F F F F F F F $ F F $ $ F F F F & F F ; $ $ $ $ $ ; ; $ $ & $ $ # $ F $ ; ; & ; ; ; $ $ ; $ + $ F $ = - # 3 ` *.*.*.*.*.*.*.;.;.;.f.f.f.;.;.;.T.f.f.f.f.f.f.f.f.f.f.f.f.f.f.f.f.f.f.f.f.f.f.f.f.f.f.f.f.f.f.f.=.=.=.=.=.f.=.=.>.f.f.=.f.>.>.>.>.=.=.=.=.>.>.e.e.e.e.e.e.e.e.-.-.e.-.-.-.-.-.-.-.-.-.-.-.-.-.-.-.e.e.e.].].].].].].e.e.e.e.e.e.-.-.-.-.e.e.e.e.e.e.e.e.e.e.-.-.-.-.-.-.).-.-.-.-.).-.).!.8 9 4 4 4 7 l 4 l 3 3 4 3 0 0 a a a a a * a 0 0 + 3 0 + ",
"k @ @ @ @ @ @ @ @ @ @ @ 3 @ 3 3 2 3 @ 3 @ @ 3 @ $ $ @ $ % % % @ % % 2 $ 3 $ % 2 $ 2 $ $ $ $ 3 2 3 3 3 2 2 2 2 2 2 2 e e e e e e 2 $ 2 e $ 2 @ @ # e @ $ $ 2 e $ $ $ e F e e e @ e e @ e e @ $ $ @ @ F F F e F e $ F e F $ & F $ F F F r F F r F F r F @ J @ J @ n k @ k @ @ @ k @ @ @ $ $ F $ $ r $ @ r $ F r r $ F r @ r @ $ $ r r F F F F F F F F F F r @ F $ $ F F $ $ $ & F F F F F ; $ ; $ F $ & $ $ $ ; ; + = ; $ ; Q $ F F @ = $ ; ; $ = - $ = = - = 8 %.*.*.*.*.*.*.*.;.;.*.*.f.f.f.f.;.T.;.f.f.f.f.f.f.f.f.f.f.f.f.f.f.f.f.f.f.f.f.f.f.f.f.f.f.=.f.f.f.f.f.f.=.=.=.=.=.=.f.=.>.>.>.>.=.=.=. + + +>.>.e.e.e.e.e.e.e.e.e.-.e.-.-.-.-.-.-.-.e.-.-.-.>.-.-.e.e.e.e.].].].-.].].e.e.e.e.e.e.-.-.-.e.e.e.e.-.-.e.e.e.e.-.-.-.-.-.-.-.-.).-.).-.).).=.:.m a.4 5 f a 4 4 3 3 2 # 0 3 0 / 0 0 0 0 0 / # # + # 0 3 ",
"b.k @ @ @ @ @ @ @ 3 @ $ $ 3 2 3 3 @ @ 3 @ @ @ @ $ $ @ $ % $ @ @ @ @ 3 $ @ $ 2 @ $ 2 2 @ 2 $ 3 2 @ @ 3 3 % % % 2 2 2 e e e e e e @ @ @ @ e 2 2 k e e k 2 $ 2 @ $ $ $ e $ $ e e @ @ e e $ e @ e $ e e F e F $ & e $ $ @ k e & F $ F F F r & F e r @ @ @ k @ e J @ @ @ k n r $ $ v @ $ $ $ @ r ; $ @ F @ r $ $ F @ # - $ @ F @ F F n F $ F F F $ F $ $ F F F r F ; $ $ F $ r F F F F F r F & $ ; $ $ F $ & $ $ ; ; ; + ; $ $ $ F $ $ @ ; F ; ; $ - # $ > ; $ = i %.*.*.*.*.*.*.*.;.f.*.*.f.f.f.;.;.T.f.f.f.f.f.f.f.f.f.f.f.f.f.f.f.f.f.f.f.f.f.f.f.f.f.f.f.=.f.f.f.f.f.f.f.f.=.f.f.=.=.f.>.>.=.>.=.=. + + + +>.>.e.e.e.e.e.e.e.e.e.e.e.-.-.-.-.-.-.-.e.e.-.-.-.-.-.e.e.e.`.].-.-.].].].-.-.].-.e.e.-.-.-.e.e.e.e.-.-.e.e.e.e.-.-.-.-.-.-.-.-.).).).).).).-.).^.m 8 9 f 0 4 3 0 0 0 0 a 4 a 0 0 / / 0 0 # # + + + + 3 ",
"k k @ @ k @ @ @ % $ $ $ $ 3 3 3 @ @ 3 3 @ 3 $ 3 @ @ 3 3 @ @ $ $ 3 3 3 $ 3 2 2 @ $ $ $ @ 3 % 3 2 2 % $ 2 2 2 @ @ e 2 2 e e e e e @ # e $ $ # # 2 # $ @ e e 2 2 # $ $ $ e e e $ $ e @ e e e e e $ e e $ $ F F $ e $ & F e F & e $ F F F r F F r F F r e J J n k e @ @ $ F @ k $ @ $ $ k $ F @ F r F F F e F $ $ @ $ # $ @ F F $ $ F $ ; $ F ; ; ; ; ; F $ $ F ; ; $ F r F r r r r F F F V F $ ; $ Q Q ; ; ; $ ; # $ # $ ; ; ; & ; & $ $ F $ Q ; $ $ F > > $ %  .*.*.;.;.;.;.*.*.;.f.f.f.f.f.f.f.;.;.T.f.f.f.f.f.f.f.f.f.f.f.f.f.f.f.f.f.f.f.f.f.f.f.f.f.f.=.=.=.f.f.f.f.f.=.f.=.f.f.f.=.=.e.g.=.g.=.>.=.=.=.>.>.>.e.e.e.e.e.e.e.-.-.e.-.-.e.-.e.-.-.-.-.-.-.-.-.-.e.e.e.].-.e.-.].].].-.].].-.e.e.-.-.-.-.-.-.-.-.-.].-.-.-.-.).).-.-.-.-.-.).).)._.-.).).-.:.!.m 9 f 0 0 0 0 0 0 3 a 0 0 0 / * * / # # # + # # + + ",
"k r r @ @ @ @ @ 3 3 3 3 3 3 3 3 3 3 3 3 3 % % $ @ @ $ @ @ @ $ $ $ 3 @ 2 @ @ @ 3 2 @ $ @ @ 2 @ @ $ % % $ 2 3 @ @ e 2 e e e e e e e @ e $ $ $ e e & @ k 2 @ 2 2 $ @ @ $ $ $ e e $ e e e e @ @ @ @ @ @ F F e e & $ $ $ @ e $ & e $ ; e F F F F r F r J k e r k J e J @ F @ k n r @ $ r k F F @ F @ @ @ @ @ @ $ $ @ $ $ F @ $ F e F F $ ; $ F $ ; $ ; $ F $ $ $ $ ; F r r $ F F F r F F F ; F F ; F ; ; F F ; $ & $ $ # $ ; & $ F ; & & $ ; $ ; = $ # $ > X ; 6 ` *.>.;.;.;.;.*.*.*.f.f.f.f.f.f.f.;.;.T.f.f.f.f.f.f.f.f.f.f.f.f.f.f.f.f.f.f.f.f.f.f.f.f.f.f.f.f.=.=.f.f.f.f.=.=.=.f.f.f.=.=.=.g.g.U.f.f.=.=.=.>.>.>.>.e.e.e.e.e.e.-.-.e.-.-.e.e.e.e.-.-.-.-.-.-.-.-.e.e.e.].-.e.-.(.].].-.].].].e.e.-.).-.).-.-.-.].].].].].-.).).).).-.-.-.-.-.-.).).-.).).-._.:.a.9 f / / * * a 0 * 0 0 0 / * * * # # # + + + # 0 + ",
"k @ @ @ @ % 3 @ 3 3 @ 3 3 3 3 3 3 3 3 @ 3 @ k @ $ $ $ $ # $ @ @ @ 2 2 $ @ @ 2 2 2 @ 2 2 2 2 @ @ $ 3 3 $ $ $ $ $ 2 e e e e e e e @ @ 2 $ e 2 e @ # 2 @ 2 e $ $ $ @ @ $ $ $ e e $ F e $ e e e e e e e e e e @ $ e e $ e e $ & e e $ F r r F F r r F r k J J n J e @ @ @ o r F F k @ @ @ F @ $ - @ @ @ e e e F $ @ $ $ $ e # $ $ $ $ $ $ $ $ $ $ F $ $ $ $ $ $ F $ F r r & r F F F r r F ; F F Q F F F F $ ; $ = = ; + + = ; $ F ; F F F ; F $ - F # ; ; ; + h ` *.=.;.;.*.*.;.f.f.f.=.*.f.f.f.f.;.;.f.f.f.f.f.f.f.f.f.f.f.f.f.f.f.f.f.f.f.f.f.f.f.f.f.f.f.f.f.f.f.f.f.f.f.f.f.=.f.=.=.=.f.U.g.e.>.>.f.=.=.e.e.e.e.e.e.e.e.e.e.e.-.-.-.-.-.e.e.-.-.-.e.-.-.-.-.e.e.e.e.-.].].].(.(.].].e.-.].-.e.].(.(.).-.-.-.].-.-.].-.-.-.-.).).).-.-.-.).-.-.+.-.-.).-._._.).m 4 / * / * * 0 + * # 0 0 0 0 0 + # # + + + + + 2 = ",
"k @ @ @ @ % % 3 % 3 3 3 3 3 3 3 @ @ @ @ % $ @ % $ % @ @ $ 2 @ 2 $ $ $ $ 2 2 $ 2 2 2 2 $ $ % 3 2 $ 3 3 $ $ $ $ $ 2 e @ e e e J e e $ @ e e e $ @ $ $ 2 $ e e 2 $ e @ 2 @ @ e F F @ @ e e e $ e e e e e e $ 2 $ $ @ $ e @ e e e e $ F @ r F F F e r r @ e J J r @ n @ $ @ $ $ F @ F @ @ $ F $ $ k @ F e F $ e F @ e F F @ F $ $ F $ $ $ $ $ $ F F $ $ $ $ $ $ F F F F F F @ r F F r r r V & ; , & & & F F $ $ ; ; & ; # ; ; & F & F ; F ; F Q ; $ $ ; ; ; = i ` %.=.;.;.*.*.;.f.f.f.=.=.f.f.f.f.T.T.f.f.f.f.f.f.f.f.f.f.f.f.f.f.f.f.f.f.f.f.f.f.f.f.f.f.f.f.f.f.f.=.f.f.f.f.=.=.=.=.f.f.f.f.=.>.>.>.f.f.=.=.e.e. +e.e.e.e.e.e.e.-.-.e.-.-.e.e.-.).-.e.-.-.-.-.e.e.e.e.-.].].].(.(.].].e.-.e.e.e.].-.(.).-.-.-.-.].-.-.-.-.-.-.-.-.).-.-.-.).).).).).-.).-.).).-.:.5 * ( / / * / / 0 # * * 0 0 0 + + + + # # # + 0 = ",
"k r @ @ @ 3 3 3 % 3 3 3 3 3 3 3 3 3 % 3 @ 3 % 3 @ @ 3 3 @ 3 $ % 2 2 $ 2 2 $ 2 @ @ 2 2 2 2 2 2 2 2 $ $ $ @ @ @ e e e e e e e e e e $ @ $ $ $ $ $ $ @ e $ 2 e @ $ e 2 $ $ e $ $ @ @ e e e @ @ e e $ $ 2 e e e $ $ e F e e & $ e @ $ $ F F r e F r e @ e r k J r r @ @ $ F F @ @ F $ @ @ F @ @ @ @ $ e k F & F $ $ $ $ $ @ @ $ $ $ $ $ $ $ # $ $ $ $ $ $ $ # - $ F $ $ F F r r F r F F r F F F ; $ ; ; $ ; ; ; ; # ; ; # # $ ; $ ; ; ; ; F F Q ; ; $ ; $ $ d j *.*.;.;.;.*.*.;.;.f.f.f.f.f.f.f.f.T.T.f.f.f.f.f.f.f.f.f.f.f.f.f.f.f.f.f.f.f.f.f.f.f.f.f.f.f.f.f.f.f.=.f.f.f.=.=.=.=.=.f.=.f.f.=.=.f.=.f.=.=.=.=.=. +e.e.e.e.e.e.e.e.-.-.e.e.e.e.-.].-.e.-.e.e.e.e.e.-.e.e.-.].].(.(.].].e.e.e.e.-.].-.-.).-.-.-.-.e.e.-.-.-.e.e.e.-.-.-.-.-.-.)._.-.-.-.).).).).-._.8 f / / / / / x / / 0 0 * + + + + # + + + 0 + + + ",
"k r @ @ @ @ @ @ 3 3 3 3 3 3 3 3 3 3 % % @ @ 3 @ @ @ $ $ 3 3 $ 2 3 2 2 @ 2 0 2 @ @ 2 2 @ 2 2 $ 2 2 $ $ 2 e @ @ e e e e e e e e e e e e $ $ $ # $ $ 2 e $ @ $ 2 e $ $ $ $ e $ $ @ e e e @ @ e $ @ @ @ e e e e e $ e e e e $ $ e @ & @ @ F F @ F F F @ @ F r r @ n @ @ r r r k r @ $ @ @ r @ @ @ @ $ $ k F ; @ e $ $ @ $ F $ F $ $ $ $ $ $ $ $ $ $ $ $ $ $ - ; # $ $ $ @ $ $ F r r F ; F F $ F F F & ; ; ; $ F $ # $ ; ; $ $ ; ; & F F ; F F ; $ ; ; ; F # 3 j *.*.;.;.;.;.=.;.;.f.f.f.f.f.f.f.f.T.T.f.f.f.f.f.f.f.f.f.f.f.f.f.f.f.f.f.f.f.f.f.f.f.f.f.f.f.f.f.f.f.=.f.f.f.*.=.=.=.=.=.=.f.=.=.=.f.f.f.f.=.=.=.=.=.e.e.e.e.e.e.e.e.-.-.-.e.e.-.].].e.e.e.e.e.-.e.e.e.e.e.-.-.-.].].-.-.].].e.e.e.-.-.-.-.-.-.-.-.e.e.e.e.e.e.e.e.-.-.-.-.-.-.)._.-.-.-.).).).).-._.!.m f / * * x x / / 4 4 # + + + + 0 & + = 0 + = + ",
"k @ k @ @ @ @ 3 3 3 % % % % 3 3 3 @ @ @ % 3 3 $ $ 3 @ 3 $ 2 @ @ 2 2 2 @ 2 @ @ @ @ 2 @ @ @ 2 2 @ @ @ @ @ $ $ $ e e e e e J e e e e @ @ @ 2 $ 2 @ $ 2 @ $ @ @ $ $ e e e e @ $ e @ $ $ e e @ e $ @ e e e @ @ e @ e @ e 2 2 $ $ 2 @ e $ e F F @ @ e F e @ @ e F @ @ F F @ F $ @ # @ F r @ F $ $ F $ F @ k @ $ @ @ $ F @ F $ # $ e F $ $ $ $ $ $ $ $ $ $ $ $ $ # $ $ $ $ @ $ F F F r F F F F ; $ $ $ $ $ & ; ; ; & ; ; ; $ $ $ ; ; ; & & Q F V $ ; ; = ; $ - 7 j *.=.=.;.=.f.f.;.;.;.;.f.f.f.f.f.f.f.f.f.f.f.f.f.f.f.f.f.f.f.f.f.f.f.f.f.f.f.f.f.f.f.f.f.f.f.f.f.f.f.f.f.f.f.f.f.f.f.f.=.=.=.=.f.f.f.f.f.=.=.=.=.=.=.>.>.e.e.e.e.e.e.e.-.e.e.e.-.].].-.e.e.e.e.e.e.e.e.e.e.e.e.e.].].e.-.].].e.e.e.e.e.-.(.).-.-.-.e.e.e.e.e.-.-.-.-.-.-.-.-.-.).+.-.-.-.-.).).-.).:.:.!.9 / ( * / x f / * / # * * + + + $ & + 2 + = + ",
"r r @ @ @ @ @ 3 3 3 % 3 3 3 3 3 3 % % @ % 3 @ @ @ 3 3 3 2 $ 3 2 @ @ 3 @ @ l @ @ @ @ @ l @ @ @ k 2 2 @ @ @ e e e e e e J J e e e e 2 @ @ $ $ $ e $ $ @ # $ @ e $ e @ e e e $ e @ $ $ $ $ $ e e e $ 2 2 e e 2 e 2 2 e e 2 $ $ $ @ e e @ @ F F F @ @ F $ r @ F F @ @ F @ @ F @ # @ F F @ @ $ $ $ $ @ k @ e @ @ # $ $ e F $ ; $ @ F ; F F $ $ F F F F F $ $ F F $ $ $ # $ $ e F F F F F F F $ $ ; $ $ $ $ ; ; ; F $ # & ; ; & $ & F & & ; r F F Q $ ; ; - d i ` *.;.;.;.f.f.f.;.;.;.;.f.f.f.f.f.f.f.f.f.f.f.f.f.f.f.f.f.f.f.f.f.f.f.f.f.f.f.f.f.f.f.f.f.f.f.f.f.f.f.f.f.f.f.f.f.f.f.f.=.=.=.=.f.f.=.f.=.=.=.=.=.=.=.>.>.>.e.e.e.e.e.e.-.e.e.e.e.-.].].].-.e.e.e.e.e.e.e.e.e.e.e.].].e.-.].].e.e.-.e.e.(.(.(.).-.-.-.e.e.e.e.-.e.-.-.-.).-.g.e.).).).).).-.).).-.).+.).^.m x ( ( ( / x ( ( * * * + 0 + & & ; + 0 ' = & ",
"r % @ 3 @ @ 3 3 3 3 3 3 3 3 3 3 3 % % @ % % @ % @ @ $ @ @ 2 2 $ 2 2 $ 2 2 @ e 2 @ 2 @ 3 2 3 2 @ $ $ 2 @ @ @ @ e e e e e e e e e $ $ 2 2 $ e $ $ $ # e $ $ $ @ @ $ $ $ @ e $ e e $ @ @ e 2 @ @ @ e e $ $ 2 $ @ e $ e 2 $ & $ 2 e e e $ @ @ @ F @ @ F F e e F F F @ @ F @ @ @ F @ F r F @ $ F @ # @ @ F F @ e $ @ @ @ k @ # F e $ & $ F F F F F F F F F F F F F $ $ # # $ F $ F $ F F F F F F $ $ $ $ & $ $ ; # + ; $ # ; $ $ ; ; $ ; Q F ; V Q F ; ; = # j ` *.;.>.;.*.f.f.;.;.N.;.f.f.f.f.f.f.f.f.f.f.f.f.f.f.f.f.f.f.f.f.f.f.f.f.f.f.f.f.f.f.f.;.;.f.f.f.f.f.f.f.f.f.f.f.*.*.f.f.f.f.=.=.=.f.=.=.=.=.=.=.=.=.=.=.>.>.>.e.e.e.e.e.-.e.e.e.-.-.-.-.-.-.-.e.e.e.e.e.e.e.e.e.].].-.e.e.].e.e.e.-.e.e.(.).(.(.(.-.-.-.-.e.e.e.-.-.-.-.).-.e.-.-.).).).).-.).).-.).).).-.^.9 / ( |.( ( ( / / * * + + & & ; + $ # ) = + ",
"r @ @ 3 3 3 3 3 3 3 3 3 3 3 3 3 3 3 % @ % @ @ $ @ 3 $ 3 2 2 @ 2 2 2 2 2 2 e 2 @ @ 2 @ 3 2 2 2 @ 2 2 @ @ @ e e e e e J e e e e e e e l e + @ e $ $ $ 2 $ @ 2 $ @ 2 e $ e $ $ @ e $ 2 @ 2 $ 2 @ $ @ e $ e e 2 @ e $ @ e $ $ $ $ e @ e $ F @ @ @ F e F F @ F F @ @ F F F @ F $ F @ F F $ F $ F F # $ e $ e $ $ F @ F F @ e $ F F $ $ F F F F F $ $ F F $ F F F F $ F $ $ $ $ $ F F $ $ $ $ $ $ $ $ # ; $ $ ; ; $ $ # $ $ ; # F & $ $ $ ; $ F F ; F r F + 3 j %.*.;.>.*.*.f.;.;.;.;.;.;.f.f.f.f.f.f.f.f.f.f.f.f.f.f.f.f.f.f.f.f.f.;.f.f.f.;.f.f.f.f.;.;.f.f.f.f.f.f.f.f.f.f.f.*.*.f.f.f.f.*.=.=.=.=.=.=.=.=.=.=.=.=.>.>.>.>.>.>.e.e.e.-.e.e.e.-.-.e.e.-.-.-.-.e.-.-.e.-.e.e.e.-.].-.e.e.-.e.-.e.].-.-.(.(.(.(.(.].-.].-.-.e.e.e.e.e.-.).).-.e.-.-.).).).-.).).).).)._.-._.9.p./ |.( ( ( ( * * * * + = + & + + + ' = = ",
"r @ @ 3 3 3 3 3 3 3 3 3 3 3 3 3 3 3 % @ 3 @ @ $ % 2 2 2 3 l @ 3 2 2 @ 2 2 2 2 l @ $ 3 3 3 2 2 @ 2 2 e @ $ e e e e e @ e e F @ @ e e 2 $ @ @ @ 2 $ $ $ $ @ @ @ @ e e $ e $ 2 @ @ $ $ @ 2 % 2 2 $ @ 2 $ @ @ e @ e $ @ e $ $ $ $ e @ e F $ $ @ @ $ e $ F @ F @ @ @ F F F @ F F F F F F F e F e F $ $ 2 $ e $ & F e e F $ e F & F $ F $ F $ F F $ $ F F $ $ F F F $ $ $ $ $ $ $ @ r $ $ F $ $ $ $ # $ - $ $ ; ; $ $ ; # $ - ; $ $ $ $ $ ; ; F F ; > X ; ; l ..%.*.;.>.;.=.*.*.;.;.;.f.f.f.f.f.f.f.f.f.;.;.f.f.f.f.f.f.f.f.f.f.f.f.f.f.;.f.f.f.f.f.f.f.f.f.f.f.f.f.f.f.f.f.f.*.f.f.f.f.f.f.>.>.>.f.f.f.f.f.f.f.=.=.>.>.>.>.>.>.>.e.e.e.-.-.e.e.e.e.e.e.e.e.e.e.-.-.-.e.e.e.e.e.e.e.e.e.e.].-.e.-.].-.-.).-.).).-.-.].].].-.-.-.-.-.-.-.-.-.e.-.e.-.).).).-.).).).).).).)._.^.9.x / x * ( / ( 0 0 * = 2 + + = ' + = ' = ",
"@ @ 3 3 3 3 3 3 3 3 3 3 3 2 2 2 2 3 3 @ @ @ @ $ @ @ @ @ k l 3 @ 3 2 @ @ @ @ @ 2 2 l @ 3 3 2 2 @ 3 2 @ e & @ e @ @ e e $ @ $ @ @ e $ 2 $ @ k @ @ $ $ $ $ @ @ $ $ $ $ $ @ @ e @ e $ $ @ $ % 2 2 % 2 2 2 e @ @ e F @ e $ $ $ $ F e @ @ @ $ $ e @ e @ $ $ F $ e F F e @ @ F F e e e F @ @ @ @ @ @ 2 @ @ e $ @ $ $ $ F e n @ e e e F F $ @ F F e F $ F F $ $ F F F $ $ $ r $ $ # @ r $ # @ $ $ $ $ $ $ $ - $ $ ; - # + - $ ; ; $ ; ; # $ ; $ $ $ F F ; ; ; o j %.%.;.>.;.;.*.*.;.;.;.f.;.f.;.f.f.f.f.f.;.;.f.f.f.f.f.f.f.f.f.f.f.f.f.f.f.f.f.f.f.f.f.f.f.f.f.f.f.f.f.f.f.f.f.f.f.f.f.f.f.f.>.>.*.*.f.f.f.>.f.f.=.=.>.>.>.>.>.>.>.>.e.e.-.-.e.-.e.e.e.e.e.e.e.e.e.-.e.e.e.e.e.e.e.e.e.e.-.].].].].].].].-.-.-.-.].-.].].-.-.-.-.-.-.-.e.e.-.-.-.-.-.-.).(.).).(.).).).)._._.:.m x z x / ( ( ( * * * = = = + ' ) ' = ! ' ",
"k @ 3 @ @ 3 3 3 3 3 3 3 3 3 3 3 3 3 @ 3 % 3 $ $ @ @ $ 3 2 $ % 2 3 2 2 2 e @ 2 2 3 3 2 2 2 2 3 3 2 $ e e $ @ 2 e e e e 2 e 2 @ e @ 2 @ $ @ @ $ @ @ @ k $ 3 $ # @ $ $ $ e e $ $ $ 2 @ @ 2 2 @ 3 % 2 e $ $ @ @ e e @ $ $ $ $ $ $ e @ @ F $ $ @ @ @ @ $ $ $ $ @ F F F e @ e e F e @ e F $ e e $ $ $ $ e @ & e @ e e J @ k F e e e $ & $ F $ F F F $ $ @ $ $ e e F $ $ + $ $ # $ r $ $ # $ $ $ $ # # $ $ # $ $ - # $ # # $ ; ; $ $ + - $ $ $ $ $ F F ; ; ; 8  .%.*.;.*.;.;.;.;.;.;.;.;.;.;.;.;.;.;.;.f.;.;.f.f.f.f.f.f.f.f.f.f.f.f.f.f.f.f.f.f.f.f.f.f.f.f.f.f.f.f.f.f.f.f.f.*.f.f.*.*.=.>.>.>.f.f.f.f.>.>.>.>.=.>.>.>.>.>.>.>.>.>.>.e.-.-.-.e.-.-.-.-.e.e.e.e.e.e.e.e.e.e.e.e.e.e.-.-.].].(.(.(.(.(.].(.(.(.].].].].].-.-.-.e.-.-.-.e.e.].e.e.-.-.e.).).).).).).).).).).+.+.^.x j./ / ( ( ( ( ' = = = ; = ) ) ) * ) ' ",
"k @ 3 3 3 3 3 3 3 3 3 3 3 3 3 3 3 3 @ % % 3 @ @ @ @ 2 @ 3 $ 3 3 3 2 l 2 2 @ @ @ 3 2 2 2 @ @ @ @ 2 $ 2 @ $ e 2 e $ 2 @ e @ @ @ $ $ 2 @ $ 3 $ % @ $ $ @ $ @ @ $ $ $ $ $ $ e $ e $ 2 2 $ 2 2 l @ 2 e e $ $ @ @ F @ e $ e F F F $ e e $ $ F F @ @ F @ F e @ e F F e e F F e e e F $ e e @ e $ e e @ 2 e l $ 2 @ e 2 e e e e F & F $ $ F $ $ F ; & $ & F $ $ F $ F $ $ # $ $ $ $ $ $ @ # # $ r $ # # $ $ ; $ $ - # # # # - + ; $ # = # $ ; ; $ F F F ; V F 8 ` *.*.;.*.;.;.;.;.;.;.;.;.;.;.;.;.;.;.;.;.;.;.f.f.f.f.f.f.f.f.f.f.f.f.f.f.f.f.f.f.f.f.f.f.f.f.f.f.f.f.f.f.f.f.f.f.=.*.*.=.*.>.>.>.>.f.f.f.>.>.>.>.>.>.>.>.=.>.>.>.>.>.>.e.-.-.-.e.e.e.e.e.e.e.e.-.e.e.e.e.e.e.e.e.e.e.-.-.].].(.(.(.(.(.].(.).(.].(.].(.].e.-.-.e.e.-.e.e.e.].].-.].-.-.).).).).).).).).).$.+.+.:.9.x |.* * * * * + = = = ; = ) ' ~ ! * * ",
"k 3 3 3 3 3 3 l 3 3 3 3 3 3 3 3 3 3 3 % 3 3 3 @ @ @ 3 3 3 2 3 3 3 3 3 2 2 3 @ @ 2 2 2 2 l @ 2 @ 2 2 2 e # $ e e $ 2 @ 2 @ 2 @ 2 $ $ 2 $ $ $ $ $ $ $ @ @ @ @ e @ $ $ $ $ $ $ e e @ @ 2 e 2 k e $ 2 e e $ e @ F e e $ F F F e $ F e @ @ @ $ @ F $ e F F F @ $ $ @ @ e e @ e @ @ e e e @ e e e 2 @ 2 2 @ 2 e 2 $ e $ e e $ $ F e e F F $ $ @ & & F F e $ F F ; F $ $ # $ $ $ F r $ $ # $ $ r $ $ $ $ $ + # # - - + ; # # ; ; # - = $ F - - ; $ F ; Q ; & 8 ` *.;.;.;.*.*.;.;.;.;.;.;.;.;.;.;.;.;.;.;.;.f.f.f.f.f.f.f.f.f.f.f.f.f.;.f.f.f.f.f.f.f.f.f.f.f.f.f.f.f.f.f.f.f.f.=.=.=.f.f.*.*.f.*.>.>.>.>.f.>.>.>.>.>.>.>.=.=.>.>.>.e.>.>.-.e.e.e.e.e.e.e.e.e.-.-.-.e.e.e.e.e.e.e.e.e.-.-.-.].].].(.(.(.(.].(.].].(.].].].-.].].e.-.-.-.-.-.(.].-.(.-.-.).).).).).).).).-.-._.+.#.^.x |.* * * * * * ) = ) ) ) ) ) ' ~ ~ ) ",
"@ 3 3 3 3 3 3 3 3 3 3 3 3 3 3 3 3 3 % 3 @ 3 % 2 3 @ 2 % 2 2 3 3 2 2 2 2 2 3 2 2 2 3 % 2 @ @ $ 2 2 2 $ @ $ $ 2 e $ 2 e 2 2 # e @ @ @ 3 $ # # $ $ $ $ $ 2 % $ e @ e e $ $ $ $ e e e @ @ @ @ e $ $ $ e @ $ F k @ e @ F $ $ $ e F F @ @ F e $ e F F F F e e @ F F @ F F F F F F e @ F $ $ e @ 2 2 2 @ & + = 2 $ 2 l $ $ e & $ F & $ $ F $ $ e F $ F @ @ $ F e $ F $ # - $ $ # $ @ $ # - F $ # # $ # # # ; # # # # # - # # # # $ # + $ - ; $ ; Q F $ ; ; F m ` *.;.*.*.*.*.;.;.;.;.;.;.;.;.;.;.;.;.;.;.;.;.f.f.f.f.f.f.f.f.f.f.f.f.;.f.f.f.f.f.f.f.f.f.f.f.f.f.f.f.f.f.f.f.f.f.f.=.f.=.*.*.*.f.>.>.>.>.f.f.>.>.>.>.>.>.=.=.>.>.>.e.>.e.e.e.e.e.-.e.e.e.e.e.-.-.e.e.e.e.e.e.e.e.e.e.e.e.e.e.-.].-.].].-.].-.-.].].-.-.].].].-.].-.-.-.(.(.(.e.e.].(.(.(.-.-.e.).).).-.-.-.).#.$.+.9 / * ( ( * * ' ) + ) ) ) + ) ) ~ ~ ( ",
"@ 3 3 3 3 3 3 3 3 3 3 3 3 3 2 3 3 3 3 3 3 3 2 3 3 3 3 3 3 3 3 l 3 0 3 3 2 3 3 2 2 @ @ 2 2 @ @ 2 3 2 $ 2 e 2 $ @ $ $ 2 2 2 $ @ 2 2 @ @ @ $ $ @ 2 $ $ # % # $ F $ $ $ e e F e e e $ e e e e $ 2 e @ e $ e e e @ e e e $ # $ e e F e F $ e $ e F F F F @ @ @ @ F F F e e F e @ @ e e e F $ $ $ @ 2 $ # $ $ e $ $ @ e @ @ $ e e & F $ $ F F F F $ ; $ $ $ $ $ $ F e $ $ $ $ # $ @ $ # - F $ # # $ $ # # - + + + # # + + # # # $ # - # - - $ ; Q F F ; ; e i ` *.*.*.*.*.*.;.;.;.;.;.;.;.;.;.;.;.;.;.;.;.;.f.f.f.f.f.f.f.f.f.f.f.f.;.f.f.f.f.f.f.f.f.f.f.f.f.f.f.f.f.f.f.f.f.f.f.f.f.f.*.*.f.f.f.f.>.>.f.f.f.f.>.>.>.>.=.=.=.>.e.e.e.e.e.-.e.-.e.-.e.e.e.e.e.e.e.e.e.e.e.e.e.e.e.e.e.e.e.e.-.-.-.].-.-.-.e.e.-.-.-.-.].(.-.-.(.(.].(.(.(.].-.-.).).).).).).).).).).).-.$.$.#.$.$.m x * ( ( # # + + # = # ~ ( * * ) ) ( ",
"@ 3 3 3 3 3 3 3 3 3 3 3 3 3 3 3 3 3 3 3 # 3 3 3 3 % 3 3 3 2 2 3 3 3 3 3 l 3 # 3 3 @ l 3 3 2 2 k @ @ $ $ @ 2 # @ 2 # 2 2 2 2 @ $ $ $ # $ # # $ $ $ 2 2 3 % # $ @ @ @ @ e $ $ $ e $ F e $ F $ e @ @ @ $ @ e $ @ e e @ $ $ e e e $ F @ e @ e e F F F e @ F F $ $ e F F F e e e e e @ e e e e @ @ @ @ 2 k 2 & $ 2 $ & e e $ e $ $ & & $ $ $ $ @ F $ @ $ & $ $ F $ $ $ $ F $ $ r $ $ $ # $ $ $ # $ $ # - # - + + - # = + # - + # + - # # - # $ ; $ F ; ; @ i $.;.*.*.*.*.;.;.;.;.;.;.;.;.;.;.;.;.;.;.;.;.;.f.f.f.f.f.f.f.f.f.f.f.f.;.f.f.f.f.f.f.f.f.f.f.f.f.f.f.f.f.f.f.f.f.f.f.f.f.f.f.f.f.f.f.f.f.f.f.f.f.f.f.f.>.>.=.=.=.=.e.e.e.e.e.e.-.-.-.-.e.e.e.e.e.e.e.e.e.e.e.e.e.e.e.e.e.-.e.e.-.].].].].-.-.-.e.e.e.-.-.-.(.].].).(.(.).(.-.-.(.(.).e.e.-.).).).).-.-.).).>.>.).#.$.:.a.t.* * + * # $ + + = ) ) * * ( ( ( ",
"k 3 3 3 3 3 3 3 3 3 3 3 3 3 3 3 3 3 3 2 # 3 3 2 3 0 # 3 3 3 # 3 3 3 # # 3 3 # 3 3 3 2 % 3 % # 2 @ @ % $ 2 2 + 2 @ % 2 3 2 $ 2 $ $ # # $ $ $ $ $ $ @ @ @ $ # $ @ @ e @ e e e $ e $ $ e $ e F e @ e e F e e e e F @ e $ F e e e F $ e @ @ e @ @ F F e F F F $ & @ e F F e e e e e e $ e e $ $ $ 2 2 2 @ $ + 2 @ 2 $ @ e e $ 2 e & & $ F F F @ $ $ @ e $ $ $ $ $ F $ $ $ # # r $ $ $ # - $ $ - - # # # # # # # # # + # # - - # # # # # # $ $ ; ; $ ; ; @ ..*.;.*.*.;.*.;.;.;.;.;.;.;.;.;.;.;.;.;.;.;.;.;.f.f.f.f.f.f.f.f.f.f.f.f.f.f.f.f.f.f.f.f.f.f.f.f.f.f.f.f.f.f.f.f.f.f.f.f.f.f.f.f.f.f.f.f.f.f.=.=.=.=.>.>.f.f.>.>.e.>.>.>.>.e.e.-.-.-.e.e.e.e.e.e.e.-.-.-.e.e.e.e.e.e.e.e.-.-.-.].].].(.(.(.].-.e.-.e.e.].-.-.].].(.(.(.(.(.(.-.-.-.-.-.-.).-.).).).).).).).-.$.$.).).$.#.m t.* * ( ( + 0 ' + + + ' ( ( ( ( ( ",
"k 3 3 3 3 3 3 3 3 3 3 3 3 3 3 3 2 2 3 3 3 3 3 2 3 3 3 3 3 4 3 3 3 3 3 # # # 3 3 3 2 2 2 % 3 2 % 3 3 $ 2 2 2 % 3 2 % 2 2 $ $ 2 2 2 @ @ @ @ 2 $ @ 2 $ % # # $ $ $ # # 2 e @ e $ e e e e $ $ F e @ e e F F e @ e e @ e $ $ F F e e $ $ F F F @ k F e e F e @ e F k F e F $ e e @ e F e F e e e @ @ 3 $ @ $ $ 2 $ $ 2 @ e e e $ $ & & $ F F $ $ $ $ F $ $ $ $ F e @ F $ @ $ # $ $ $ $ # - $ $ ; # $ # # # # - - # # - # - = + # # + = # # % - > $ $ Q Q n ..*.*.*.*.;.;.;.;.;.;.;.;.;.;.;.;.;.;.;.;.;.;.;.f.f.f.f.f.f.f.f.f.f.f.f.f.f.f.f.f.f.f.f.f.f.f.f.f.f.f.f.f.f.f.f.f.f.f.f.f.f.f.f.f.f.f.f.f.f.f.f.f.=.=.>.f.g.f.f.e.=.=.=.=.e.-.e.-.e.e.e.e.e.e.-.e.e.-.-.-.e.e.e.e.e.e.e.-.-.].].].(.(.(.(.(.-.-.-.e.e.].].-.-.(.(.-.].(.(.].-.-.-.-.-.-.).).).).).).).).).).-.$.-.-.).-...t.( * * * + + * + # # * * * * * * ",
"k 3 3 3 3 3 2 3 3 3 3 3 3 3 3 3 3 2 3 l 4 3 3 2 # 3 3 2 2 3 3 3 3 3 3 3 3 3 3 3 3 3 3 3 2 % 3 3 3 2 $ 3 3 $ 3 @ $ $ 2 % 2 2 2 $ 2 @ @ # # # $ @ $ $ $ % $ $ $ @ $ $ $ $ @ e $ e 2 e e e @ @ e e e e $ F @ e e @ e F F $ F e $ e e F F F F F @ F r F F e r e F k e @ k k k e @ @ @ e $ $ $ $ 2 $ $ 2 @ $ $ 2 $ 2 @ 2 & e @ $ & $ & $ $ $ $ $ $ $ F e $ & F e $ & $ $ @ $ # $ $ $ $ # # $ # ; # $ # # - # - - - + - # - = = - - = - + = # + = $ $ ; & 8 +.*.>.*.=.f.;.;.;.;.;.;.;.;.;.;.;.;.;.;.;.;.;.;.f.f.f.f.f.f.f.f.f.f.f.f.f.f.f.f.f.f.f.f.f.f.f.f.f.f.f.f.f.f.f.f.f.f.f.f.f.f.f.f.f.f.;.f.f.f.f.f.f.f.f.f.f.U.f.>.f.=.=.=.=.e.-.e.e.-.e.e.-.-.e.e.e.e.e.-.e.e.e.e.e.e.e.e.-.-.-.].].(.(.(.(.-.-.-.-.-.-.].].-.-.].-.-.-.(.].].].e.e.-.-.-.).).-.).).).).).).).-.$.).-.).$.:.x t.f 0 0 0 * + 0 * * * # 0 * * # ",
"k % 3 3 3 3 2 3 3 3 3 3 3 3 2 3 3 3 3 2 2 3 3 3 2 3 2 2 3 3 3 3 3 3 # # 3 3 # 3 3 3 3 # % % # 3 3 2 2 3 2 2 2 % % 3 3 2 2 2 % % $ $ $ $ $ $ $ $ # $ @ @ @ $ $ 3 @ # # + @ @ @ @ e $ $ e @ n e e e e @ $ F @ $ e e F e e e e $ $ e e e e e F r F F r e e F r F e e e F e e e e F e F e $ $ $ $ 2 $ $ $ 2 2 $ 2 2 2 @ $ e $ $ e $ $ $ F e F $ F & & e e $ F F $ & $ $ $ # # $ $ $ # # # $ + ; # # # - - # # # # + - # # # # # - = # # = = # # $ ; Q @ m ` $.=.*.*.f.;.;.;.;.;.;.;.;.;.;.;.;.;.;.;.;.;.;.f.f.f.f.f.f.f.f.f.f.f.f.f.f.f.f.f.f.f.f.f.f.f.f.f.f.f.f.f.f.f.f.f.f.f.f.f.f.f.f.f.f.f.f.f.f.f.f.f.f.f.=.U.U.f.=.U.g.g.g.=.e.e.e.e.e.e.e.e.-.e.e.e.-.e.e.e.e.e.e.e.e.e.e.e.-.-.-.].].-.].].].].(.-.-.(.-.-.(.-.-.-.-.-.-.e.].(.e.e.e.e.(.(.).e.-.-.).).).).-.-.$.-.-.).>.:.p.x f # # 0 # + 0 0 / * 0 3 / * 0 ",
"@ 3 3 3 3 3 3 3 3 3 3 3 3 3 3 3 @ @ @ 0 2 3 3 3 3 3 2 3 @ 2 2 3 @ 3 3 # % % # 3 3 # 3 % # 3 3 3 % 3 @ 2 % 3 2 % 3 @ 2 % 2 2 % % $ 2 @ @ $ $ $ 3 $ $ 2 2 2 2 3 $ # $ # + 2 2 @ @ @ 2 2 e e @ e e e e k $ $ @ $ $ e F e e e e $ $ e F F F F e e F r r e k @ e F e r F F F e e e F F e @ @ e e $ @ @ @ $ $ 2 $ % 2 = e k @ $ e @ $ e e F F $ $ F F $ F $ $ e @ @ F F F $ $ $ $ $ $ - - $ $ = # $ $ # # = = = - # = - - = - # # - = d # + = # $ $ $ $ 8 ..$.$.=.*.=.f.;.;.;.;.;.;.;.;.;.;.;.;.;.;.;.;.;.T.f.f.f.f.f.f.f.f.f.f.f.f.f.f.f.f.f.f.f.f.f.f.f.f.f.f.f.f.f.f.f.f.f.f.f.f.f.f.f.f.f.f.*.*.*.f.f.f.f.f.f.f.f.f.f.U.U.g.e.e.e.e.e.e.e.-.-.-.-.e.e.e.e.e.e.e.e.e.e.e.e.e.e.e.e.e.e.e.-.].-.].].-.(.(.].(.).-.-.(.-.-.-.-.-.-.e.-.].].).(.-.-.-.-.-.(.).).).).-.).-.-.-.).).-._.!.a.f * # 0 0 0 a 0 4 a 0 * 0 a 4 ",
"@ 3 3 3 % 2 3 3 3 2 2 3 3 3 l 3 3 3 l 3 2 3 3 3 4 3 2 3 2 $ 2 3 3 3 3 3 % % 3 3 % d % 3 3 3 3 3 3 3 3 2 3 @ 3 2 3 3 $ $ 2 3 % $ 2 $ 3 $ $ $ @ @ $ $ @ @ $ $ 2 2 $ 2 $ 2 @ % % % $ $ 2 @ e @ e 2 e e e e e @ e e F e e $ F e $ F e @ @ F F J e r e F F e @ r r r F F F F F $ F e e e e @ k @ @ @ @ @ % $ 2 # + 2 + 2 e # $ @ $ & & $ & F e $ & $ e e F F F $ # F F F $ $ $ $ $ $ + + $ $ = # $ $ # + = = = - # = = - - - # - - - # # $ - - # # $ $ 8 ..$.$.*.=.N.N.f.f.;.;.;.;.;.;.;.;.;.;.;.;.;.;.;.;.f.f.f.f.f.f.f.f.f.f.f.f.;.f.f.f.f.f.f.f.f.f.f.f.f.f.f.f.f.f.f.f.f.f.f.f.f.f.f.f.f.f.*.*.*.*.=.f.f.f.f.f.f.f.U.U.g.g.e.e.e.e.e.e.-.-.-.e.e.e.e.e.-.-.-.-.e.e.e.e.e.e.e.e.e.e.e.e.-.-.-.].].-.].(.].(.(.-.-.].-.-.-.-.-.-.e.-.].].(.).-.-.-.-.).(.).-.-.-.-.-.-.-.-.).).).).:.m 9 f 4 a a a 4 a 4 f 0 0 f 0 4 ",
"k 3 3 3 3 3 3 3 3 3 3 3 3 3 @ 3 3 2 e @ 2 2 2 2 3 3 3 @ 3 2 @ @ 3 % % 3 3 3 3 # # 3 3 # 3 3 # # 3 2 2 3 @ @ 3 2 2 2 2 2 2 2 % % 3 # @ @ @ @ @ @ # # k @ $ % % @ 2 2 $ @ 2 $ % 2 2 2 e e $ $ @ e @ @ $ @ @ F e e F e e $ F F F F e k J r F J e e @ F F F r r r e e e e F F F F F F @ e F e e @ 2 $ $ % $ @ 2 $ l $ 2 e 2 2 2 & $ F F F F $ F $ $ @ $ & $ $ $ $ F ; $ # $ $ $ $ $ + + # $ = - # # + + # # # # # - - # # - - - - # - = # # - ; # $ @ h +.$.$.=.=.=.;.f.f.;.;.;.;.;.;.;.;.;.;.;.;.;.;.;.f.f.f.f.f.f.f.f.f.f.f.f.f.f.f.f.f.f.f.f.f.f.f.f.f.f.f.f.f.f.f.f.f.f.f.f.f.f.f.f.*.f.f.f.f.*.*.=.=.=.e.f.f.f.f.g.g.g.g.g.e.g.e.e.e.e.e.-.e.e.e.e.e.e.-.-.e.e.e.e.e.e.e.e.e.e.e.-.-.-.].].].(.].].].].-.-.-.].].].].-.-.-.-.-.].(.(.(.(.-.).(.).e.).e.-.).).-.-.-.-.).).).(.).).!.a.9 5 4 a 4 f f f 4 a f f f 9 ",
"n 3 3 2 3 3 3 3 3 3 3 3 3 3 3 3 @ 3 2 @ @ @ 2 2 3 3 3 3 3 @ @ @ 2 % 3 3 3 3 % 3 d % 3 % # 3 3 3 % 3 3 2 2 3 3 2 2 3 2 2 3 2 % 3 $ % @ $ $ 2 @ k $ $ @ $ $ @ @ @ $ @ # @ % # $ 2 2 @ @ e $ $ @ $ e 2 F @ @ e $ $ e e e @ e F e F F F F F F J e e e F F F e r e r e @ e k e e e e F e @ @ e F $ $ $ 2 2 2 @ $ # l $ # 2 e $ e e e F $ F F F @ $ $ @ $ $ $ $ F $ e F $ $ $ $ r $ $ # ; # $ # # # # # + # # = - # # = - # = + + - - = = # # - + - $ l m +.$.$.=.*.=.;.f.f.;.;.;.;.;.;.;.;.;.;.;.;.;.;.f.f.f.f.f.f.f.f.f.f.f.f.f.f.f.f.f.f.f.f.f.f.f.f.f.f.f.f.f.f.f.f.f.f.f.f.f.*.*.f.f.>.=.=.=.>.>.>.>.=.=.e.e.f.f.f.f.g.e.e.g.g.e.e.e.e.e.e.e.e.e.e.e.e.e.e.e.e.e.e.e.e.e.e.e.e.e.e.-.-.].].].].].-.].].(.-.-.-.].e.].].].].-.-.(.].(.(.(.(.-.).(.).-.-.e.e.).).-.-.).-.).).).(.(.).!.!.9 f f f 4 f 4 f 9 4 4 f 8 8 ",
"n 3 @ 2 3 @ 3 3 3 3 3 @ 3 2 2 3 3 3 2 @ @ @ 3 2 2 3 3 3 3 @ 3 @ 2 $ 3 @ 3 % % % % % 3 % # 2 3 3 % 3 @ 2 2 3 3 3 2 2 2 2 3 2 2 3 2 2 $ + $ $ 2 @ @ @ o $ + @ 2 3 2 3 # % % # $ 2 2 2 2 2 @ $ # $ $ $ e @ $ e F $ e e F @ e $ e F F F F F F e F F F F F F e e e r e e e @ e F @ e F e @ e F F @ e $ 2 2 2 2 $ + e $ & $ $ @ @ e e F F F & F @ $ F @ $ F $ ; ; F F F $ $ F $ $ $ # $ - # # $ # # # # + - # ! + # # = + - = - = + - = = = # # + + # Y ` +.$.$.=.=.;.;.;.;.;.;.;.;.;.;.;.;.;.;.;.;.;.;.f.f.f.f.f.f.f.f.f.f.f.f.f.f.f.f.f.f.f.f.f.f.f.f.f.f.f.f.f.f.f.f.f.f.f.*.*.*.*.*.f.f.=.f.f.f.>.=.>.f.f.e.g.f.=.f.f.g.e.e.g.e.e.e.e.e.e.e.e.e.-.e.e.e.e.e.e.e.e.-.e.e.e.e.e.e.e.e.e.-.].].].].].].].].].-.-.-.e.-.].-.-.].-.-.(.].].].(.].].].(.).).-.e.-.).).).-.-.).).).).).(.-.:.!.9 f 5 8 7 7 7 4 7 7 5 8 f f ",
"n 3 l 3 3 @ @ @ @ @ @ @ 3 2 3 3 3 3 3 @ @ @ @ 3 3 3 2 2 3 3 2 2 $ $ $ @ $ # # % $ $ % % % $ 2 3 3 3 3 3 3 3 2 2 2 2 3 2 2 2 2 3 3 2 l @ 2 $ $ 2 @ @ @ e @ $ $ 2 k 2 % @ 2 $ $ 3 $ $ # # @ $ & # 2 e $ $ $ F e e @ @ F F e @ k e F F F F F F $ $ F e F e @ e r F r e @ e F r F e @ F F F F F e e e 2 2 $ $ e $ @ l $ $ @ e $ F $ F r e r @ @ F F $ + $ F # $ F $ $ $ $ F $ $ # # $ # # + # # + + - + + $ + - # # - = + + # = + # # - = - - - = # m +.#.$.=.*.*.;.f.f.f.f.;.;.;.;.;.;.;.;.;.;.;.f.f.f.f.f.f.f.f.f.f.f.f.f.f.f.f.f.f.T.f.f.f.f.f.f.f.f.f.f.f.f.f.f.f.f.f.f.*.*.*.f.*.*.*.=.f.>.=.>.>.f.e.e.e.e.f.=.=.=.e.e.e.e.-.-.e.e.e.e.e.-.-.e.e.e.e.e.e.e.e.e.-.e.e.e.e.e.e.e.e.e.-.].].].].-.].].(.].].].-.e.-.].-.].].e.-.(.].].].(.].].-.-.(.(.-.-.-.).).).).).:.:.:.).).(.(.).^.9 9 9 a.8 8 8 5 5 5 9 8 a.x ",
"n 3 l @ 3 @ @ 3 @ @ @ 3 3 @ 3 3 3 3 2 2 2 2 3 3 3 2 2 2 @ @ @ @ 3 2 3 2 3 $ % $ $ $ % # % 2 $ $ % 2 3 3 3 3 3 3 3 3 3 2 2 2 % 2 2 2 3 $ 2 2 $ 2 $ 2 2 $ $ $ % 2 2 2 $ k 2 $ $ 3 $ 3 2 $ k @ @ 2 e 2 $ $ e e $ $ @ @ F e e F $ F e r F & F F e e F F $ $ e @ J r e F k J F F F e e r r @ e e @ e F e $ 2 2 $ $ e @ $ $ e $ $ F $ $ F r e e r F F $ ; $ $ & F e F F F $ $ # $ # ; # + - + $ # # - % - + # + - # # + = + + # = + # # - - - = - { # i +.+.-.>.*.*.;.f.f.f.f.f.f.f.f.f.;.;.;.;.;.f.f.f.f.f.f.f.f.f.f.f.f.f.f.f.f.f.f.f.f.f.f.f.f.f.f.f.f.f.f.f.f.f.f.f.f.f.f.*.f.f.f.f.*.*.>.>.=.>.>.>.>.e.e.e.e.f.=.=.e.e.e.e.-.-.e.e.e.e.e.e.-.e.e.e.e.e.e.e.e.e.e.e.e.e.e.e.-.-.e.e.e.-.-.].-.-.-.-.].(.(.-.].-.e.-.].-.].].e.-.(.].].].].(.].].-.-.(.(.).-.-.-.).).).).:.).).(.).(.(.^.a.9 9 9 5 7 9 5 7 f 5 8 8 x ",
"n @ @ @ 3 @ @ 2 3 3 3 2 3 @ 2 @ @ @ 3 3 3 3 3 3 3 2 2 2 3 3 3 3 3 3 2 % 3 @ $ 2 2 2 2 $ 3 @ 3 @ 3 3 3 3 3 3 3 l 3 2 3 2 2 2 2 % 2 2 $ $ $ e $ + + $ e $ $ @ @ @ # $ $ @ $ % @ @ $ @ 2 # $ $ $ 2 e 2 e $ @ @ @ e $ $ e @ @ F & F e e F & F F F e F F $ F e J J F e e F $ F k @ r r e e @ J r F F @ @ @ e @ e e 2 $ & $ e e e $ & & $ F & & F e r @ @ F @ $ $ F $ $ $ F F $ $ $ # # - # - $ # # - # # - - + - # # = # $ + + - - # - # # - { - ] a j +.).).$.*.*.;.f.f.f.f.f.f.f.f.f.f.f.f.f.f.f.f.f.f.f.f.f.f.f.f.f.f.f.f.f.f.f.f.f.f.f.f.f.f.f.f.f.f.f.f.f.f.f.f.f.f.f.f.*.f.f.f.f.=.=.=.=.=.=.>.>.e.e.e.e.e.f.f.f.e.e.e.e.-.e.e.e.e.e.e.-.e.e.e.e.e.e.e.-.-.-.e.e.e.e.e.-.-.-.e.e.e.e.-.-.-.-.-.-.-.(.(.-.].-.e.-.-.-.].].e.-.(.].-.].].(.(.].-.-.-.(.(.-.e.-.).).).).).e.(.(.(.h.(.h.!.a.5 7 7 9 7 5 8 5 5 7 9 x ",
"n l 2 3 3 3 3 2 2 2 2 3 3 3 % 3 3 3 3 @ 3 3 3 2 3 3 3 3 2 2 2 2 3 3 2 3 @ 3 $ 2 2 2 2 2 @ @ $ 3 @ @ 3 2 3 3 3 3 2 2 2 2 2 2 2 2 2 % $ $ $ e $ $ $ $ $ $ e $ $ k $ % 2 @ $ $ @ @ $ 2 2 $ 2 $ # $ 2 e 2 # $ $ e @ e F e F F e e e F F F F F $ $ e F e e e @ @ @ F e e e F r e e e e F e r F F e e @ @ @ + & $ $ $ 2 2 e e $ e $ e F e e F $ e e F r r F F & & r F & $ r F $ # $ $ # # # - $ # $ # # # # # - + $ $ + # $ - + # # # # # # * ' - { h  ._.).).$.*.*.f.f.f.f.f.f.f.f.f.f.f.f.f.f.f.f.f.f.f.f.f.f.f.f.f.f.f.f.f.f.f.f.f.f.f.f.f.f.f.f.f.f.f.f.f.f.f.f.f.f.f.f.f.f.f.f.f.f.f.=.=.=.=.=.=.=.e.-.e.=.e.g.f.f.=.-.e.e.e.e.e.e.e.e.-.-.e.e.e.-.e.e.-.-.).-.-.e.e.e.e.-.-.-.-.e.e.-.-.-.-.e.e.e.-.].].-.(.-.e.-.-.-.].].e.].(.(.].].].].(.].-.-.-.(.(.).e.e.-.(.).).).e.-.).).h.).).^.a.5 9 9 9 7 5 8 8 7 5 9 9 ",
"k l 2 2 @ 3 3 2 2 2 2 3 3 2 % 3 3 2 2 3 3 3 2 2 2 3 @ @ 3 3 3 @ @ @ 2 3 3 3 3 2 2 2 $ 2 2 2 2 $ 2 3 3 2 2 3 3 3 3 3 3 3 3 2 $ 2 2 $ 2 @ @ 2 $ $ $ 2 $ e @ $ # 2 $ $ 2 @ $ $ @ @ # $ 2 2 @ 3 2 2 @ 2 $ $ $ 2 $ @ e e @ F e F F e e F F $ F e @ @ e F $ $ e @ J e J e r e e F e e F F e e e e e F e e @ $ e @ e $ e e e e & e J e F e @ F F F F & & F F F F r r r $ # $ - $ $ $ $ $ # # # @ # # - # # # # # + + # + + - # + - # # - - - / / - % i ` :.).-.>.*.>.=.f.f.f.f.f.f.f.f.f.f.f.f.f.f.f.f.f.f.f.f.f.f.f.f.f.f.f.f.f.f.f.f.f.f.f.f.T.T.f.f.f.f.f.f.f.f.f.f.f.f.f.f.f.f.f.*.f.f.f.f.=.=.=.=.f.=.e.e.g.g.=.f.f.=.e.=.e.e.e.e.e.e.e.e.-.e.e.e.e.e.e.-.).(.-.-.e.e.e.e.-.-.-.-.e.e.e.-.-.e.e.e.e.-.].-.-.].-.e.-.-.-.].].].].(.(.].].].].].].-.-.-.(.).).-.-.-.-.e.-.-.e.e.(.(.(.(.).^.m 9 f 5 9 5 5 5 4 4 4 f 9 ",
"k @ 2 3 @ 3 3 3 2 2 2 2 3 3 2 2 3 3 @ @ @ @ 3 3 3 3 3 3 2 2 2 2 3 @ 2 $ $ 2 @ 2 2 2 2 @ 2 3 @ 3 3 3 @ 3 3 3 3 2 2 2 2 3 3 2 # 2 3 @ @ 2 @ 2 $ $ $ 2 2 $ $ $ e @ 2 $ $ @ 2 $ 2 2 # $ 2 $ 2 2 2 2 $ $ $ 2 2 $ $ @ $ $ e F F $ $ $ F F F F F F $ $ F @ e @ @ e e e e r F k e F e @ e k e F e e e e $ @ & 2 @ e @ e e e e @ $ e e F $ $ $ $ $ F e J F F J F F r F F $ F ; ; F $ ; # $ # + - $ - - + # # + - % # - # # - + - = + $ % # = - - # z 5  .*._.).-.>.*.*.;.f.f.f.f.f.f.f.f.f.f.f.f.f.f.f.f.f.f.f.f.f.f.f.f.f.f.f.f.f.f.f.f.f.f.f.f.f.f.f.f.f.f.f.f.f.f.f.f.f.f.f.f.f.f.f.=.f.f.f.f.=.f.=.f.f.f.e.e.e.=.f.f.=.=.=.f.=.e.e.e.-.e.e.e.e.e.e.e.-.-.e.e.-.].-.-.e.e.e.-.-.e.e.e.-.e.e.-.-.e.e.e.e.-.].(.].].-.e.-.-.-.-.].e.-.(.].-.].(.(.].].-.].(.).-.-.-.-.-.-.e.-.e.(.).(.].(.).).^.!.9 5 5 9 7 4 5 f f 0 x m ",
"k @ @ 3 @ 3 @ @ 2 @ 3 2 3 3 3 2 3 3 2 2 2 2 3 3 3 2 2 3 3 @ @ 3 3 @ @ @ @ 2 @ @ 2 2 3 @ 2 2 @ @ @ l l @ 3 3 3 2 2 2 $ 2 2 2 2 2 2 2 $ $ 2 @ 2 2 @ 2 @ 2 2 2 e k $ @ @ @ 2 # $ @ @ @ @ @ @ @ 2 2 2 2 2 @ 3 2 @ @ e 2 e $ $ @ @ F & $ e F e e $ $ $ @ e @ @ F e J e e J e F r @ e F F e e F F @ k e n @ @ @ e e $ e @ e e $ F J e & & $ e F F e J F F F ; V F F F F F ; # F $ = ; $ # + + $ # # # # # + - $ # - # # $ # # - + % # + - - - - / h ` *.).-.>.$.=.;.;.;.f.f.f.f.f.f.f.f.f.;.;.;.;.;.f.f.f.f.f.f.f.f.f.f.f.f.f.f.f.f.f.f.f.f.f.f.f.f.f.f.f.f.f.f.f.f.f.f.f.f.f.f.f.f.f.f.f.f.f.=.=.=.f.f.f.=.e.e.e.=.=.=.>.>.f.f.e.e.e.-.e.e.e.e.e.e.e.-.-.e.e.-.-.e.e.e.e.e.-.-.e.e.e.-.e.e.-.-.-.e.e.].].].(.(.(.].e.-.-.-.-.e.e.e.-.-.-.].).).].e.-.].(.(.-.-.-.-.).-.e.e.-.).).(.(.(.).).:.!.9 9 9 f 5 f 7 7 f x x ..",
"n 3 @ 3 @ 3 @ @ 2 @ 3 3 2 3 3 2 3 3 3 2 2 2 3 3 3 3 2 3 @ @ @ 3 2 3 @ @ @ 2 2 @ 2 2 @ @ 3 2 3 @ @ 3 3 3 3 3 3 3 3 2 2 2 2 3 2 2 2 % $ $ $ $ # 2 @ @ @ @ $ $ # 2 2 2 2 @ @ $ 2 @ @ @ 2 2 @ @ 2 2 2 $ % 2 2 $ $ $ 2 @ e $ # F e $ $ $ F $ $ e e e e @ $ e e F J J e e J e r @ r F F F e @ e e J e F 2 @ e $ e $ $ e @ @ e e @ @ e e e $ $ $ $ e & ; F e F F F F F $ F ; # $ F $ $ $ # $ $ $ - # # # # # # + + + - - # # $ # + $ + = # # - ' / i ` #.-.-.*.>.>.=.;.;.;.;.;.;.;.;.;.;.;.;.;.;.;.;.;.f.f.f.f.f.f.f.f.f.f.f.f.f.f.f.f.f.f.f.f.f.f.f.f.f.f.f.f.f.f.f.f.f.f.f.f.f.f.f.f.=.=.=.=.=.=.=.=.=.=.=.e.e.e.e.e.=.=.e.e.e.=.e.-.-.e.e.e.e.e.e.-.-.-.e.e.e.e.e.e.e.e.e.e.e.-.-.-.e.e.e.-.-.-.-.e.].-.-.].(.-.-.e.e.-.].-.-.-.-.].].-.].(.(.].e.e.-.(.).).-.-.-.).).).-.e.).).).).(.).(.).^.9 a.4 a 0 0 f f x x x ..",
"n 3 3 2 3 3 @ @ 2 2 @ @ 2 2 3 2 2 3 @ @ @ @ @ 3 3 3 3 3 2 2 2 2 2 3 @ 2 2 2 2 2 2 2 @ 2 2 @ @ @ 2 2 2 3 3 2 2 2 2 3 3 2 2 3 3 2 3 2 2 2 k @ $ @ 2 2 @ e $ $ 2 $ @ @ $ $ 2 $ $ $ $ 2 2 2 2 @ 2 $ $ % # % 2 $ $ $ 2 2 $ $ $ $ & & e $ e $ $ $ $ $ $ @ @ @ @ r J J r F e J e F e J e e e e F r @ e F $ 2 e 2 e e e $ e J e e e e $ e & + e e F @ F F J F ; ; F e F e @ F @ F F # - # = # - # - $ $ # + # # - # # # - # - + - = % # # # $ - { w .. .#.-.>.*.>.*.;.;.=.f.;.;.;.;.;.;.;.;.;.;.;.;.;.;.;.f.f.f.f.f.f.f.f.f.f.f.f.f.f.f.f.f.f.f.f.f.f.f.f.f.f.f.f.f.f.f.f.f.f.f.f.f.f.f.f.=.=.=.=.=.=.=.=.=.=.e.e.e.e.e.e.=.e.-.e.=.e.e.-.e.e.e.e.e.e.e.-.-.-.e.e.e.e.e.e.e.e.e.e.-.-.-.e.e.e.-.-.-.-.e.e.e.-.].].-.e.e.e.-.].].].].(.(.(.-.].(.(.(.e.e.-.(.).(.-.-.-.).(.).-.-.-.).(.(.(.(.:.).^.a.9 0 a a 0 / ( ( t.a.:.",
"J 3 2 2 2 3 3 @ 3 $ @ @ 2 2 2 2 2 2 2 3 3 3 2 2 2 3 @ @ 3 3 3 @ @ @ @ @ @ 3 2 2 2 2 2 2 2 2 2 2 2 3 3 @ 3 2 2 2 3 3 3 2 2 2 3 2 3 3 3 $ e 2 $ @ 2 e @ 2 $ $ 2 $ 2 2 $ $ 2 2 @ $ $ $ $ $ 2 @ $ $ @ @ 2 3 @ @ @ 2 @ e $ e e @ $ # $ $ $ $ 2 $ $ 2 $ e @ @ e r J e J e e e r r e J e F e e F r r F @ @ $ l e e e $ $ e $ $ e F e e e e & 2 e $ @ e & & e & ; & $ $ @ F $ F $ $ # ; # + $ + - # % $ # # # # - $ - - + # # = # + $ # # - $ # ( 9 ..&.-.$.>.>.*.;.;.;.=.f.;.;.;.;.;.;.;.;.;.;.;.;.;.;.;.;.f.f.f.f.f.f.f.f.f.f.f.f.f.f.f.f.f.f.f.f.f.f.f.f.f.f.f.f.f.T.T.f.f.f.f.f.f.f.f.f.f.=.f.=.=.=.=.e.=.e.e.=.f.=.e.e.e.e.e.=.e.e.e.-.e.e.e.e.e.-.-.e.-.e.e.e.e.e.e.e.e.e.e.-.-.-.e.e.e.-.-.e.e.e.e.-.-.].].-.e.-.e.-.].-.-.].-.].].-.].(.).(.-.-.-.(.(.(.-.-.-.).).-.>.e.e.e.(.(.(.(._._.^.a.9 a 0 a a / ( x x !.).",
"e 3 3 3 2 @ @ @ @ % @ @ 2 2 2 2 2 2 3 @ @ 3 3 2 2 3 3 3 2 2 2 2 3 3 e @ @ e 2 2 @ 3 2 @ @ @ 2 2 @ @ 3 3 3 3 l 3 3 3 2 2 2 2 2 # # $ 2 $ $ 2 & + + + $ $ $ 2 2 2 $ $ 2 2 2 2 @ @ 2 2 $ # $ 2 # # @ % $ % $ % 2 $ $ $ $ $ & & $ # # $ $ $ $ % 2 @ $ $ $ F F e J e J J e r e e F F F F e e e @ e F e e $ e # $ $ $ e e F e e ; & & $ $ # @ @ & $ e & $ e & & e $ & & $ $ $ # $ F # $ # $ - # - + + - # # - = - = + + # $ + $ - + = = - $ - ( m  .+.$.$.>.>.f.;.;.;.;.;.;.;.;.;.;.;.;.;.;.;.;.;.;.;.;.f.f.f.f.f.f.f.f.f.f.f.f.f.f.f.f.f.f.f.f.f.f.f.f.f.f.f.f.f.f.f.f.f.f.f.f.f.f.f.f.f.f.f.f.f.=.=.=.=.=.e.e.f.f.f.e.e.e.e.=.f.e.=.g.e.-.-.-.-.-.-.e.e.e.-.-.-.-.-.e.e.-.-.-.-.e.e.e.e.e.-.-.].`.].].].(.(.).].].-.e.-.].-.e.e.e.e.].].].].].(.(.-.-.-.(.(.).-.-.-.).e.-.).).e.(.e.(.(.]._.:.a.9 4 # * a x f x x :.).",
"r 3 @ @ 3 @ @ 3 @ 3 @ @ 3 3 2 3 3 3 3 3 3 3 3 3 3 3 2 2 3 3 3 3 @ @ 2 2 2 @ @ 2 @ @ 2 2 2 @ @ 2 @ @ 3 3 2 3 3 3 3 3 2 3 2 2 2 2 $ $ $ $ e e $ # # $ @ $ # 2 $ 2 e 2 2 $ $ $ 2 $ 2 @ @ $ $ @ $ % 2 2 2 2 # % 3 3 $ $ @ @ $ & $ $ 2 $ % % % # % 2 % $ @ e F e J r e e F F F e n e F e e @ @ F F @ F $ # $ $ $ $ $ $ $ @ k n @ F $ e & ; & e e @ @ + & 2 & & $ $ $ $ F F r $ $ $ # # - # + # # # # # # - # + - + # # - # - $ + + # - - d - / ..` #.>.$.>.*.;.;.=.;.;.;.;.;.;.;.;.;.;.;.;.;.;.;.;.;.f.f.f.f.f.f.f.f.f.f.f.f.f.f.f.f.f.f.f.f.f.f.f.f.f.f.f.f.f.f.f.f.f.f.f.f.f.f.f.f.f.f.f.f.=.=.=.f.f.f.f.e.e.f.f.f.=.=.e.e.=.f.f.=.e.e.e.-.-.e.e.e.e.e.e.-.e.e.e.e.e.e.e.-.-.e.e.e.e.e.e.-.-.].-.-.-.].(.(.).].-.-.e.-.].-.e.-.-.-.(.(.].-.-.].(.(.].-.-.(.).).-.-.-.-.e.-.).).(.e.(.(.e.).:.m 9 4 0 * * / x t.t.).$.",
"r @ @ @ 3 @ @ 3 @ @ @ 3 @ @ 3 3 3 3 2 2 2 2 3 3 3 2 2 3 3 @ @ @ @ @ 2 2 2 e @ 2 2 2 2 2 2 2 2 2 2 2 2 3 2 3 3 2 3 3 2 3 3 2 3 3 2 2 2 2 @ @ 2 2 $ @ @ @ @ @ $ $ $ $ 2 2 @ 2 @ 2 2 2 2 $ $ @ @ 3 3 3 2 2 % 3 3 2 $ $ $ $ e $ $ # # # $ % $ % % $ $ $ e e F F e e e e r e e F F e @ @ F F e F F @ F $ @ F $ # $ $ - $ F ; F F $ e e e $ $ $ $ & $ $ $ 2 + + $ 2 e # # $ F $ # $ $ $ # $ # $ # # # $ # + # # - - # - = - # # = - $ - - = - 5 ..` -.>.$.>.>.;.N.f.;.;.;.f.f.f.f.f.f.;.f.f.;.;.;.;.f.f.f.f.f.f.f.f.f.f.f.f.f.f.f.f.f.f.f.f.f.f.f.f.f.f.f.f.f.f.f.f.f.f.f.f.f.f.f.f.f.f.f.f.f.f.=.=.f.g.f.f.e.f.=.e.f.f.=.g.e.=.f.f.f.e.e.e.e.e.e.e.f.f.g.e.e.e.e.e.e.e.e.e.e.-.e.e.e.e.e.-.-.-.].].].-.-.e.-.-.e.e.-.e.-.].].].(.(.(.).(.].].-.].(.(.].-.-.-.).).).-.-.e.-.-.e.e.(.e.(.e.e._.:.!.9 f 0 a / a x t.a.*.$.",
"@ @ @ @ @ @ @ 3 3 @ 2 3 @ 3 3 @ 3 @ @ @ @ @ @ @ 3 3 3 2 2 2 2 2 2 2 2 2 2 2 2 2 0 0 2 @ @ 2 2 3 @ 3 2 3 3 2 2 2 3 3 3 3 2 2 3 2 2 $ @ 2 2 @ @ $ $ 2 $ $ @ $ $ 2 $ 2 @ 3 3 $ $ $ $ $ % $ $ 2 $ # # % % % 3 3 % $ $ 2 $ # $ $ # # + + $ $ % % % % % 2 $ e F F e e e F k @ F F F e F $ e @ e e @ F F F @ @ F $ @ $ # @ F $ F $ ; e F @ $ $ $ $ $ % $ $ 2 % + + $ $ # $ $ $ $ $ $ $ $ # # # @ # + = $ $ + # = = + = = + # # # - = - = $ = / h  .` $.>.>.>.>.;.K.f.;.;.f.f.f.f.f.f.f.f.f.f.f.f.f.f.f.f.f.f.f.f.f.f.f.f.f.f.f.f.f.f.f.f.f.f.f.f.f.f.f.f.f.f.f.f.f.f.f.f.f.f.f.f.f.f.f.f.f.f.f.f.f.f.f.f.f.f.e.g.e.-.f.=.g.g.g.f.f.=.f.e.e.e.e.e.g.=.f.f.=.e.-.e.e.-.e.e.e.e.e.e.e.e.e.e.e.-.].].].].].-.-.e.].].e.e.-.e.-.].].-.].].].(.(.(.].].].-.].(.(.].-.-.).).).-.).(.).).].`.(.(.e.e.).:.^.a.f a a x 9 x x +.*.).",
"J @ @ 2 @ @ @ 3 3 3 2 3 @ 2 3 3 3 3 @ @ @ @ 3 2 3 3 3 3 3 3 @ 3 @ @ @ 2 2 @ @ e $ 2 @ 2 e 2 2 3 @ @ 3 4 3 3 3 3 3 3 0 # # 2 3 2 2 % % 2 2 3 2 $ $ 2 @ 2 2 2 2 e 2 $ % # % $ 2 % % % 3 @ $ % % % % % 3 2 2 % 2 2 3 2 $ $ $ $ $ $ # # % % % % $ # $ 3 $ e F F e J @ e @ @ F F e @ e F @ e $ F @ F F F @ @ @ $ F $ F F F F $ $ ; $ $ $ & $ $ # $ 2 $ # $ % $ $ 2 $ # # $ $ $ $ = # $ # = + @ # # + 3 - + # = = $ + + # # + # # = = # v # / m  .#.$.>.>.>.>.>.;.f.;.f.f.f.f.f.f.f.f.f.f.f.f.f.f.f.f.f.f.f.f.f.f.f.f.f.f.f.f.f.f.f.f.f.f.f.f.f.f.f.f.f.f.f.f.f.f.f.f.f.f.f.f.f.f.f.f.f.f.f.f.f.=.f.f.f.f.g.e.e.e.e.=.e.e.e.g.f.e.e.g.e.e.g.g.=.f.f.f.f.f.g.e.e.e.-.].-.e.e.e.e.e.e.e.e.e.e.].].].].].].(.].(.(.].].-.-.].].-.-.-.-.-.-.].].].].-.-.-.].(.].e.-.-.-.).-.-.e.-.e.(.e.e.(.(._.).:.^.m 0 0 0 / 5 t.x +.-.).",
"k @ @ 2 @ @ 3 @ @ 2 2 3 3 2 3 @ 3 3 @ @ @ @ 3 2 2 $ 3 @ @ l @ 2 @ @ @ e e @ @ 2 2 2 @ 2 2 @ 3 3 @ @ 3 3 3 3 3 0 # 3 0 # # 2 3 2 2 2 2 % 2 2 2 2 % 2 2 3 3 2 2 @ 2 $ $ % 2 $ $ % # # @ 2 % % $ % 3 3 3 3 % % 3 3 $ $ $ $ % $ % $ % $ $ $ % 3 3 $ + $ 3 @ e $ e @ @ n e @ e F $ @ $ $ k $ F $ F F @ $ $ = r $ r $ @ F F F F $ $ @ $ $ & # $ $ # 2 $ $ $ 2 $ $ 2 $ $ $ $ $ $ $ # # $ # - # $ # # - # + - # > + # # = = # + - # = ' # # # # m +.$.>.>.>.$.>.>.-.f.T.f.f.f.f.f.f.f.f.f.f.f.f.f.f.f.f.f.f.f.f.f.f.f.f.f.f.f.f.f.f.f.f.f.f.f.f.f.T.f.T.T.f.f.f.f.f.f.f.f.f.f.f.f.f.f.f.f.f.f.f.=.g.f.f.f.f.g.e.g.g.g.g.e.e.e.e.g.e.e.e.e.g.g.f.=.=.f.f.f.f.=.g.e.e.-.].].e.e.e.e.e.e.e.e.-.].].].].].].(.(.].].(.(.-.e.-.(.-.e.].-.e.].].(.(.-.-.(.].-.-.(.-.e.(.-.-.(.-.-.-.e.(.(.-.(.(.h.).e.:._.9.x / x * x p.9.h.).e.",
"J @ @ @ l @ 3 @ l 3 3 l 3 3 @ @ 3 2 @ @ 3 @ @ 3 @ @ @ 3 2 3 3 3 @ @ @ e e e e 2 2 @ @ 2 2 2 3 3 3 3 3 3 3 3 3 3 3 a a 3 3 3 3 # # 2 3 2 3 2 2 3 % 2 2 3 @ 2 2 @ @ 2 $ $ 2 $ % 2 @ % % # % % # + % % % % $ % $ 3 $ $ $ # # # # # # $ 3 $ $ # $ @ @ @ k @ $ $ e e F F $ @ k F $ @ $ $ k k @ @ $ F $ @ k # @ r @ $ @ F F $ $ $ F e $ $ @ $ $ e # $ # $ $ e $ 2 e $ $ F $ - ; $ # # $ $ $ # # - % # = # r @ = + # - ' = # - - # # ' # = ; 3 ..).$.>.f.>.$.>.>.>.f.T.f.f.f.f.f.f.f.f.f.f.f.f.f.f.f.f.f.f.f.f.f.f.f.f.f.f.f.f.f.f.f.f.f.f.f.f.f.f.T.T.T.T.f.f.f.f.f.f.f.f.f.T.T.f.f.f.f.f.T.f.f.=.f.f.f.f.g.U.U.U.g.e.e.e.e.e.e.e.e.e.e.e.e.g.g.g.g.g.f.f.=.g.e.e.e.].-.e.e.e.e.e.e.e.e.-.].].].].].(.(.(.-.].(.(.).e.-.(.-.-.(.-.-.(.].(.(.e.-.(.(.].-.(.-.e.(.-.-.(.e.e.).).e.(.(.(.).).-.e._.).9./ x x / x 9 !.h.(.`.",
"J @ @ @ @ @ l @ @ @ 3 3 3 3 3 @ 3 3 @ @ @ 3 3 @ o l @ 3 $ 2 3 @ @ @ @ e @ e 2 2 e @ @ @ 2 2 2 3 3 2 3 3 3 3 a # 0 3 3 0 # 3 2 # 2 2 3 # 2 2 % 2 # 2 3 2 2 2 2 @ 2 2 % 2 2 $ 3 3 @ % 3 % % % % % % % 3 % 3 $ % 3 # # @ $ # $ % # % $ $ $ $ + = 3 k l k @ e @ e F e @ F @ @ $ $ @ @ r @ @ @ $ $ F $ $ @ F @ $ @ $ @ $ F $ F F $ $ $ $ $ # # $ & $ $ # & $ # $ $ e F F $ $ - # $ $ # # # # % - # - = + # # > = # = = # = = d - - - # > & 8 :.$.$.$.f.>.$.$.>.f.f.f.f.f.f.f.f.f.f.f.f.f.f.f.f.f.f.f.f.f.f.f.f.f.f.f.f.f.f.f.f.f.f.f.f.f.f.f.f.f.T.T.T.T.f.T.T.T.f.f.f.f.f.T.T.f.f.f.>.f.f.T.f.f.f.f.U.f.U.U.U.g.e.e.e.e.e.e.e.e.e.e.e.e.e.g.g.e.g.g.f.f.g.g.e.].`.].`.e.e.e.e.e.e.e.e.-.].].].].(.(.(.(.].].-.-.(.-.-.(.-.-.(.].].(.].(.(.-.).(.(.].-.(.-.e.(.e.e.(.e.-.).).e.(.(.(.(.(.).)._._.m t.x x x x a.h._.(.`.",
"J e @ @ 2 @ l @ 2 @ 3 2 3 3 3 3 @ @ @ @ @ 3 2 3 @ 3 3 3 3 @ k @ $ 2 e @ @ @ @ e 2 2 2 2 2 @ 3 3 @ 3 3 3 3 3 3 a a 3 3 0 # 0 0 0 3 3 2 # 3 3 % 3 2 % 3 2 2 2 2 @ 2 $ $ $ % $ 2 % # # $ % % % % % % % 3 3 3 $ 3 @ $ % @ @ % $ 3 $ % $ 3 2 $ $ % + = $ k k k e $ e F F @ @ @ @ $ @ @ @ @ $ @ $ # $ $ $ + # F ; @ $ # $ @ # F $ $ $ # # # # # $ # $ $ $ $ @ e $ $ e # # $ F # # $ $ $ # = # % # = + + # = # # - # # # # - - d # # = ' > $ !.` $.$.$.f.>.>.$.f.f.f.e.>.f.f.f.f.f.f.f.f.T.f.f.f.f.f.f.f.f.f.f.f.f.f.f.f.f.f.f.f.f.f.f.f.f.f.f.f.f.f.T.T.f.f.T.T.T.T.f.f.f.T.f.f.f.f.f.f.f.f.f.f.f.f.f.f.f.U.U.g.e.e.e.e.e.e.e.e.e.e.e.e.f.f.f.f.g.f.g.f.f.g.g.e.].].].].e.e.e.e.e.e.e.e.-.].].].].(.(.(.].].(.-.-.(.(.-.(.].(.(.-.-.(.].-.(.-.(.(.-.-.-.(.(.-.-.e.e.(.e.e.).-.e.(.(.e.(.-.-.).)._.!.x x x / t.9.-.+.).(.",
"J @ @ @ @ @ @ @ 3 @ @ 3 @ 3 3 3 @ @ 3 @ k 3 3 @ @ 2 3 3 3 @ k @ @ @ @ e e e e e 2 2 2 2 @ @ @ 2 3 3 3 3 3 a 3 3 a a a 3 3 # # 3 3 3 2 2 3 2 % 3 3 # % @ @ 2 2 @ @ 3 $ # % % % $ % % % # % # # # % % % 3 % % $ % $ $ % $ # # # # # # % $ @ @ $ + # % $ $ e F F @ @ F @ @ @ $ @ $ $ @ $ $ @ k # @ @ @ # @ k $ @ $ # $ @ $ F F r $ $ % % % % @ $ $ $ # # $ # $ F e $ $ $ # - # $ # # % # - # + - # + $ = # 3 - - % - ' # % ' - d ' { > 2 ..).$.>.>.>.>.>.>.f.f.f.>.>.f.f.f.f.f.f.f.f.T.f.f.f.f.f.f.f.f.f.f.f.f.f.f.f.f.f.f.f.f.f.f.f.f.f.T.f.f.f.f.f.f.f.T.T.f.f.f.f.T.T.f.f.f.f.T.f.f.f.f.f.f.f.f.f.f.g.e.e.e.e.g.g.g.e.e.e.e.e.e.e.f.f.f.f.f.f.g.f.f.g.g.e.e.e.].e.e.e.e.e.e.e.e.e.e.-.-.].].(.(.(.].].).-.e.(.(.-.-.].(.(.-.-.(.-.-.(.(.(.(.e.-.].(.(.].-.e.e.(.(.).).e.e.`.(.].(.(.`.(.).:.!.f x / z |.9.$._.(.(.",
"J @ @ @ k @ @ @ @ @ 3 3 3 3 3 l @ @ $ @ @ 3 @ k @ @ @ 3 $ $ 2 @ k @ e e e 2 e @ @ 2 $ 2 @ 3 @ @ 2 3 3 3 3 3 3 # # a a # 0 3 2 2 3 2 # 2 2 % # 2 3 # $ @ 3 2 2 @ 2 2 3 @ @ 2 2 3 @ @ @ 3 3 % % % 3 3 % % % % % # % $ # # # # # % % $ $ $ 2 2 $ 3 3 $ @ @ $ e e @ @ F @ @ @ $ @ @ $ @ $ $ $ k $ $ @ @ $ k k $ $ $ F # $ # $ $ F # # % % $ # $ $ 2 @ 2 @ @ $ e $ $ $ $ # ; ; # # + - # # # # # # # = - = + + = + - # - # % = = % % - > 3 ..` $.*.*.>.>.=.>.f.f.T.f.f.f.f.f.f.f.f.f.f.f.f.f.f.f.f.f.f.f.f.f.f.f.f.f.f.f.f.f.f.f.f.f.f.T.f.T.T.f.f.f.f.f.f.f.T.f.f.f.f.f.f.f.f.f.f.f.f.f.f.f.f.f.f.f.f.f.g.e.e.e.e.g.U.g.e.e.e.e.e.e.e.g.g.=.g.g.g.g.f.f.g.g.e.e.e.e.e.e.e.e.e.e.e.e.e.e.-.-.].].(.(.(.].].).-.e.(.(.-.-.(.(.(.-.-.(.-.-.).(.(.(.e.-.(.-.(.(.-.e.e.].(.).).e.(.e.`.e.(.(.`.).).:.^.9 x x x t.^.$._.(.(.",
"J @ @ @ @ @ @ @ @ 3 3 3 3 3 3 3 @ @ @ @ @ 2 @ @ @ k @ @ @ % $ @ @ @ e e e e e @ @ $ $ 2 2 2 3 @ 3 3 3 2 2 3 3 3 3 3 a # # 3 3 # # 3 2 2 2 3 2 2 2 2 3 2 2 @ @ @ 2 $ $ 2 2 % % 3 3 % 3 % % % % % % % % % % # $ 3 $ 3 3 % % % % 3 % $ $ $ 2 $ % @ @ @ 2 # e @ F F F $ @ k k r @ @ $ @ @ $ $ $ $ $ @ @ $ @ @ $ $ $ @ $ F $ # $ @ # # + = $ $ # # $ $ & $ e $ F $ $ $ $ $ + # # - + $ # + # $ $ + + + + + = + + + + % # = # = # - - - + 6 ..` >.*.*.>.>.=.=.f.T.T.f.f.T.f.f.f.f.f.f.f.f.f.f.f.f.f.f.f.f.f.f.f.f.f.f.f.f.f.f.f.f.f.T.f.T.T.T.T.f.f.f.f.f.f.f.f.f.f.T.f.f.f.f.f.f.f.f.f.f.f.f.f.f.f.f.U.U.g.e.e.e.e.g.g.e.e.e.e.e.e.e.e.g.g.g.g.g.g.g.g.f.g.g.e.e.e.e.e.e.e.e.e.e.e.e.-.e.-.].].].].].(.].-.).(.e.(.(.e.-.(.].(.].-.-.-.-.).(.(.(.-.-.(.-.-.(.-.-.e.-.-.e.).(.(.e.e.e.(.(.e.).:.-.:.9 x x j.x ^.-.S.(.(.",
"@ @ k @ 2 @ @ 3 3 @ @ 3 3 @ 3 2 @ @ @ @ 2 @ @ @ @ @ 2 @ k 2 e @ e e @ @ e 2 $ 2 2 2 2 @ @ 3 2 2 3 3 3 3 3 3 3 3 3 3 3 a # 2 3 3 2 2 3 # # 3 2 2 $ 2 @ $ 2 @ 2 @ 3 2 % $ % 2 3 2 % # % % $ % $ % # % % % $ # % $ # # $ # # % % $ % % $ $ $ % % % $ $ $ $ n n F F $ @ @ @ @ # $ @ $ $ $ $ # % @ k @ F $ F # + $ # $ # # $ $ $ # $ @ 3 % 2 2 % $ 2 2 $ $ e F F e e $ $ $ + # # - + $ # + - ; # + ; # # - + # - - = - = = # = # ' ! { 3 8 :.$.>.>.>.>.>.f.f.f.f.>.e.f.f.f.f.f.f.f.f.f.f.f.f.f.f.f.f.f.f.f.f.f.f.f.f.f.f.f.f.T.f.f.T.T.T.T.T.T.f.f.f.f.f.f.f.f.f.T.T.T.T.f.f.f.f.T.T.f.f.>.f.f.T.f.f.e.g.g.e.e.e.e.e.e.e.e.e.e.e.e.e.e.g.g.g.g.g.g.g.f.f.g.g.e.e.e.e.e.e.e.e.e.e.e.e.].e.-.].].].].].(.(.-.(.(.e.(.(.e.-.(.-.-.(.-.-.-.-.).(.-.(.-.-.(.-.e.(.].e.e.e.).e.e.(.e.e.e.e.(.(.(.(.:.:.:.9 x j.t.x :.)..+++(.",
"@ @ k @ @ @ @ @ @ 3 @ 3 3 3 3 3 @ @ @ @ @ k k @ @ @ $ 2 k @ @ @ $ $ e @ @ e 2 2 2 2 2 e @ 2 2 3 3 3 3 3 2 3 3 0 # 3 3 0 # % # % 2 2 3 3 # 2 2 2 2 % 2 $ 3 @ $ @ 3 @ 2 % 2 3 3 $ % 3 3 % $ % % % % $ % $ $ $ % # % # # # # # # + # $ $ + 2 @ % % $ # $ 2 @ e e @ @ $ $ @ k $ @ k @ $ @ @ $ $ @ @ $ $ @ @ % - @ $ $ $ # $ @ $ # $ k % 2 # $ 2 $ # $ $ $ $ # $ e $ $ $ $ + ; # # - # - ; # = ; # # + r + + - = # - + - # % # - - # { @ m +.=.*.>.>.>.>.>.=.f.f.>.e.f.f.T.f.f.f.f.f.f.f.f.f.f.f.f.f.f.f.f.f.f.f.f.f.f.f.f.f.T.T.T.T.f.T.T.T.T.f.f.f.f.f.f.f.f.T.T.T.T.T.f.f.f.f.f.T.T.f.=.f.f.f.f.f.U.g.U.g.g.e.e.e.e.e.e.e.e.e.e.e.e.g.g.g.f.g.g.f.f.f.f.=.e.e.e.e.e.e.e.e.e.e.e.e.-.-.].].].].].].(.(.e.(.(.-.(.(.e.(.(.-.-.(.].].].-.).(.-.(.-.(.(.e.e.).-.-.-.e.(.-.-.).e.e.e.-.(.).(.-._._.:.a.x x x m -.).S.(.(.",
"@ @ k @ 3 @ @ 3 3 @ @ 3 3 @ 3 3 @ 3 @ k k @ @ e e @ @ 2 @ @ @ @ @ e e e @ e $ e @ 2 2 e 2 $ 2 @ 3 2 3 @ 3 2 3 3 3 2 0 3 3 2 # $ 2 3 3 3 3 2 % 3 3 % 2 2 3 @ 2 @ 3 % % % % % % 3 3 3 $ % % % % $ $ % % % $ 3 % % 3 % % % $ % $ # $ @ $ $ @ 2 # % 2 2 @ e e @ e F F $ $ o k @ $ @ $ $ @ $ @ # $ $ $ $ $ $ $ # $ % % # # $ # $ # # # # $ + $ 2 $ $ e $ $ @ e $ e $ $ $ F $ ; + # # - = + $ # # ; ; = $ > + # = - - = = - # = = # - ~ 3 ..` *.*.*.>.>.>.>.>.>.f.f.T.T.T.T.f.f.f.f.f.f.f.f.f.f.f.f.f.f.f.f.f.f.f.f.f.f.f.f.f.f.f.T.T.f.f.f.f.f.f.f.f.f.f.f.f.f.T.T.T.T.T.f.f.f.f.f.f.T.f.f.f.f.f.f.f.f.U.U.g.U.g.e.e.e.e.e.e.e.e.e.e.e.e.g.g.g.g.g.f.f.f.f.f.g.e.e.e.e.e.e.e.e.e.e.e.].].].].].].].].(.(.e.-.(.-.(.-.-.(.(.e.-.(.].].].-.).(.e.(.].).(.e.-.-.-.-.-.e.e.e.e.e.(.e.e.(.e._.(.e._._.:.m x x 9 :.$.).++(.@+",
"n @ k @ $ 3 @ 3 $ @ @ 3 3 @ 3 3 @ @ @ k @ e @ @ $ @ k @ @ @ @ e @ @ e e e 2 $ e e 2 2 e 2 % 2 3 3 3 @ l @ 3 2 2 2 0 2 3 2 2 2 2 3 3 # 2 3 2 # % 2 % 2 2 % 2 @ @ % $ 2 @ 3 3 3 3 3 3 3 3 3 3 % % % # 3 % # % % # % % % % 3 $ 3 @ $ $ $ $ $ $ 3 3 % @ @ 2 @ @ e e @ @ $ @ $ $ % k k k @ $ $ $ $ $ @ @ % @ @ # @ % $ # # @ $ % # $ $ $ $ # $ # $ @ @ e $ @ @ + $ $ # $ $ # ; + - - # - + # $ # ; ; ; $ = # @ # - + = ' ' = ' - - { ^ 6 ..$.;.*.*.>.>.>.>.f.>.=.f.T.T.T.f.f.f.f.f.f.f.f.f.T.f.f.f.f.f.f.f.f.f.f.f.f.f.f.f.f.f.f.f.T.f.f.f.f.f.f.f.f.f.f.f.f.f.T.T.T.f.f.f.f.f.f.f.f.f.f.f.f.f.f.f.f.U.U.g.U.U.U.g.e.e.e.e.e.e.e.e.e.e.e.g.g.g.g.g.f.f.f.f.f.g.e.e.e.e.e.e.e.e.e.e.].].].].].].].].].(.(.e.-.(.(.(.-.-.(.(.e.-.(.-.].].(.(.(.e.(.(.(.(.-.e.-.-.-.].e.e.e.(.-.e.e.(.(.e.).(.e.).).^.m x t.9 +.).S.++++#+",
"k @ @ @ @ 3 @ @ 3 @ 3 3 3 3 3 @ @ @ @ @ @ @ k k e @ @ @ @ @ e $ e e e e e e e 2 $ 2 2 2 2 2 2 2 3 @ @ % 2 @ 3 # 2 3 3 # + 3 3 2 2 2 # 2 3 2 # 2 3 2 2 3 2 2 @ @ 2 3 @ @ @ @ @ 3 $ @ @ @ % % 3 @ 3 $ $ # % $ % % % % % # $ # # $ # # $ $ $ $ $ 2 @ 3 # $ e e e e e e $ @ @ % $ $ @ @ $ r @ $ $ @ @ k # $ @ # @ % + # % % # $ # $ # $ $ $ @ @ e e e $ 2 2 $ $ @ $ $ $ # + ; - # ; - $ ; ; ; ; ; $ $ $ - - + - - = - # = - % # - = ' m ` $.*.*.>.>.>.>.>.f.f.=.e.f.f.T.f.f.f.f.f.f.f.f.f.T.f.f.f.f.f.f.f.f.f.f.f.f.f.f.f.f.f.f.f.f.f.f.f.f.f.f.f.f.f.f.f.f.f.f.f.T.T.f.f.f.f.T.f.f.f.f.f.f.f.T.f.f.e.U.U.U.U.U.g.e.e.e.e.e.e.e.e.e.e.e.g.g.g.g.g.f.f.f.f.g.g.e.].e.e.e.e.e.e.e.e.-.].].].].].].].].(.(.e.-.(.(.).-.-.(.(.e.).(.-.(.].(.(.(.e.(.(.-.(.-.e.-.-.-.-.-.e.).(.-.-.(.(.(.].-.).e.).-.^.m f |.9 #.+.(.(.#+#+",
"@ k @ @ k 3 3 @ @ @ @ @ @ 3 3 @ 3 3 @ e @ k n k @ e @ @ @ @ e F e e e e e e e $ $ 2 2 2 2 2 2 2 @ @ 3 2 2 3 3 3 3 3 3 2 % 2 3 2 $ 2 3 2 3 2 # 3 3 2 2 2 3 2 2 @ @ 3 2 $ % @ 3 3 3 @ $ 3 3 3 % @ @ 3 $ % % % % % 3 3 # # % % # % $ $ $ $ $ @ @ 3 2 # # e # & e @ n k % k k @ $ $ $ $ # $ @ $ $ $ @ @ - # @ % @ $ + % @ # # $ # # # & # ; $ $ $ $ e 2 k 3 % 2 3 + # # - - - # $ ; ; ; ; ; $ $ F $ ; + = = = + = = - # # % # + = # 8 ..$.=.*.*.>.>.>.>.>.f.f.f.-.-.f.f.T.T.f.f.f.f.T.f.f.f.f.f.f.f.f.f.f.f.f.f.f.f.f.f.f.f.f.f.f.f.f.f.f.f.f.T.T.T.T.f.f.f.f.f.f.f.f.f.f.f.f.f.f.f.f.f.f.f.f.f.f.f.f.f.U.U.U.U.g.e.e.e.e.e.e.e.e.e.e.e.g.g.g.f.f.f.f.f.T.f.g.e.].e.e.e.e.e.e.e.e.].].].].].].].].].].].e.-.(.(.(.-.-.(.-.-.(.-.-.(.-.(.(.(.e.(.(.-.(.(.e.].-.-.).-.e.-.(.e.e.).(.(.].`.(.`.).:.:.9.x |.9.$.).].5.@+@+",
"k k @ @ @ 3 3 3 @ 3 @ @ @ 3 3 3 3 @ k @ @ k @ e e e @ @ @ e e @ @ e e e e e e 2 2 2 2 2 $ % 2 @ @ @ 3 @ 3 3 3 3 2 2 2 3 3 2 % 2 2 2 3 2 3 % # 3 2 2 2 $ 2 2 2 @ 2 % 2 % $ 3 3 @ @ 3 # % 3 @ % $ $ $ # $ % # % # % 3 % % $ % 3 @ @ e # 2 $ $ $ $ $ @ @ @ e @ @ e @ @ $ @ r $ @ @ @ @ $ @ @ $ $ $ $ % # # $ # $ $ # % @ % # @ $ $ $ $ $ F e $ $ e @ $ $ $ % % 2 % 3 $ # - + # ; ; ; $ ; ; F $ $ $ ; $ = + $ # = - # + # - ' { # 8 ` ).$.=.*.*.>.>.>.>.=.f.T.f.=.=.f.T.T.T.f.f.f.f.f.f.f.f.f.f.f.f.f.f.f.f.f.f.f.f.f.f.f.f.f.f.f.f.f.f.f.f.f.T.T.T.T.T.T.f.f.f.f.f.f.f.f.f.T.f.f.f.f.T.f.f.f.f.e.f.f.f.U.U.U.g.g.e.e.e.e.e.e.e.e.e.e.e.g.e.g.f.f.T.T.T.T.f.f.e.e.e.e.e.e.e.e.e.e.].].].].].].].].].].].-.-.].].].].-.(.-.-.(.-.-.(.-.(.-.(.-.).(.e.-.(.e.-.-.e.-.-.).(.(.(.(.).(.].e.e.).e.).:.).!.t.t.!.-._.S.#+(.++",
"n @ @ @ @ @ @ 3 @ 3 3 3 3 3 3 3 @ k k @ @ @ e e @ e @ @ @ e e @ @ @ @ e 2 $ $ $ 2 e @ 2 2 2 e 2 2 2 3 2 2 3 @ 3 0 3 3 % 3 3 % # % 2 3 2 3 2 % 3 2 3 2 2 2 @ @ @ @ # @ @ 2 3 3 @ % 3 % @ % % $ % # # $ $ # % % % 3 3 % 3 3 % 3 3 3 2 $ @ $ $ @ 2 % @ @ @ $ e @ F F e $ @ @ # @ $ $ @ @ k $ @ $ $ @ 3 $ $ 3 $ # 3 $ 3 @ % # @ @ r F $ F e e $ $ e @ # $ 3 @ % % % % $ $ # + # ; ; $ $ ; ; $ ; $ ; $ F = # # + = = + = ' ! ! ! 6 ..*.$.$.*.>.*.f.>.>.=.f.f.f.T.T.T.T.T.T.f.f.f.f.f.f.f.f.f.f.f.f.f.f.f.f.f.f.f.f.f.f.f.f.f.f.f.f.f.f.f.f.f.f.f.f.T.T.T.T.T.f.f.f.f.f.f.f.f.T.T.f.f.f.T.f.f.f.f.e.f.f.f.U.U.g.e.e.g.e.e.e.e.e.e.e.e.e.-.e.e.g.f.f.T.T.T.T.f.f.e.e.e.e.e.e.e.e.e.e.e.].].].].].].].].-.-.(.(.-.-.(.(.-.(.-.-.(.-.-.(.(.(.-.(.-.(.(.-.-.(.-.(.].e.-.-.(.(.(.(.).(.(.(.).e.e.e._.:.).m t.t.^.+._.h.S.#+S.",
"n @ @ @ @ @ 3 @ @ 3 @ @ @ 3 3 3 @ @ @ e e @ @ n n @ @ @ e e @ @ @ e @ e $ e @ e 2 2 2 $ 2 @ @ e e @ @ 3 3 3 2 2 2 3 3 3 # 2 2 2 2 2 2 2 3 2 % 2 2 2 2 2 2 e @ @ @ @ 3 3 3 @ @ 3 3 @ 3 @ @ 3 % @ @ 3 @ $ 3 @ % % 3 % % % $ % % $ $ $ % % # $ 2 3 k $ + $ $ $ k @ @ @ @ @ @ $ @ % $ % @ @ $ % $ # % $ $ $ $ % % @ % $ 3 # # # + + # $ F & $ F $ $ @ $ 3 % % % % % # $ $ $ ; # ; ; # ; ; $ $ ; F $ $ # = $ - + = # + = = - - 3 i ` %.%.$.*.>.*.f.*.>.f.f.f.f.T.;.T.f.f.f.f.f.f.f.f.f.f.f.f.f.f.f.T.f.f.f.f.f.f.f.f.f.f.f.f.f.f.f.f.f.f.f.f.f.f.f.f.f.T.T.f.f.f.f.f.f.f.f.f.T.T.f.f.f.f.f.f.f.f.f.f.f.f.f.U.e.e.g.e.g.e.e.e.e.e.e.e.e.e.e.-.g.f.f.T.T.T.T.f.g.e.-.e.e.e.e.e.e.e.e.e.-.-.-.-.].].].].-.].(.(.-.-.(.(.-.-.-.).(.-.-.(.(.(.-.(.).).(.e.-.(.].(.].e.].(.-.(.(.).(.-.-.e.e.e.-.`.).).-.m t.x :.+.-.(.(.@+++",
"n @ @ @ @ @ 3 @ @ @ 3 @ @ 3 3 3 @ @ @ e e @ e k n @ e @ e @ @ e @ e @ @ F @ @ @ 3 $ 2 2 2 e @ @ @ @ @ 2 @ @ 3 3 2 2 3 3 2 2 2 % 2 2 3 2 3 3 2 2 2 2 2 2 e e @ 2 2 $ $ 2 @ @ @ @ 3 @ 3 3 @ 3 % @ $ $ @ $ @ @ $ 3 3 % % $ $ $ @ $ $ % % % % $ % $ 3 % $ k 2 $ $ & @ @ # @ % % @ @ @ $ $ @ # $ r - $ $ $ $ $ # % % % 3 % - # $ $ @ # $ @ F $ F $ $ % 3 3 # # # % 3 3 % $ $ ; # ; ; $ ; ; ; ; ; F ; F ; @ $ r + = # = = - # - % m ` ` *.>.*.*.>.*.>.>.f.f.f.f.f.f.f.f.T.f.f.f.f.f.f.f.f.f.f.f.f.f.f.f.f.f.f.f.f.f.f.f.f.f.f.f.f.f.f.f.f.f.f.f.f.f.f.f.f.f.f.f.f.f.f.f.f.f.f.f.f.f.f.f.f.f.f.f.f.f.=.=.=.g.g.g.g.g.e.g.g.e.e.e.e.e.e.e.e.e.e.e.f.f.T.T.T.f.=.e.e.e.e.e.e.e.e.e.e.e.e.].].-.].].].].].-.-.(.(.-.(.(.(.-.-.-.(.(.(.].(.(.(.).(.(.).).-.).(.).(.].e.-.(.-.-.-.).).-.).e.g.e.:.e.-.).-.a.|.a.)._.).e.(.@+].",
"k @ @ @ % @ 3 3 @ @ 2 @ @ 3 3 @ @ @ @ @ @ n e r k J e e @ @ F $ @ e @ @ @ e 2 @ 3 2 2 @ @ e @ @ $ $ e @ 3 2 2 3 3 2 3 2 2 2 2 2 3 3 2 3 @ 2 2 @ 2 $ 2 @ e e e $ $ $ $ @ $ @ k @ 3 @ @ $ % % $ $ $ $ $ % $ @ 3 3 3 % $ 2 # $ $ # $ $ 3 $ @ @ $ $ $ 3 % $ % @ k $ @ @ @ @ % @ k @ @ @ 3 % % @ r # $ $ $ $ $ # # # # 3 $ - % $ + $ $ $ @ $ $ @ $ $ $ @ @ % # # % % # # # + + # ; $ F $ $ F ; ; $ Q & $ $ - $ ; = + + - - # - 3 i ` %.*.*.*.*.>.>.>.>.>.f.f.f.f.f.f.f.f.f.f.f.f.f.f.f.f.f.f.f.f.f.f.f.f.f.f.f.f.f.f.f.f.f.f.f.f.f.f.f.f.f.;.f.;.f.f.f.f.f.f.f.f.f.f.f.f.f.f.f.f.f.f.f.f.f.f.f.f.f.=.=.=.g.g.=.g.g.g.g.g.e.e.e.e.e.e.e.e.e.e.e.=.f.T.T.T.f.>.e.e.e.e.-.-.e.e.e.e.e.e.-.(.(.(.(.].-.].].].(.(.(.(.(.(.(.-.(.(.).(.).).(.(.).).).).-.(.(.-.-.).].e.].(.e.-.-.-.).).).e.e.e.:.).(.:.).a.t.a.e.).(.e.(.e.`.",
"k @ % @ @ 3 3 @ 3 2 3 @ @ @ @ 3 @ @ k @ e n @ F e e F F @ n @ F @ @ @ e e e 2 @ 2 @ e @ @ $ F @ e e @ @ 2 $ 2 3 3 3 # # 0 2 3 3 2 % # % 2 $ $ $ $ $ 2 e e e @ @ F $ F @ @ @ @ @ 3 @ 3 $ % $ $ $ $ $ k $ $ @ 3 $ 2 $ $ $ $ $ $ $ @ 3 $ # $ @ 3 % % 3 3 % $ @ @ $ $ % 3 % % % $ % # 3 3 # 3 % # $ # # $ $ $ $ $ @ % # # % % $ $ $ $ # $ $ $ @ $ $ % $ @ $ # % % % # # # # # $ # # $ + $ F $ & $ ; ; # $ - - = = + + - - # = 3 i ` %.>.f.f.f.f.f.f.f.f.f.f.f.f.f.f.f.f.f.f.f.f.f.f.T.f.T.f.f.f.f.f.f.f.f.f.f.f.f.f.f.f.f.f.f.f.f.;.;.f.f.;.;.;.;.;.f.f.f.f.f.f.f.f.f.f.f.f.f.f.f.f.f.f.f.f.f.f.f.=.=.f.g.g.g.g.g.g.=.=.e.e.e.e.e.e.e.e.e.e.e.=.f.f.f.f.f.e.e.e.e.-.-.-.e.-.e.e.-.].(.(.].-.-.-.(.(.(.(.-.].(.(.(.(.-.].(.).(.(.).).(.(.-.).).).-.(.(.-.-.).(.e.].(.e.e.-.-.).).(.e.e.).:.:.).:.h.a.t.!.=.`.(.].(.e.@+",
"k @ r % 3 3 3 @ k @ @ @ @ 3 3 @ @ $ k @ F n @ F e J @ @ @ @ @ @ @ @ e @ e @ @ 2 2 k 2 2 e @ e e e e @ @ @ 3 3 % % 3 2 # 2 # % 2 % % 3 @ 2 2 @ 2 2 @ 2 e @ @ e @ @ @ $ @ @ % 3 3 3 $ $ $ % # $ @ $ $ $ % @ 3 $ $ @ 3 $ @ 2 $ @ @ $ $ $ # $ % % 2 $ % $ % @ $ $ 3 % % % @ @ % $ % % 3 3 % @ # - @ # # @ $ # % % % # # % % % @ $ # $ $ @ r r @ r $ # # $ % # # # # # # # # # # ; # # ; ; $ $ & $ & ; $ $ $ = = + # # = + # = % m ` %.>.>.f.f.f.f.f.f.f.f.f.f.f.f.f.f.f.f.f.f.f.f.f.f.f.T.f.f.f.f.f.T.f.f.f.f.f.f.f.f.;.;.f.f.f.;.;.;.;.;.;.;.;.;.;.f.f.f.f.f.f.f.f.f.f.f.f.f.f.f.f.f.f.f.f.f.f.f.f.f.f.g.g.g.g.g.g.g.g.e.e.e.e.e.e.e.e.-.-.e.=.f.f.f.f.f.e.e.e.e.-.-.-.-.-.e.e.e.-.e.].].].].(.].-.].].(.(.].(.(.-.e.].].-.].(.-.e.-.).).).).).).).(.-.-.(.(.-.].(.-.).(.).).).-.-.).).).).).).h.a.x ^.>.`.(.(.(.e.@+",
"J @ $ 3 k @ 3 @ @ 3 @ @ @ @ @ 3 3 @ @ e e n J r k k J e e e F e e e $ @ e k k $ @ @ 2 2 e @ e e e e 2 $ $ 3 @ 2 % 2 # 2 3 2 % 2 % 3 @ 3 3 @ @ 2 2 @ @ $ $ e e e F F $ F @ 3 3 3 3 3 % 3 3 $ F @ $ $ $ $ $ $ @ $ $ 2 $ # $ $ $ $ $ # # % @ $ 2 @ @ 3 % # 3 $ % 3 3 3 3 @ @ % 3 3 % 3 % % @ % % @ % @ % % 3 % % # d % % % 3 % % @ $ $ F r $ $ % # # $ % % $ % # % % % # - # # + $ r # # $ & ; & ; & $ - - = = = - # = + # = % i ` *.f.f.f.f.f.f.f.f.f.f.f.f.f.f.f.f.f.f.f.f.f.f.T.f.f.f.T.f.f.f.f.T.f.f.f.f.;.;.f.f.f.f.f.f.f.;.f.;.;.;.;.;.;.;.;.f.f.f.f.f.f.f.f.f.f.f.f.f.f.f.f.f.f.f.f.f.f.f.f.f.f.U.U.g.f.=.g.g.g.e.e.e.e.e.e.-.e.-.-.e.=.f.f.f.f.f.e.-.-.e.e.e.g.g.-.e.-.-.e.-.e.].(.].].-.e.-.].(.(.(.).(.].-.(.(.-.].(.(.-.-.).).).).).).).).).).].].].].].-.-.(.).).).-.-.(.).-.).).).:.a.a.:.-.-.(.(.(.@+@+",
"J k 3 3 @ 3 2 @ @ 3 @ @ 2 3 @ @ @ @ @ $ F @ e F k k r e @ @ @ @ @ @ e e e @ @ 2 l @ e @ e $ e $ e 2 $ $ $ 2 3 2 2 2 % 3 3 % $ 2 2 2 2 2 2 % $ 3 2 $ 2 e $ $ $ $ F F $ F r 3 3 3 3 3 3 % 3 $ F @ @ @ @ @ 3 $ @ $ # $ $ $ $ $ $ $ $ 2 $ $ 3 3 3 $ $ @ 3 % 2 $ 3 3 3 % @ @ 3 % 3 % % % % d 3 # # % % 3 # # % % % % # d % % # - % @ $ $ $ r $ $ @ # - % 3 % # # % % % $ $ - # $ + # $ + ; $ $ & & ; $ # = = = = = = - = ; # + @ i ` ;.;.f.f.f.*.*.f.f.f.f.f.f.;.f.;.f.f.f.f.f.f.f.T.f.f.f.f.f.f.f.f.f.f.f.f.f.f.f.f.f.f.f.f.f.f.;.f.;.;.;.;.;.;.;.;.f.f.f.f.f.f.f.f.f.f.f.f.f.f.f.f.f.f.f.f.f.f.f.f.f.f.U.f.U.f.=.g.g.g.e.e.e.e.e.-.-.e.-.-.e.=.f.f.f.f.=.e.-.e.e.-.e.e.g.g.e.e.e.].e.e.e.e.e.e.-.e.].].-.].(.(.].(.(.(.(.(.).).).).(.).).).).).).(.(.).(.(.].].].].].-.e.(.).).e.e.).).).-.:.).:.a.!._.e.e.(.(.(.`.@+",
"@ k 3 3 @ @ 3 3 3 2 3 @ 3 3 @ @ 3 3 @ F @ e F F e e @ @ @ @ k n @ e @ 2 @ @ 2 @ k @ @ @ @ e @ $ $ $ @ @ 2 2 % % 3 3 2 2 % # # % 2 2 2 $ % 2 % 2 @ e @ @ e e @ @ @ @ F @ @ @ % 3 % % % $ $ $ @ @ @ e $ $ @ $ $ @ @ $ @ @ $ @ @ $ 3 @ 3 $ % $ # + # @ @ 3 2 $ 3 % 3 # @ 3 3 % % % % % % % 3 % # 3 @ 3 3 % # % 3 % % 3 % % % 3 $ $ 3 % # @ r $ @ $ + $ % # # # % % % $ $ # $ # + # + + ; # $ & & $ & ; ; ; = ; ; + = = # & + @ i ` ;.f.f.f.f.*.*.f.f.f.;.f.f.f.f.f.f.f.f.f.f.f.f.f.f.f.f.f.f.f.f.f.f.f.f.f.f.;.f.f.f.f.f.f.f.f.;.f.;.;.;.;.;.;.;.f.f.f.f.f.f.f.f.f.f.f.f.f.f.f.f.f.f.f.f.f.f.=.=.f.f.f.f.f.f.f.=.g.g.e.e.e.e.e.-.e.-.e.-.-.e.=.f.f.f.f.=.-.-.e.e.-.-.e.e.g.g.=.e.e.e.].(.e.e.e.e.e.-.-.e.-.(.(.-.-.].-.-.(.(.(.(.(.(.(.).).(.).).).(.-.-.(.].-.].(.-.(.-.).).).e.-.).(.).e.).).h.a.!.).).e.(.(.(.`.@+",
"r k 2 3 @ @ 3 l @ 3 l l 2 3 @ @ 3 3 @ @ @ @ k k @ e @ @ e @ @ $ $ $ k $ e @ 2 k @ @ @ e @ e $ $ 2 3 @ 2 $ 2 % $ 3 2 % # # 2 3 2 % 2 @ 2 % 2 2 2 @ @ e e e e e e @ @ @ @ @ @ $ 3 $ % % $ $ $ e @ $ $ $ $ @ @ $ 2 @ $ $ % # $ @ $ $ $ % $ $ # # $ 3 3 % 3 $ % $ % 3 @ @ @ 3 % % % % % d % 3 % # % % 3 # % 3 % % % % % % % 3 # % 3 % $ $ @ $ $ r $ # $ % % % $ % # # # $ $ # # # # + + # & $ & & $ ; = F $ ; ; - ; > = - ; ; @ i ` ;.f.f.f.f.=.f.f.f.f.f.f.f.f.f.f.f.f.f.f.f.f.f.f.f.f.f.f.f.f.f.f.f.f.f.f.f.;.;.f.f.;.;.f.f.f.f.f.;.;.;.;.;.;.;.f.f.f.f.f.f.f.f.f.f.f.f.f.f.f.f.f.f.f.f.f.f.=.=.=.=.f.f.f.f.f.=.g.e.e.e.e.e.-.-.e.-.-.-.-.e.=.f.f.f.=.e.-.e.e.e.-.e.g.g.e.e.e.e.e.e.e.-.].].].-.-.-.-.].(.(.(.(.-.-.].-.-.-.(.e.e.-.(.).).).).).).).-.].(.].-.].(.).(.e.).-.-.-.-.).e.`.e.).(.h.a.^.).).e.(.(.].`.@+",
"r @ @ 3 @ @ @ @ @ 3 @ l 3 % @ l % @ @ @ k k k @ @ @ e e @ @ $ # $ $ @ 2 2 @ @ k @ @ @ 2 @ @ # 3 2 $ $ $ $ 2 $ $ $ $ $ % % 3 3 3 3 3 3 3 2 2 @ @ 2 @ @ $ $ e $ $ e @ @ @ @ @ @ 3 2 3 $ % $ 2 $ $ @ @ @ $ $ @ $ $ $ $ $ $ $ # # # % $ $ 3 3 # $ @ @ 2 # $ 3 $ $ $ @ @ % 3 % # % % 3 % # 3 3 % 3 % % % d % % % # % % d % 3 d # % % # # $ @ r $ r $ $ $ 3 % # % % = # + $ $ % % # # = + # # $ $ $ ; = ; $ ; $ $ ; + = + ; ; - @ i ` ;.=.=.=.f.f.f.f.=.=.=.f.f.f.f.f.f.f.f.f.f.f.f.f.f.f.f.f.f.f.f.f.f.f.f.f.f.f.f.f.f.;.f.f.f.f.;.;.;.;.;.;.;.;.f.f.f.f.f.f.f.f.f.f.f.f.f.f.f.f.f.f.f.f.=.f.f.f.f.f.f.f.f.f.f.g.e.e.e.e.-.e.e.e.e.e.e.-.e.e.e.>.=.f.f.=.e.-.e.e.e.-.-.e.e.e.e.e.-.e.e.e.e.-.(.(.(.].e.-.(.).(.(.(.].].].].-.(.(.].-.).(.(.).).).(.).).(.(.-.].(.].-.).(.e.).).-.-.-.-.-.).-.).(.:.a._.).).e.(.(.`.`.e.",
"r @ @ @ @ @ @ @ 2 2 @ l 3 2 k k % 2 @ @ e e e F F @ @ @ @ @ @ @ l $ $ @ @ @ 3 k @ @ 2 2 2 @ % @ $ $ $ $ $ $ F @ $ # $ 3 3 3 % % 3 3 % 2 3 $ 2 3 2 @ @ 2 e $ e @ e e @ @ 2 @ @ 2 $ 2 2 % $ @ e 2 @ @ @ $ $ @ 3 $ @ @ @ @ @ @ $ $ $ 2 $ % # # 2 @ 3 @ $ @ @ 3 % # 3 3 % 6 3 # 3 % % % d % % % % d 3 d 3 % d % % % 3 % % % % 3 3 - # # $ $ $ r $ $ $ $ 3 % = % 3 # % % $ # # # # # + + # # # $ ; ; ; & ; ; $ $ = = = ; ; $ - @ j ` *.=.>.=.f.f.f.f.=.=.=.=.=.f.f.f.f.f.f.f.f.f.f.f.f.f.f.f.T.f.f.f.f.f.f.f.f.;.f.f.f.f.f.f.f.;.;.;.;.;.;.;.;.;.;.f.f.f.f.f.f.f.f.f.f.f.f.f.f.f.f.f.f.=.=.f.f.f.f.U.U.f.f.f.g.e.e.e.e.-.e.e.e.e.e.e.e.e.e.e.e.>.=.f.f.>.e.-.e.e.e.-.-.-.e.e.g.e.-.e.-.].].-.-.e.e.].].-.-.(.(.].].].].e.-.(.(.].(.(.).).(.).).).(.).-.(.(.-.-.(.].-.(._.-.-.).).-.-.e.-._.-.).).h.$+-.).).e.(.`.`.].@+",
"@ @ @ @ 3 3 3 @ @ 3 @ @ 3 % @ o 3 $ @ 3 # $ @ @ @ @ e @ @ @ @ k @ @ $ 2 3 3 @ @ @ k 2 @ 2 $ 2 % 2 $ $ @ @ $ F @ $ e @ 3 $ % # % 3 2 2 2 % % $ 2 2 2 $ e e $ $ e e e @ @ @ @ 2 2 2 % % $ $ e @ @ @ e @ $ @ @ # $ @ # # $ # $ @ 3 3 2 2 % % # % $ % 3 % % @ 3 $ % $ % % % % # 3 3 % % # # % 3 % % % % d % 3 % # 3 @ % # $ % % % % % 3 @ r $ $ # # $ $ % # = # 3 % % % % # - + # # + $ # + $ # ; & $ & ; ; F ; = + + + ; F ; 3 j %.*.e.e.>.=.f.f.f.f.f.f.f.f.f.f.f.f.f.f.f.f.f.f.f.f.f.f.f.T.f.f.T.f.f.f.f.f.;.;.f.f.f.f.f.f.f.f.;.;.;.;.;.;.;.f.f.f.f.f.f.f.f.f.f.f.f.f.f.f.f.f.f.=.=.=.=.=.=.e.g.g.f.f.g.e.e.e.e.e.e.e.e.e.e.e.e.e.e.e.e.e.e.=.f.=.>.e.-.e.e.e.-.e.g.e.e.e.e.e.e.e.-.e.e.e.-.e.].].-.e.-.-.-.-.-.-.e.e.].].].(.(.).).).).).).).).).).).(.].].].-.(.).).e.).).).).-.).).-.).).^.a.:.).).e.(.@+`.(.`.",
"@ e @ @ @ @ @ @ @ 3 3 l @ 3 @ @ $ $ @ @ @ @ @ @ k @ @ @ @ $ $ @ 3 3 2 2 @ 3 @ $ @ k @ @ 3 3 @ # 2 3 # $ $ $ F @ e @ @ $ % $ % 3 % 3 3 2 2 @ @ 2 2 @ @ e e @ @ e e e @ e 2 @ 3 2 2 2 2 $ $ e @ e @ @ k $ $ @ # $ @ % 3 @ # $ $ + # % % 2 @ $ % 3 $ $ # # 2 $ $ @ @ @ 3 % 3 % % v @ # % % % 3 % % % % % 3 3 # % 3 3 3 3 % $ % % 3 % $ @ @ $ # # $ $ % % % # # % # # # % % # # # + = # # + # $ & & & $ ; $ F ; = + # ; = F $ @ j %.=.=.=.=.=.=.=.=.=.f.f.f.f.f.f.f.f.f.f.f.f.f.f.f.f.f.f.f.f.f.f.f.f.f.f.f.f.f.f.f.f.f.f.f.f.f.;.;.;.;.;.;.;.;.f.f.f.f.f.f.f.f.f.f.f.f.f.f.f.f.f.=.=.=.=.=.g.=.e.e.e.f.g.e.e.e.e.e.e.e.e.e.e.e.e.e.e.e.e.e.e.e.=.=.=.e.e.e.e.e.e.-.e.e.e.e.-.e.e.e.e.e.e.-.).(.].-.e.e.(.(.-.(.(.].e.-.].-.-.(.-.-.).).).).).).).).(.).).(.].].].-.-.-.(.-.).).).).-.).).).).).^.!.:.).).e.`.e.`.].@+",
"@ @ @ @ @ 3 3 @ @ @ @ @ 3 3 3 @ @ @ @ @ k @ @ @ @ @ $ @ k $ $ @ 2 2 3 2 @ @ @ $ @ @ @ 2 2 3 3 $ 3 3 % $ $ $ F @ F F $ $ @ @ @ 3 % % 3 3 2 2 2 @ @ 2 @ @ e @ @ $ @ @ @ @ 2 @ @ 3 2 3 3 $ $ e 2 $ e @ @ $ % $ 3 $ $ $ @ @ $ @ $ # @ $ % % @ 3 2 @ $ 2 $ $ @ % % @ @ % $ $ % % # % % % 3 3 % % % % $ $ 3 # # % % $ $ % $ # # % % # # # $ F $ $ @ % $ % % % % # # % # + # # = # % % # $ $ $ & # # ; & $ ; $ F ; ; + # & = F F o j ` =.f.f.f.=.e.e.e.g.=.f.f.f.f.f.f.f.f.f.f.f.f.f.T.f.f.f.f.T.f.f.f.f.f.f.f.;.;.f.f.f.f.f.f.;.f.f.f.f.;.;.;.;.;.;.;.f.f.f.f.f.f.f.f.f.f.f.f.f.f.f.f.=.f.f.=.=.=.=.=.=.e.e.e.e.e.e.e.e.e.e.e.e.e.e.e.e.e.e.e.e.e.e.>.e.e.-.e.e.e.e.e.e.e.-.-.-.e.e.e.].].].(.(.].-.].].].(.(.(.(.(.-.-.].].-.].(.(.-.-.).(.).).).(.).-.).).-.].(.].-.(.(.(.e.(.).-.-.-.(.).h.).).^.:.).).).e.`.`.`.`.e.",
"k @ @ @ @ @ 3 3 @ 3 2 @ @ @ 3 @ @ @ 3 @ @ @ @ @ e $ $ @ @ 3 @ l % 3 3 2 3 @ @ @ @ $ @ 2 % 2 2 3 3 $ $ @ @ F $ $ $ F F @ @ $ % 3 3 3 2 % 2 @ $ $ 2 $ $ e $ $ e $ $ e @ @ @ @ 2 3 3 % 2 2 $ 2 e 2 e @ $ $ @ $ $ @ $ $ $ $ $ $ @ @ 3 $ $ % 2 2 % $ $ 3 2 $ @ 3 $ $ $ $ % % $ $ % $ $ % % % % % % # % 3 % # @ @ $ r r @ @ $ $ % 3 @ % $ % $ r @ @ $ # % r # % # # % # - # # = = % $ + $ $ $ # & & & & ; ; ; ; ; $ = + & ; F F A ` %.>.f.f.f.f.g.=.=.f.f.f.f.f.f.f.f.f.f.f.f.f.f.f.T.f.f.f.f.f.f.f.f.f.f.f.f.f.;.;.f.f.f.f.f.;.f.f.f.f.;.;.;.;.;.;.f.f.f.f.f.f.f.f.f.f.f.f.f.f.f.f.f.f.=.=.=.f.=.=.f.=.e.e.e.e.e.e.e.e.e.e.e.e.e.e.e.-.e.e.e.e.e.e.=.e.e.-.e.e.e.e.e.e.-.-.-.e.e.e.-.(.(.(.].-.-.].(.(.-.e.e.-.].-.-.-.e.-.].(.].(.(.-.-.).).-.).).).-.(.(.e.].(.].e.(.(.).e.(.).-.e.-.).(.).e.).^.:.).).).e.e.`.].e.U.",
"n k @ @ @ 3 3 @ @ @ @ 3 @ @ % % v % % @ @ 2 @ @ F @ k k @ $ @ @ 2 2 3 @ @ 2 2 @ e $ @ 2 $ 3 3 3 % % @ @ @ @ F F F F F @ @ $ $ % 3 3 3 @ @ @ 2 3 @ 2 $ e @ $ $ e 2 e e e @ @ 2 3 3 $ % 3 $ $ e @ @ @ @ @ $ % % $ 2 @ @ 2 $ $ # # + # $ # $ 3 % # $ @ 3 $ $ @ @ # # 3 3 @ $ % @ @ @ k @ 3 @ @ 3 @ $ % @ % $ @ $ F $ F k @ @ @ $ @ % $ @ $ $ r $ # - $ @ $ % % % % # # # % - = % + = + & # $ & $ F & ; ; ; Q ; $ = ; ; ; F r Y ` %.$.=.=.f.f.f.f.f.f.f.f.f.f.f.f.f.f.f.f.f.f.f.f.f.f.f.f.f.f.f.f.f.T.f.f.f.f.;.;.f.f.f.f.f.f.f.f.f.f.f.;.;.;.;.;.f.f.f.f.f.f.f.f.f.f.f.f.f.f.f.f.f.f.=.=.f.f.U.f.f.g.e.-.e.e.e.e.e.e.e.e.e.e.e.e.e.e.e.e.e.e.>.=.=.e.e.-.e.e.e.e.e.e.-.e.-.-.-.e.-.e.e.].(.(.(.(.-.e.e.e.e.].].e.e.e.e.e.].].].(.(.e.-.).(.-.).(.-.-.(.(.-.].(.].-.].-.-.-.).-.e.(.).-.-.e.-.).h.:.:.).).e.e.`.(.e.U.",
"k @ @ @ @ @ @ @ @ @ @ 3 @ @ % % @ @ 3 @ 3 2 @ @ 2 @ @ 2 @ @ @ @ 3 3 @ @ 3 % @ k $ @ @ @ 2 3 % 3 3 3 3 # % @ @ r @ @ @ @ @ 3 3 3 2 $ 2 $ $ 2 2 2 $ @ @ 2 @ @ @ e e e e e @ @ 2 2 @ 2 2 3 2 2 e @ e @ @ $ $ % $ $ @ $ $ e e 3 $ 3 @ @ $ $ 2 @ $ $ 2 $ 2 @ $ 3 @ $ 2 $ $ 3 3 $ @ 3 $ @ $ $ @ # # @ $ $ @ $ $ @ F @ F $ F F @ @ $ $ @ $ @ $ $ % $ $ # $ $ $ % # # % # # # % # = # + # $ $ # $ & $ F $ ; & ; ; ; ; + # ; ; F k Y ` %.$.=.f.f.f.f.f.f.f.f.f.f.f.f.f.f.f.f.f.f.f.f.f.f.f.f.f.f.f.f.f.f.T.f.f.f.;.;.;.f.f.f.f.f.f.f.f.f.f.f.;.;.;.;.f.f.f.f.f.f.f.f.f.f.f.f.f.f.f.f.f.f.f.=.=.f.U.U.f.f.g.e.-.e.e.e.e.e.e.e.e.e.e.e.e.e.e.e.e.e.>.>.=.=.e.-.-.e.e.-.-.e.e.e.e.-.e.-.e.-.e.e.-.-.e.-.-.e.].(.].].].(.(.-.-.-.-.-.(.(.-.-.-.).).(.).).(.(.-.-.-.-.].(.].].e.e.e.-.).e.-.(.-.(.(.(._.h.:.(.).e.).`.e.`.].e.e.",
"k n @ @ @ k @ k @ @ @ @ @ @ @ % @ @ @ @ @ @ 3 @ 2 $ 2 2 @ @ @ @ @ # # @ $ $ @ @ $ 3 @ @ 3 3 % 3 3 3 % 3 % 3 3 3 @ @ @ 3 3 3 2 $ $ $ 2 % $ 2 3 # $ @ @ $ @ k @ e @ e 2 e e @ @ @ @ 2 2 2 2 2 2 @ 3 $ $ $ $ @ $ $ @ $ $ e 2 2 $ $ $ $ 2 $ @ @ $ $ e $ 2 @ $ 2 @ e @ $ 2 2 2 2 3 3 $ % % % 3 # # @ % $ F $ @ @ $ e @ $ $ $ F @ $ $ 3 @ r % $ % $ % $ $ $ % $ # # # # # # % # @ # # + ; $ $ F & $ F & ; F & & ; = + $ ; ; F L j ` %.$.=.U.g.f.f.f.f.f.f.=.=.g.f.f.f.f.f.f.f.f.f.f.f.f.f.f.f.T.f.f.f.f.f.f.;.;.f.f.f.f.f.f.f.f.f.f.f.f.T.T.T.T.T.f.f.f.f.f.f.f.f.f.f.f.f.f.f.=.=.=.f.f.U.U.U.U.>.e.e.e.e.e.e.e.-.e.e.e.e.e.e.e.e.e.e.e.-.-.e.=.e.e.e.-.e.-.e.e.e.e.e.-.e.e.-.e.e.e.e.e.e.e.e.e.e.e.-.(.(.).).(.(.(.-.(.(.-.-.(.(.e.-.(.(.).(.).).(.(.).-.-.-.(.(.-.].e.e.e.].).-.e.].-.].).(.(.)._.).e.e.-.(.`.`.`.e.e.",
"n n k @ k k k @ @ @ @ @ @ @ @ r % % % 3 @ @ @ @ @ @ k @ @ 3 3 @ @ 3 $ 3 % @ k @ $ 3 # @ 3 3 3 3 # % 3 3 3 3 3 3 3 @ 3 $ $ $ $ $ $ 2 2 2 2 @ @ # $ k @ @ 2 @ @ $ $ 2 2 @ $ e @ @ @ 2 @ 2 $ @ 2 $ $ $ $ @ $ @ $ $ 2 $ 2 e 2 # $ @ $ $ $ 2 @ @ e $ $ e $ $ @ @ e 2 e @ 3 2 2 3 3 $ % 3 3 # 3 3 @ k @ $ $ F F F $ F @ e $ $ $ $ $ $ $ % 3 $ $ % $ r $ $ $ $ % $ $ % # # # # # # # # & ; ; ; F F F & ; ; F & $ ; = = # ; V r A j %.%.*.=.g.e.=.f.f.f.f.f.=.=.=.f.f.f.f.f.f.f.f.f.f.f.f.f.f.f.f.f.f.f.f.f.;.;.;.f.f.f.f.f.f.f.f.f.f.f.f.T.T.T.T.T.T.T.f.f.f.f.f.f.f.f.f.f.f.=.=.=.=.f.f.U.U.f.g.>.=.e.e.e.e.e.e.e.e.-.e.e.e.e.e.e.e.e.e.-.-.e.=.e.e.e.e.-.e.e.e.e.-.-.-.-.-.e.-.-.-.-.e.e.e.e.e.e.e.e.-.-.).(.).(.e.-.(.).-.-.(.(.].-.(.(.(.(.e.e.).-.).(.).(.).(.-.].-.e.e.].(.].-.-.e.-.(.).(.(.).(.e.e.(.(.`.`.e.e.e.",
"n @ @ k @ k k @ @ @ @ @ @ k @ @ @ 3 3 3 3 3 @ 2 @ l @ @ @ @ @ @ 3 o o k $ @ @ $ @ o $ k @ % @ 3 d 3 % 3 3 3 3 3 3 3 % % $ % $ @ 2 2 @ $ $ @ 2 # @ @ 2 @ @ $ e @ $ 2 $ $ e e 2 @ @ 2 @ 2 3 l 2 % @ $ % @ $ $ 2 $ 2 2 e @ @ $ $ @ # @ @ 2 e e @ e $ @ $ $ @ @ 2 $ $ 2 % $ 2 @ 2 2 # $ 3 3 @ # # @ $ $ $ F F e F e @ @ F $ F F F $ $ # $ # # $ $ $ # # $ # % % # % # # % % $ # # @ $ $ $ F F r r ; ; ; & ; $ & + = $ & V J A j %.%.=.=.g.g.f.f.f.f.f.f.f.=.=.f.f.f.f.f.f.f.f.f.f.f.f.f.f.f.f.f.f.f.f.f.;.;.;.f.f.f.f.f.f.f.f.f.f.T.f.f.T.T.T.T.T.f.f.f.f.f.f.f.f.f.f.f.f.f.f.f.=.=.f.=.=.=.=.g.g.f.f.e.g.g.e.e.e.e.e.e.e.e.e.e.e.e.e.-.e.e.=.e.e.e.e.e.e.e.e.e.-.e.-.-.-.-.-.-.-.-.-.-.-.e.-.-.e.e.e.e.(.(.).-.-.-.-.).-.-.(.-.(.-.).).-.).e.e.e.e.(.].(.].e.e.e.].].e.].].-.(.].e.e.].(.).(.].).(.e.e.(.`.`.`.e.e.e.",
"n e @ n @ k n k @ @ @ @ @ @ $ % @ @ @ @ @ 3 @ 2 @ 3 $ 2 2 @ l l @ # 2 @ @ k @ @ @ k 3 @ 3 # 3 3 # # # 2 3 3 3 3 3 3 3 2 2 $ $ 2 % $ k $ $ $ $ 2 2 $ $ 2 k @ @ k @ e 2 @ k e $ e @ $ 2 2 % 2 $ % 3 % % r $ @ e $ @ 2 2 e 2 $ 2 @ e @ @ $ $ $ e e @ @ e $ $ e $ 2 2 2 @ @ @ 2 % 3 $ $ # 2 @ # % @ r $ $ F e e F F e e F F e e F $ $ k v % # # % $ $ $ r # $ # # # # # % % # # + - + = F F $ F F ; ; & & ; ; & ; = ; Q V F A j ` %.>.=.=.=.f.f.f.f.f.f.f.=.=.=.f.f.f.f.f.f.f.f.f.f.f.f.f.f.f.f.f.f.f.f.;.;.;.;.f.f.f.f.f.f.f.f.f.T.f.f.T.T.T.T.T.T.f.f.f.f.f.f.f.f.f.f.=.f.f.=.=.f.f.f.=.=.=.f.f.f.f.f.=.g.g.e.e.e.e.-.e.e.e.-.-.-.-.-.e.e.=.e.e.e.e.e.e.e.e.e.-.e.-.e.-.-.-.-.-.-.-.-.-.-.-.e.e.e.-.-.(.e.-.-.(.(.-.-.-.(.(.-.).-.).).).(.(.(.-.-.).-.(.(.e.e.e.-.].].(.].-.).).-.e.].(.).).(.).(.-.`.`.`.`.e.e.e.e.",
"k k n n @ @ @ @ k @ @ @ @ @ # % @ @ @ @ @ @ @ @ 3 2 2 2 2 2 2 @ @ @ @ k k k @ @ @ @ @ @ 3 @ 3 3 3 3 3 3 3 3 2 % % % % 3 @ 2 3 @ $ $ @ @ 2 $ 2 @ $ 2 k 3 3 k 2 $ @ @ e k k @ 2 2 @ 2 3 2 3 3 $ % @ $ r r $ @ 2 2 e $ e e $ 2 e e e $ $ @ $ $ @ e $ e @ e e $ e l 2 2 e 2 $ $ @ $ $ $ + $ @ @ % $ F e F e e @ F F F F F F F $ $ # # # # # # # % # $ $ r $ % % # - # # # $ - $ # # $ $ @ r $ ; & ; & & V ; $ $ # ; $ ; V J i j ` %.>.=.=.=.f.=.f.f.f.f.f.=.=.=.f.f.f.f.T.f.f.f.f.f.f.f.f.f.f.f.f.f.f.f.;.;.;.;.f.f.f.f.f.f.f.f.f.f.f.f.f.T.T.T.T.f.f.f.f.f.f.f.f.f.f.f.f.f.f.f.f.f.U.f.f.=.>.>.e.f.f.f.=.g.e.e.e.e.e.e.e.e.e.e.e.e.e.e.e.e.e.e.e.-.e.-.e.e.e.-.e.e.e.e.e.e.-.e.e.e.e.-.-.e.e.e.e.-.-.).].(.e.(.(.(.).e.).(.(.(.-.(.-.-.(.(.e.).-.e.(.(.).).(.).-.e.e.].(.].-.(.).-.e.].).).).(.(.(.].].`.e.e.e.e.e.e.",
"k n k n k @ @ k k @ @ v v @ @ k o k @ @ @ @ @ l 3 3 @ 3 3 2 2 3 @ @ 3 @ % $ e @ @ $ % $ % 3 3 3 3 3 3 3 3 % % % % % $ 2 3 2 2 2 $ 2 @ @ 2 2 @ @ 2 @ l @ $ 2 2 2 e e 2 e e e e 2 @ @ $ $ @ @ # $ 3 % @ @ $ $ @ @ 2 $ @ @ $ @ @ @ $ $ e @ e $ @ @ $ $ e @ F $ e @ $ $ $ $ $ # @ + # @ # $ $ $ $ # $ e e F F e F e e e e F F F $ $ $ $ % % % % @ # $ # # $ $ # % # # $ $ # + $ - # $ $ $ $ $ ; F $ & ; & ; $ & ; > > ; ; J i j ` %.*.=.=.=.f.=.f.f.f.f.f.=.>.f.f.f.f.f.T.T.f.f.f.f.T.f.f.T.T.f.f.f.f.f.;.;.;.;.f.f.f.f.f.f.f.f.f.f.f.f.f.T.T.T.T.f.f.f.f.f.f.f.f.f.f.f.f.f.f.=.f.f.f.f.f.=.f.g.g.f.f.f.f.g.e.e.e.e.e.e.e.e.e.e.e.e.e.e.e.e.e.e.e.e.-.e.e.e.e.-.-.e.e.e.-.e.-.e.-.-.e.-.e.e.e.e.e.-.-.-.-.(.(.(.e.e.(.(.(.-.-.(.-.(.-.-.(.-.-.(.(.(.).(.(.(.(.(.).].(.].].-.e.-.(.-.-.].).(.].(.].-.].].`.e.e.e.e.e.e.",
"k n k n o n n n @ @ @ v @ @ @ @ @ 3 3 @ @ k 3 @ @ @ @ % 2 2 @ @ @ 3 3 @ @ k k @ @ @ @ v 3 3 3 % 3 3 3 3 2 2 3 3 3 @ 3 2 3 2 $ 2 2 @ @ $ @ @ 2 @ $ 2 k 2 @ k @ @ $ @ e @ e e @ @ @ @ % 2 k 3 $ 3 $ $ @ @ $ $ k @ 2 2 e 2 2 @ @ @ $ $ @ $ e @ @ @ e $ 2 e $ $ @ $ 2 @ e e @ # 2 # $ $ # k $ # # $ @ e F $ $ F F F F e e e e F F F @ @ % $ % $ % r r F $ $ # # # # # # # # # $ # # $ $ ; $ F $ F ; & & ; & F & # = = $ ; n i j ` ).*.=.=.>.=.=.f.f.f.f.f.=.>.f.f.f.f.f.f.f.f.f.f.f.f.f.f.f.f.T.f.f.f.f.f.;.;.f.f.f.f.f.f.f.f.f.f.f.f.f.T.T.T.f.f.f.f.f.f.f.f.f.f.f.f.f.f.=.=.g.e.f.f.f.f.f.f.g.=.=.f.=.e.e.e.e.e.-.-.e.e.e.e.e.e.e.e.e.e.e.e.e.e.-.-.e.e.e.-.e.e.-.e.-.-.-.-.-.-.e.e.-.e.e.e.e.e.e.-.-.-.(.).(.e.-.(.(.).-.(.(.-.-.(.-.e.-.e.-.-.(.(.e.e.-.e.-.-.e.e.-.-.-.-.e.].].e.].).].].(.].-.(.].e.e.e.e.e.e.e.",
"k n k k n n n k @ @ @ @ @ % @ 3 3 3 @ @ 3 @ 3 @ @ @ @ 3 @ 3 @ @ 3 3 @ $ 3 @ 3 $ $ @ @ v 3 % 3 % 3 3 3 3 2 % 2 % # % % # % 2 2 @ @ @ @ $ @ @ $ k $ $ @ @ @ k @ k e 2 $ e e 2 $ $ @ $ $ 2 @ 3 2 3 2 3 @ @ @ @ e $ 2 @ @ e @ 2 $ @ $ $ F $ e @ @ e 2 @ e $ e e e $ @ @ 2 $ $ + $ 2 2 $ # k @ # # $ @ e F F F F F F F F F e e F $ $ $ $ $ # # # - $ $ $ $ $ $ $ # % # # % # $ # # - $ $ + $ $ $ $ ; $ F ; & & & & = ; & ; n i ` ` %.=.=.=.>.=.=.f.f.f.f.f.=.=.f.f.f.f.f.f.f.f.f.f.f.f.f.f.f.f.f.f.f.f.f.f.;.f.f.f.f.f.f.f.f.f.f.f.f.f.f.T.T.T.f.f.f.f.f.f.f.f.f.f.f.f.f.f.=.=.=.=.f.f.f.f.f.f.g.=.f.g.=.=.e.e.e.e.-.e.e.e.e.e.e.e.e.e.-.e.e.e.e.-.e.e.e.-.e.e.e.e.e.e.-.-.-.-.-.-.e.e.-.-.-.e.-.e.-.-.).-.e.(.(.(.).).(.e.-.(.(.-.e.(.(.(.-.-.-.-.(.(.(.(.(.].(.-.e.-.(.(.].].-.].].].].).(.(.).(.(.(.].`.e.e.e.e.e.e.",
"k k k e @ @ @ @ @ @ @ @ @ @ k @ k l l @ 3 3 @ @ @ 3 % @ @ @ @ 3 $ 3 3 % @ k k k @ @ @ @ @ 3 @ 3 3 3 3 3 3 3 3 2 % 3 2 % 3 @ 3 @ @ @ @ 2 @ @ $ @ k k @ @ e $ $ @ @ @ k @ @ @ @ @ e 2 2 2 2 @ 2 $ $ 3 @ r e @ $ $ e @ @ e @ e $ $ @ 2 $ @ @ @ $ # $ @ @ @ @ @ $ $ $ 2 @ 2 $ $ $ e 2 @ $ # @ @ @ F F e e e e @ @ e F F e @ e F $ $ $ $ # # # # - $ $ $ $ % % % # % # # $ % $ # # # @ $ $ F + $ # & @ & ; ; & & ; = ; & Q @ i ` +.$.=.=.=.>.=.f.f.f.f.f.f.=.=.=.f.f.f.f.f.f.f.f.f.f.f.f.f.T.f.T.T.f.f.f.f.f.f.;.f.f.f.f.f.f.f.f.f.T.T.f.f.f.f.T.T.T.f.f.f.f.f.f.f.f.f.f.f.f.f.U.U.f.f.f.f.f.f.g.g.f.U.=.e.e.e.e.e.-.-.e.e.e.e.e.e.e.e.e.e.-.e.e.-.e.-.e.e.e.-.e.-.-.-.e.e.e.e.-.-.-.e.-.).-.-.e.e.-.e.).-.-.(.(.).).).(.e.-.).(.-.e.(.(.(.-.e.e.-.-.(.(.(.).).(.(.(.(.(.(.].-.-.-.-.].].].(.).(.(.(.(.`.e.e.e.e.e.e.e.",
"J k n @ e @ n n @ @ @ @ @ @ @ @ @ @ @ l l 3 @ 2 @ 3 2 @ 2 @ 3 2 3 3 @ $ 3 k @ @ @ $ @ @ o 6 3 3 3 3 3 3 3 2 3 % % 2 2 2 @ @ 3 3 2 @ @ 2 @ @ 2 2 @ @ @ @ @ @ $ e $ 2 @ e 2 e @ @ 2 $ 2 2 % 3 3 $ % 2 @ $ $ @ @ @ @ 2 2 $ $ @ @ $ r $ $ $ e @ $ $ @ e @ k @ @ $ $ e @ l e $ @ 2 e & F @ # k $ $ @ @ @ F $ $ F F F F F e e F $ $ $ $ # # # $ $ $ $ $ $ $ % % % $ # # # # # - # + # r # $ $ = # # + $ & & ; F & ; ; ; $ ; o ..` ` $.=.=.=.>.=.f.f.f.f.f.f.=.=.=.f.f.f.f.f.f.f.f.f.f.f.f.f.f.T.f.f.f.f.f.f.f.f.;.f.f.f.f.f.f.f.f.f.T.T.f.f.f.f.T.T.T.f.f.f.f.f.f.f.f.f.f.f.f.U.=.=.f.=.U.f.f.f.=.=.=.U.f.=.e.e.e.e.e.-.e.e.e.e.e.e.e.e.-.e.-.e.e.e.e.e.e.-.e.-.e.-.-.e.e.-.e.e.-.-.e.e.e.-.-.-.e.e.e.e.-.-.(.).(.e.e.(.(.-.-.).(.-.-.(.(.e.(.(.(.(.(.(.).).(.(.(.).(.).].].].].-.-.e.(.].e.].).].(.(.].`.`.e.e.e.e.e.e.",
"J k n n @ k n n k @ @ @ @ @ 3 3 3 3 3 @ @ 3 @ 2 2 @ l o @ @ 2 % $ 3 @ @ 3 k @ @ o @ @ @ @ 3 % 3 3 3 3 3 % # % % % 2 2 2 3 2 2 @ $ 2 @ $ @ @ 2 2 $ $ 2 $ l n e @ $ @ e 2 @ @ 2 @ @ @ 2 @ 3 2 3 $ 3 @ $ $ e $ 2 @ 2 @ e $ @ @ r $ $ $ # $ e e @ k @ @ $ $ $ $ e @ @ e $ $ $ e $ e $ # e F k # # @ $ $ F $ $ $ F F F F e e $ $ $ $ $ @ 3 3 $ $ r $ $ $ # # - - # - # % % # # $ # # # # $ $ - $ @ # $ $ & $ F ; Q ; + $ ; 6 ..+.#.$.*.=.=.f.f.f.f.f.f.f.f.=.=.=.f.f.f.f.f.f.f.f.f.f.f.f.f.f.f.f.f.f.f.f.;.;.;.;.f.f.f.f.f.f.f.f.f.f.f.f.f.f.f.T.T.f.f.f.f.f.f.f.f.f.f.f.f.=.=.e.=.=.=.f.f.f.f.=.=.f.f.f.f.g.e.e.e.e.e.e.e.e.e.e.e.e.e.-.-.-.-.e.e.-.e.e.-.e.e.e.-.e.e.e.-.-.-.-.e.e.-.e.-.-.e.e.-.e.-.-.-.).(.(.-.e.(.).(.-.-.(.-.(.-.e.e.-.(.e.-.e.-.].-.-.(.-.-.e.e.].].].].e.-.e.].].e.].).].).).].].`.`.e.e.e.e.e.",
"k k @ @ e @ k @ @ % @ @ @ @ 3 @ 3 3 2 % 2 @ @ @ 3 @ l @ l @ @ 2 % % 3 @ k k k @ o @ $ $ 3 % % 3 3 3 3 3 3 % % 3 3 3 3 3 3 2 @ @ @ 2 l @ $ 2 $ @ @ @ $ $ k 2 # @ @ e @ @ @ e $ $ $ @ 2 3 3 $ 2 3 @ 3 # $ @ 2 2 2 2 @ 2 $ @ @ $ $ @ @ $ $ @ e k n @ @ # # $ $ $ e $ $ $ e e 2 $ $ $ $ $ $ @ $ F @ $ $ $ 2 e e @ e $ $ e @ e $ $ $ % % % # # - $ $ $ $ $ $ $ $ # - # # $ - + - # # - # $ $ - + # ; + $ ; $ & & ; ; $ # ; 8 j ` #.$.>.=.=.=.f.f.f.f.f.f.f.=.=.=.f.f.f.f.f.f.f.f.f.f.f.f.f.f.f.f.f.f.f.f.;.;.;.;.;.f.f.f.f.f.f.f.f.f.f.T.T.T.T.f.T.f.f.f.f.f.f.f.f.f.f.f.f.=.=.=.=.=.=.f.f.=.=.=.=.f.f.f.f.f.g.=.e.e.e.e.e.e.e.e.e.e.e.e.e.e.-.e.e.e.-.-.-.e.e.e.e.-.e.-.-.-.-.-.-.-.-.-.-.-.e.e.-.e.-.(.-.-.e.(.(.(.).e.-.(.).(.-.(.].-.-.-.e.e.-.e.-.(.(.(.(.).(.].(.(.].).).e.e.-.].].-.(.(.).).(.(.(.(.`.e.e.e.e.e.",
"k k e e @ k @ @ 3 % 3 3 % 3 @ 6 3 3 @ @ 3 @ % 3 @ @ @ 2 @ @ @ @ 3 3 @ 3 k @ $ $ $ $ $ % 3 3 3 % # # # % 2 % % 2 % % % $ $ $ $ @ 2 3 @ k @ $ 2 @ @ @ @ @ 2 $ # # @ $ @ @ e e e $ $ @ 2 2 @ % 2 @ @ @ $ $ @ e 2 2 e @ $ $ @ @ $ $ @ @ $ $ $ $ $ 2 @ @ @ @ @ @ $ $ $ $ 2 e e e e & $ $ $ $ $ F $ F $ $ $ $ $ $ 2 $ $ $ 2 2 $ $ $ $ % $ 3 $ $ $ $ # # # $ $ @ @ % # # # @ $ - = # # # # # % # + # $ # $ ; & & & Q ; + = = 8 j #.#.$.>.=.=.=.f.f.f.f.f.f.f.=.=.f.f.f.f.f.f.f.f.f.f.f.f.f.f.f.f.f.f.f.f.f.;.;.;.;.f.f.f.f.f.f.f.f.f.f.f.T.T.T.T.T.T.f.f.f.f.f.f.f.f.f.f.f.f.f.=.=.f.f.f.=.=.=.=.f.f.f.f.f.f.g.e.e.e.e.e.-.e.e.e.e.e.e.e.-.-.e.e.e.e.-.-.-.e.-.=.e.e.e.e.-.e.-.-.-.-.-.-.-.e.e.e.e.-.-.-.(.(.e.-.].(.(.-.-.-.).(.-.(.-.).).-.e.-.e.e.(.-.(.-.(.).(.(.(.(.).].).(.e.e.-.-.-.-.(.).(.(.].(.(.(.`.`.e.e.e.e.",
"k n k @ @ k k @ @ 3 @ 3 % % 3 3 3 3 l l @ 3 % 2 @ @ @ @ l 3 3 3 3 3 $ # @ 3 2 k @ k k % @ 3 3 % # # # 3 3 3 3 @ 3 3 3 @ @ @ @ @ @ 2 $ @ k $ 2 @ $ $ @ 2 2 k 2 # e @ @ e @ @ 2 2 @ @ # $ @ $ # $ % $ @ $ @ 2 $ $ 2 2 2 @ $ $ % $ $ $ $ $ $ $ $ $ @ @ k @ @ @ $ $ e e $ $ $ e @ # $ $ $ $ $ F $ F $ $ 2 2 $ $ 3 3 2 $ $ % # # $ % # # # - - - # $ $ $ $ - # # # # # + 3 % # + $ # $ # % $ - # - $ = & & ; e F ; $ + # # h  .#.#.$.>.=.=.=.f.=.f.f.f.f.f.=.=.f.f.f.f.f.f.f.f.f.f.f.f.f.f.f.f.f.f.f.f.f.;.;.f.f.f.f.f.f.f.f.f.f.f.f.f.T.T.T.T.f.f.f.f.f.f.f.f.f.f.f.f.f.f.f.=.=.f.f.f.g.e.=.=.f.g.f.f.f.f.g.e.e.e.e.e.e.e.e.e.e.e.e.e.-.e.e.e.e.e.(.e.-.e.-.=.e.e.e.e.e.e.-.-.e.e.e.-.-.-.e.e.e.-.-.e.-.(.(.(.].e.].-.).-.-.(.-.(.-.(.).).-.-.e.e.(.-.(.].(.(.(.(.(.(.(.].(.(.e.e.e.e.e.e.].).(.].e.(.(.(.`.`.`.e.e.e.",
"k k k @ @ @ @ @ 3 @ @ @ 3 3 3 3 3 3 2 2 2 @ @ l @ @ @ @ @ 3 3 3 3 3 3 % @ 3 % $ $ 3 @ 3 o 3 % 3 # # # 2 % % 2 % % % % % 3 3 3 @ @ @ @ 2 $ $ 3 3 $ $ @ $ 2 @ @ 2 2 e @ e e 2 e @ @ 2 $ 3 @ % 2 2 $ $ $ $ @ 2 $ 2 $ $ 2 3 $ # % $ $ $ $ @ e e @ @ @ @ @ 2 $ $ $ e e n $ $ $ @ n $ $ $ F @ e @ F n @ 2 @ @ 3 3 3 @ 3 3 2 % # $ $ $ % % % % % % $ r $ $ $ $ $ # # % # # $ $ # - $ # # + # # - # # $ + & ; ; F & Q # = = + h  .` #.$.>.=.=.>.>.=.f.f.f.f.=.=.=.f.f.f.f.f.f.f.f.f.f.f.f.f.T.T.f.f.f.f.f.f.f.f.f.f.f.f.f.f.f.f.f.f.f.T.f.f.f.T.T.f.f.f.f.f.f.f.f.f.f.f.f.f.f.f.f.=.=.f.f.f.f.=.=.=.=.e.=.f.f.g.e.e.e.e.-.e.e.e.e.-.-.-.e.e.e.e.-.e.e.e.e.e.e.-.=.e.e.-.-.e.-.-.-.e.e.-.-.e.-.-.e.-.-.).).-.-.(.(.(.e.e.(.).-.-.(.(.-.].(.).(.-.e.e.e.-.-.-.-.(.(.(.(.e.(.(.].].].].-.e.e.e.e.].(.(.-.-.(.(.(.(.`.`.e.e.e.",
"k F @ k @ 2 @ @ $ 3 % 3 @ 3 % 3 3 3 3 2 2 2 @ @ @ @ @ @ 2 3 @ 3 3 3 3 3 @ @ k $ @ 3 % 3 6 3 % 3 3 3 3 3 % 3 3 3 2 @ @ 3 @ 3 2 2 2 2 @ @ $ $ @ 3 $ @ @ $ $ 2 $ $ @ e e e e e $ 2 2 2 $ 2 @ 2 $ % @ 3 % $ @ $ $ 3 $ $ $ 3 3 % @ $ # # @ 2 @ 2 @ @ 2 $ 2 @ $ $ @ e $ e 2 @ e @ @ $ e @ @ $ $ F @ n 2 % % 2 3 % $ 2 $ $ 2 $ % $ 2 $ % $ # $ # # # $ $ $ $ $ $ $ $ # # # $ - # $ $ $ - - $ % # # # # # $ ; & F $ & # + = + m  .#.$.$.>.=.>.>.>.>.=.f.f.f.=.=.=.f.f.f.f.f.f.f.f.f.f.f.f.f.f.f.f.f.f.T.f.f.f.f.f.f.f.f.f.f.f.f.f.f.f.T.f.f.f.f.f.f.f.f.f.f.f.f.f.f.f.f.f.f.f.f.f.f.=.f.f.f.f.f.=.=.>.>.=.f.=.>.e.e.e.e.-.e.e.e.e.e.e.e.e.e.e.e.e.e.e.e.e.e.e.-.e.e.-.e.e.-.-.-.-.-.-.-.-.-.-.-.e.-.-.).(.(.e.e.].(.(.].(.-.-.].(.(.e.(.(.(.(.-.(.].e.-.-.-.-.(.(.-.).).).(.).(.].(.].e.e.-.-.(.(.(.].].(.(.(.(.`.`.`.e.e.",
"k n @ k @ 3 @ @ 3 3 3 3 @ 3 3 3 3 3 3 3 3 3 3 3 3 2 @ @ 2 3 3 3 3 3 3 @ @ @ % 3 @ @ @ 3 % % 3 3 3 3 @ @ @ 3 @ 3 2 @ 3 2 3 2 $ 2 2 2 3 @ $ 2 @ 3 2 @ @ 2 2 @ e $ @ @ e e @ @ 2 $ $ e $ 2 2 @ 2 % 3 3 2 % 2 3 $ $ 3 3 $ 3 3 $ 3 $ # @ o 2 + $ 3 3 3 @ 2 @ $ e e e e e 2 e e $ 2 $ 2 $ 2 $ @ e e @ @ 2 $ $ @ $ % 2 % $ 3 $ % 2 2 % % % % $ $ # $ $ r # $ $ $ $ @ $ $ $ $ - # F $ $ - - $ # # - # # # $ ; ; F & $ # - ; - h  .#.$.$.>.=.f.f.f.f.f.f.f.f.f.f.f.*.f.f.f.f.f.f.f.f.f.f.f.f.f.f.f.f.f.f.f.f.f.f.f.f.f.f.f.f.f.f.f.f.f.f.T.f.f.f.f.T.f.f.f.f.f.f.f.f.f.f.f.f.f.=.f.f.=.f.f.f.f.f.f.f.f.f.=.f.=.f.>.e.e.e.e.e.-.e.e.e.e.e.e.e.e.e.-.-.e.e.-.e.-.-.e.e.e.e.-.-.-.-.e.e.e.e.e.-.-.-.e.e.e.-.(.].-.e.].(.(.(.(.-.-.].(.(.].(.(.(.-.(.(.(.(.e.e.(.-.).).-.(.(.(.].).].-.].].-.-.].].].(.).].].(.(.(.`.`.`.e.e.e.",
"n k @ k @ @ 3 @ @ @ 3 3 @ 3 3 3 2 3 3 3 3 3 3 3 3 2 3 3 3 3 3 3 3 @ 3 3 @ @ % % 3 @ % % # % 3 3 % 3 @ 3 % % 3 % % 3 % $ 3 2 2 2 3 3 2 @ 2 3 2 3 2 @ @ @ @ @ @ $ @ @ e e @ @ 2 e @ e 2 2 $ @ 3 # $ 3 3 % % 3 $ % @ @ 3 3 $ % $ % $ 3 2 % @ 3 2 2 3 @ @ @ $ @ $ $ @ e e e 2 $ $ $ 2 2 @ @ k @ $ # # @ % $ @ 3 2 3 2 2 2 % $ % 2 % % $ @ $ @ @ F @ @ $ # $ # # F # # $ $ $ $ $ # # # # # # # # % - # # $ F F ; F - = = # h  .#.$.$.>.=.f.f.f.*.*.f.f.f.f.f.f.*.f.f.f.f.f.f.f.f.f.f.f.f.f.f.f.f.f.f.f.f.f.f.f.f.f.f.f.f.f.f.f.f.f.f.T.f.f.f.f.f.f.f.f.f.f.f.f.f.f.f.f.f.f.f.f.=.=.=.f.f.f.f.f.f.f.=.=.f.f.f.f.e.>.e.e.e.-.-.e.-.-.e.e.e.e.e.e.-.e.-.-.e.e.-.e.e.e.-.e.-.-.-.-.e.e.e.e.-.-.-.e.e.e.-.-.-.-.].(.(.(.].].].-.].].(.(.(.(.(.-.(.-.-.(.(.].(.e.(.(.-.-.(.(.].].-.-.-.].].].].].].(.).(.].].(.(.`.`.`.e.e.e.",
"@ k @ @ k @ 2 @ @ 3 3 @ 3 3 3 3 3 3 4 3 3 3 3 @ @ 3 3 3 % 3 3 3 3 6 % d % 6 6 @ 3 % % 3 3 3 3 % % 3 3 % # d 3 % 3 @ 3 % 3 2 2 3 3 3 2 @ 2 3 @ 3 2 @ @ e e @ @ 2 @ @ e e @ @ @ @ e e @ @ 2 @ 3 % % $ 3 % % 3 2 % 3 @ 3 3 3 $ $ 3 2 # % @ 6 3 2 $ # $ @ @ $ @ @ e 2 2 e e @ @ @ 3 3 2 2 % % # # # $ $ % $ 2 % % 3 3 % $ 2 3 2 2 2 3 + $ # # $ + @ F F ; @ $ F @ $ $ $ $ $ $ $ # # # # # # # - % + # # ; F F Q & F + = r m ..#.$.>.=.=.f.>.>.=.*.*.*.*.*.f.f.*.*.f.f.f.f.f.f.f.f.f.f.f.f.T.T.T.T.f.f.f.f.f.f.f.f.f.f.f.f.f.f.f.f.f.T.f.f.f.f.f.f.f.f.f.f.f.f.f.f.f.f.f.f.f.=.=.=.=.=.=.=.f.=.f.f.f.f.f.f.=.e.e.e.e.-.-.e.e.-.-.e.e.e.e.e.e.e.e.-.-.e.e.e.-.e.e.e.-.e.-.-.-.-.-.-.e.e.-.-.e.e.e.e.e.e.e.].(.(.].].].(.(.].-.].(.).(.(.].e.-.e.-.(.(.(.).-.(.(.].-.(.].].].].(.-.e.-.].(.).).(.].].(.(.(.].`.`.`.`.e.e.",
"@ @ @ 2 @ @ $ @ @ % 3 k 3 3 3 3 3 3 4 l 3 3 @ 3 2 2 3 3 % 3 3 3 3 3 3 3 % 3 6 6 3 % % 3 3 3 3 3 % % 3 3 % % 3 # % 3 3 2 3 3 2 3 2 3 3 @ 2 @ @ @ 2 @ @ $ e @ @ e @ e e e e @ e @ 2 2 @ @ @ @ @ @ $ % 3 3 $ 3 @ $ $ 3 $ $ 3 3 % % % % @ 3 3 2 3 3 @ 2 3 @ 2 2 @ @ e e e $ 2 2 $ $ 2 2 @ 3 $ $ @ $ $ @ 3 2 $ 2 % 3 3 $ % 3 3 2 $ 2 $ $ $ $ e F $ @ $ @ # $ $ F F $ $ $ F # $ $ - $ # $ # # # + % + # = + ; = ; $ # ; = # h  .$.$.-.-.=.=.f.>.>.*.*.*.*.*.*.f.*.*.f.f.f.f.f.f.;.f.f.f.f.f.T.T.T.T.f.f.T.T.T.f.f.f.f.f.f.f.f.f.f.f.f.f.f.f.f.f.f.f.f.f.f.f.f.f.f.f.f.f.f.f.f.=.=.=.=.=.=.=.=.=.f.f.f.=.>.>.>.e.e.e.-.-.e.e.e.e.e.e.e.e.e.e.e.-.e.-.-.e.e.e.-.e.e.-.e.e.-.-.-.-.-.-.-.e.-.-.e.e.e.e.e.e.e.].(.(.].].(.(.(.].-.].(.).(.(.].e.-.e.-.(.-.-.(.(.(.).].(.(.(.-.-.].(.-.e.-.].].).(.(.-.].(.(.(.(.`.`.(.`.e.e.",
"@ @ k @ k @ 3 @ k @ @ @ 3 3 @ 3 3 2 2 3 3 3 l 3 2 3 3 @ 3 3 3 3 3 3 3 3 3 % % 3 3 % % % % % 3 3 3 3 3 3 % 3 3 % 3 3 3 3 2 3 % 3 3 3 3 3 3 3 2 @ 3 @ @ @ @ @ @ e e e @ e e e $ e e e @ $ $ $ 3 @ $ % % $ % $ 3 $ $ @ 3 $ 3 3 $ 3 3 3 3 # % 3 @ @ k $ # 3 @ $ $ @ @ e e $ $ $ $ $ 2 $ @ 2 2 e @ @ e 2 3 2 $ 2 2 2 3 $ % 3 3 $ 2 @ 2 $ $ @ $ $ $ $ F # # # $ $ $ $ $ $ F $ $ # ; $ $ $ # - # + % + # % $ $ $ $ $ # $ + # m ..#.).>.>.=.>.>.>.>.>.>.*.*.*.f.f.f.f.f.f.f.f.f.f.f.f.f.f.f.f.T.T.T.T.T.f.T.T.T.T.f.f.f.f.f.f.f.f.f.f.f.f.f.f.f.f.f.f.f.f.f.f.f.f.f.f.f.f.f.f.f.f.f.f.f.f.=.=.f.f.f.>.=.>.e.e.e.-.e.e.-.-.-.e.-.-.e.-.-.e.e.e.e.-.e.e.e.e.e.e.e.e.e.e.e.e.-.-.-.-.-.-.-.-.-.-.e.e.e.-.-.-.-.-.].].].].(.(.(.].].].(.(.(.(.].e.].-.-.(.e.e.).(.(.).-.(.(.).).].-.-.-.-.(.(.-.-.(.).).).(.].(.`.`.`.(.`.e.e.",
"@ @ @ @ @ @ @ @ 3 @ @ 3 3 3 3 3 3 3 3 3 2 2 3 3 @ @ 3 3 3 3 3 3 3 3 # # % 3 3 3 3 % % 3 6 3 3 3 3 3 3 3 # 3 3 3 @ 3 3 3 3 @ 3 @ @ 3 3 @ @ 3 2 @ 2 @ @ e @ @ e e @ n $ e @ 2 e 2 $ @ @ # @ $ # 3 @ @ $ $ $ 3 @ $ $ @ 3 % % % $ 3 % 3 3 2 2 $ @ @ @ $ @ 2 $ $ l @ $ e e e 2 2 2 2 3 $ 2 $ $ $ $ $ $ $ 3 @ 2 2 2 2 3 $ % 3 2 % $ @ 2 $ # $ # # $ ; @ $ $ # k F $ @ $ $ F $ $ # ; $ $ $ # - # - # - # - - $ $ # ; ; ; > $ m ..$.$.>.=.*.*.>.>.>.>.>.*.*.f.f.f.f.f.f.f.f.f.f.f.f.f.f.f.f.f.T.T.T.T.f.f.T.T.T.T.T.f.f.f.f.f.f.f.f.f.T.T.T.f.f.f.f.f.f.f.f.f.f.f.f.f.f.f.f.f.f.f.f.f.f.f.=.=.f.f.=.>.=.>.=.f.e.-.e.e.e.e.e.e.e.e.-.e.e.-.e.e.e.-.-.-.e.e.e.e.e.e.e.e.e.e.-.-.-.e.-.-.-.-.-.e.e.e.e.-.-.-.-.-.-.].(.(.(.].].].(.(.].].(.(.(.e.(.-.e.(.e.-.(.e.(.(.(.(.(.(.).].-.-.-.].(.(.].-.(.).).).(.].(.`.`.`.(.(.e.e.",
"@ @ @ @ @ @ k @ $ @ @ 3 3 3 % 3 3 l l l 3 3 @ 3 @ @ 2 3 3 3 3 3 3 3 3 3 3 % 3 6 5 0 # 3 3 3 3 % # # % % 3 3 3 % 2 # % 2 3 @ 3 3 3 3 3 3 3 @ @ @ 2 @ @ $ e @ e e @ @ & e @ 2 e $ e @ e $ @ @ 2 3 @ 3 # $ 3 @ @ $ $ @ 3 $ $ $ @ @ % % 3 3 3 % 3 @ $ e o l $ $ k 3 $ 2 2 2 2 $ 2 2 2 3 @ 2 3 $ 2 e e e 3 @ 3 @ 2 $ $ 2 @ 3 % $ 2 2 $ F @ $ $ F $ - k $ $ $ @ $ $ $ # # $ $ # $ $ $ $ # # # # - - - % - - ; > = $ $ # , # h ..$.$.>.-.>.*.f.f.>.*.=.>.*.f.f.f.f.f.f.f.f.f.f.f.f.f.f.f.f.f.T.f.T.T.f.f.f.f.f.f.T.T.f.f.T.f.f.f.f.f.f.f.f.T.T.f.f.f.f.f.f.f.f.f.f.f.f.f.f.f.f.f.f.=.f.f.=.f.f.f.=.>.>.>.=.f.f.=.f.=.e.-.-.-.e.-.e.e.-.e.e.e.e.-.-.e.e.e.e.e.e.-.e.e.e.e.-.-.e.e.e.e.-.e.e.e.e.e.e.e.-.-.-.-.-.].(.(.(.].].].(.].].].(.).(.e.].e.e.).(.(.(.e.(.(.(.(.).(.].].].].].].-.].).).).(.(.(.(.(.(.(.`.(.(.(.e.e.",
"n k @ l k @ k @ @ k @ 3 @ @ 3 @ 3 3 3 l l l l @ @ @ @ @ 3 3 3 % % 3 5 5 3 % % 3 3 0 0 3 0 d 0 % % % 3 3 3 3 % % % % 2 2 % 2 % % 2 3 3 3 @ 3 2 @ e e @ e @ @ e @ e e e e $ $ e e n k @ 2 @ 3 @ @ @ 3 % $ @ @ @ 3 $ % 3 $ $ $ @ 3 % % 3 3 3 3 $ $ 2 $ @ @ $ $ $ 2 @ @ 2 e e $ 3 2 2 2 2 $ 3 $ $ 2 e e 2 2 2 2 2 $ $ 2 @ @ $ $ 2 2 $ $ $ # # $ + $ @ $ ; F F F $ # $ $ $ $ # $ $ $ $ + # $ # - + - % - = $ $ $ $ $ $ = $ i &.$.$.>.>.>.f.f.f.f.f.=.f.f.f.f.f.f.f.f.f.f.f.f.f.f.f.f.f.f.f.f.f.T.f.f.f.f.f.f.f.T.T.T.f.f.f.f.f.f.f.f.f.T.T.f.f.f.f.f.f.f.f.f.f.f.f.f.f.f.f.f.f.=.=.f.f.=.=.f.f.>.>.>.>.f.f.f.e.>.f.=.e.e.e.e.e.e.-.-.e.e.e.e.-.-.e.e.e.e.e.e.e.e.e.e.-.-.-.e.e.e.e.e.e.e.e.e.e.e.e.-.-.-.].-.].(.(.(.].].].(.(.].].(.).(.e.-.-.].).(.(.).(.(.(.(.).(.-.].(.].-.].].].].).).(.(.(.(.].(.(.(.`.`.(.(.e.e.",
"n @ @ @ @ @ @ 3 3 3 3 3 3 3 3 3 3 3 l 3 3 @ 3 @ @ @ @ @ 3 3 @ 3 3 # # % 5 3 d d 3 3 5 3 3 3 3 3 3 3 3 3 3 3 % 3 3 3 3 3 % 2 3 3 3 @ 3 3 l 3 2 @ e @ l @ @ e e @ @ e e e e e l e @ e @ @ @ $ @ 3 3 3 $ $ @ @ 3 @ @ 3 3 $ $ $ 3 3 3 3 @ 3 # 3 3 e @ @ F @ k k @ 2 $ $ e @ @ $ 3 3 2 % $ $ @ 2 $ 2 e @ @ @ @ @ @ @ $ $ $ $ $ $ $ $ $ $ $ # $ @ # $ @ $ ; F $ F $ $ $ $ $ $ $ $ $ $ $ - # # # # - - # # - $ - $ $ = # + # h ..#._.$.>.=.>.*.>.>.*.f.f.f.f.f.f.*.*.*.f.f.f.f.f.f.f.f.f.f.f.T.T.T.T.f.f.f.f.f.f.f.f.f.f.f.f.f.f.f.f.f.f.f.T.f.f.f.f.f.f.f.f.f.f.f.f.f.f.f.f.f.f.=.=.f.f.=.=.=.=.f.f.=.>.=.f.f.e.e.f.f.e.e.f.>.e.e.e.e.-.e.e.e.e.-.-.e.e.e.e.e.e.-.-.-.-.-.e.e.e.e.e.e.e.e.-.-.e.e.e.e.e.e.].].].].].(.(.(.].-.].(.(.(.(.].e.(.(.-.(.-.].).(.(.(.].(.(.-.].(.(.-.].].].].).(.).).(.(.(.(.(.(.`.`.(.`.e.e.",
"k k k @ @ k @ @ @ 3 3 @ 3 3 3 3 @ 3 l 2 3 @ 2 @ k @ @ @ @ @ 3 3 3 3 % 3 5 3 # 0 3 5 3 3 % 3 6 5 3 3 3 % % % % 3 3 3 3 3 3 3 @ 3 3 3 3 2 @ @ @ l @ @ @ 2 e @ @ @ e e e e e e 2 2 @ $ @ @ 2 3 @ % 3 3 $ $ 2 @ 3 @ @ $ $ @ $ $ 3 2 3 @ 3 # = $ 2 @ @ k @ F $ 3 $ $ @ $ $ e @ 2 @ 2 2 2 2 2 @ e e e e @ @ 2 $ @ @ e $ $ $ $ $ $ @ 2 $ $ $ $ # $ # # F $ + $ @ $ ; $ # # $ $ $ $ $ $ # # - # # # # - # # = = + $ $ = $ + = h ` $.$.*.-.=.>.*.>.*.*.f.f.*.f.f.f.*.*.f.f.f.f.f.f.f.f.f.f.f.f.T.T.f.f.f.f.f.f.f.T.f.f.f.f.f.f.f.f.f.f.f.T.f.T.f.f.f.f.f.f.f.f.f.f.f.f.f.f.f.f.f.f.f.=.f.=.=.=.=.=.f.=.=.e.e.=.f.e.e.f.f.e.e.f.=.e.-.e.-.e.e.e.e.e.-.-.e.e.e.e.e.e.e.-.-.-.-.-.e.e.e.-.e.e.e.e.-.e.e.e.e.e.e.].(.(.].].(.(.(.].-.].(.).).(.].-.(.(.-.].-.].(.-.(.(.-.].].(.(.(.(.].].].].].(.(.(.(.).(.(.(.(.(.`.(.(.`.e.e.",
"@ @ k @ @ k @ @ @ @ 3 @ 3 3 3 3 3 3 l 2 l n @ l l @ @ @ 3 @ 2 % 3 3 3 3 3 3 3 3 % 0 3 3 % d d 3 3 3 3 % 3 % % 3 3 3 3 3 3 3 l 3 3 @ 3 2 @ 2 3 @ @ e @ @ @ @ @ @ e e @ 2 e 2 & $ @ 2 @ 2 $ 2 3 2 o $ @ $ @ @ @ @ @ $ @ e $ @ $ % $ % % 3 3 o 3 $ # @ $ $ $ k % $ k @ @ 2 @ @ 3 % % 2 3 2 2 e @ 2 $ e k @ $ 2 @ @ @ e $ 2 @ $ $ $ $ $ $ $ # # $ ; F $ $ $ k $ ; F ; # $ $ $ $ $ # # # - $ # # # + # # = # $ & $ - $ # # h  .$._.-.-.=.=.f.f.f.f.f.f.*.*.f.f.f.f.f.f.f.f.f.f.f.f.f.f.f.f.f.f.T.f.f.f.f.f.T.T.T.T.f.f.f.f.f.f.f.f.f.f.T.f.f.f.f.f.f.f.f.f.f.f.f.f.f.f.f.f.f.f.f.=.=.=.=.=.f.f.f.f.>.>.=.=.f.e.-.=.f.-.-.f.e.-.e.-.e.e.e.e.e.e.e.e.e.e.e.e.e.e.e.-.e.e.e.e.e.e.-.-.-.-.-.-.-.-.e.e.-.-.e.].].(.].].].(.(.].-.].(.(.(.(.(.(.(.(.e.].(.(.-.e.].].(.(.].(.).].].-.].].).).].].(.(.(.(.).].`.(.(.(.`.e.e.e.",
"@ $ k @ @ @ @ 3 @ @ 3 2 3 3 3 3 3 @ 6 @ @ l @ @ @ 2 @ @ 2 @ 3 3 3 % % % 3 3 3 3 3 0 3 6 3 % % % 3 3 3 3 6 3 3 3 3 3 3 @ 3 3 l 3 @ @ 3 @ l 2 2 2 @ @ @ l e e e @ e e e e e @ e 2 $ $ $ 2 @ $ % @ $ $ 2 $ $ @ @ $ @ @ @ e $ @ @ $ 3 % 3 @ % 3 $ @ 3 @ @ $ $ k @ $ $ $ F $ @ @ 3 % % $ 2 2 2 @ @ @ @ @ @ @ e @ @ e e @ $ $ e $ $ $ $ F ; $ $ # e $ F $ $ # @ $ # F $ - F $ F $ # $ # $ - # # # % + # # = # # # $ ; & ; - h  .$.).>.-.=.=.f.f.f.f.f.f.*.*.f.f.f.f.f.f.f.f.f.f.f.f.f.f.f.f.T.f.T.f.f.f.f.T.T.T.T.T.f.f.f.f.f.f.f.f.f.f.f.f.f.f.f.f.f.f.f.f.f.f.f.f.f.f.f.f.f.f.f.=.=.=.=.=.f.f.f.f.>.>.>.f.f.>.e.=.f.-.e.>.e.e.e.e.e.-.-.e.e.e.e.e.e.e.e.e.e.e.e.e.-.e.-.e.e.e.-.-.-.-.-.-.-.-.e.-.-.-.-.].].].(.(.].].].].].].].(.(.).).-.(.(.].(.(.(.(.-.-.e.(.(.].(.(.].].].].].(.(.].].(.(.(.(.(.].`.(.(.(.`.e.e.e.",
"@ @ k @ @ k o @ @ @ @ 3 @ 3 3 3 @ 3 l 3 @ l @ @ @ @ @ @ @ @ @ 3 3 3 % % 3 3 3 3 3 3 % 3 6 3 3 3 @ 3 3 3 6 3 3 3 3 3 3 3 3 3 3 3 3 3 3 3 @ 2 @ @ @ e e e e @ @ @ J J @ e e @ e @ @ @ $ 2 @ @ % 2 $ 2 @ $ $ @ @ $ @ k @ $ $ $ e $ $ # @ 3 # @ @ 3 # % $ $ 3 @ @ $ $ $ e $ @ @ @ 2 3 % 2 2 2 e @ e e e e e e @ e $ e @ $ $ e $ $ e e $ # # $ # F F $ # + # F # # $ $ $ F $ F # - # # $ - # - # % - # 3 - = + & $ # $ + = h  .$.$.=.g.=.*.=.f.>.>.*.*.*.f.f.f.f.f.f.f.f.f.f.f.f.f.f.f.f.f.f.f.f.f.f.f.T.T.T.T.T.T.T.f.T.T.f.f.f.f.f.f.f.f.f.f.f.f.f.f.f.f.f.f.f.f.f.f.f.f.f.f.f.f.=.=.=.f.f.f.=.=.=.>.>.e.=.>.e.=.=.e.e.>.e.-.e.-.e.e.e.e.e.e.-.-.e.e.e.e.e.-.-.-.e.e.-.-.e.e.e.e.-.-.-.-.-.e.e.e.-.-.-.-.].].(.(.].].].].(.(.].].(.).(.e.(.(.].(.(.(.(.(.(.-.(.).-.].].].).).].-.].(.).(.(.).].(.).(.(.(.(.(.`.e.e.e.",
"k @ @ @ @ @ k @ 3 @ 3 $ 3 3 3 3 3 @ 3 3 @ l @ @ l k @ @ @ @ 3 3 3 3 3 3 3 % % 3 3 % 3 @ 3 % % @ @ 3 % 3 3 3 3 @ 3 3 3 3 3 3 3 3 3 3 2 3 @ 2 @ @ @ e e @ e @ @ @ @ @ e e e e e @ l k $ $ @ @ $ $ 2 $ $ $ $ @ @ $ e @ @ @ @ e @ @ $ $ @ 3 $ v @ % # % @ % $ $ @ @ k @ @ e @ @ @ 3 @ 3 @ 2 2 2 2 $ $ $ @ @ e e e e e e e $ e e $ $ e @ e # $ $ $ $ $ $ & $ F # $ $ $ $ $ ; F $ $ $ # $ # # - # # # # # = = + # $ = & ; = h  .$.).-.=.=.*.>.>.>.>.*.*.*.f.f.f.f.f.f.f.f.f.f.f.f.f.f.f.f.f.f.f.f.f.f.f.T.T.T.T.T.T.f.f.T.T.f.f.f.f.f.f.f.f.f.f.f.f.f.f.f.f.f.f.f.f.f.f.f.f.f.f.f.f.f.=.f.f.f.f.f.f.=.>.>.>.e.e.e.e.=.=.f.e.e.-.-.-.-.-.e.e.e.e.-.-.e.e.e.e.e.-.e.-.e.e.-.-.e.-.e.e.-.-.e.-.-.e.e.e.e.-.-.-.].].(.(.].].].].(.(.].].(.(.-.e.).(.e.-.(.(.(.(.).].(.(.e.(.(.(.).).(.].].(.(.(.(.(.(.(.).(.].(.(.(.`.e.e.e.",
"k @ @ @ @ @ @ @ @ @ 3 % 3 @ 3 3 @ o l @ @ @ @ e k k 2 3 @ @ 3 3 o # % 3 3 3 % % 3 3 @ @ % 3 @ @ 3 3 % 3 @ 3 3 3 3 3 3 3 l l @ 3 3 3 2 @ n 2 2 2 @ @ @ n e e e @ @ e $ @ @ @ @ e $ e $ @ l @ $ $ $ 2 e F F @ @ $ e @ $ @ @ $ e @ $ $ @ 3 # % % % % @ o @ $ $ @ $ F $ $ $ @ @ k @ @ 3 2 $ 2 2 e @ @ e $ $ $ $ $ $ $ @ @ F e @ @ $ e $ $ # # & $ F $ # ; F e $ $ $ $ $ $ ; $ $ $ $ $ # # $ + # # # # # % + $ e $ # @ & = m  .#.$.>.-.>.>.=.=.>.=.*.*.f.f.f.f.f.f.f.f.f.f.f.f.f.f.f.f.f.f.T.T.f.f.f.f.T.T.T.T.f.f.f.f.T.T.f.f.f.f.f.f.T.f.f.f.f.f.f.f.f.f.f.f.f.f.f.f.f.f.f.f.f.f.=.=.f.=.f.f.f.f.f.=.e.e.>.f.f.f.e.f.=.e.e.=.e.-.-.e.e.e.e.e.-.-.-.-.e.e.e.-.-.e.e.e.-.-.-.-.e.e.e.-.e.e.-.e.e.e.e.-.-.].].].(.(.(.].].].].].(.(.(.(.-.e.(.(.e.-.(.(.(.(.(.].(.).-.).).).].-.].).).).(.).).(.(.).(.(.(.(.(.(.`.e.e.e.",
"k @ @ @ @ @ @ @ 3 3 @ 3 3 3 3 3 @ @ 3 @ @ @ @ @ @ @ @ @ @ @ 3 3 3 o % % 3 @ 3 % 3 @ @ 3 % 3 @ @ 3 o 3 @ 3 3 3 3 3 3 @ @ 3 2 2 l 3 3 3 @ @ @ @ @ @ @ e @ e @ @ @ @ e @ n e @ e e e e $ @ $ % $ @ 2 e @ e $ $ e e @ @ $ @ @ $ e @ $ @ @ 3 % $ 3 3 % 3 @ $ % @ @ F @ @ @ @ 3 # @ 2 3 2 2 2 e e @ @ @ @ $ $ e 2 e $ $ e e $ $ @ @ $ @ $ ; $ F $ @ e F $ $ $ $ $ $ $ $ $ $ ; $ $ $ ; $ $ # # + # - # # # # = + + $ # + = + h  .#.>.-.-.>.=.=.=.=.f.*.f.f.f.f.f.f.f.f.f.f.f.f.f.f.f.f.f.f.f.T.T.T.f.f.f.f.T.f.f.f.f.f.f.T.f.f.f.f.f.f.f.f.f.f.f.f.f.f.f.f.f.f.f.f.f.f.f.f.f.f.f.f.f.f.=.=.f.f.>.=.f.f.f.f.f.e.f.f.f.e.f.f.e.e.g.e.-.e.e.e.e.e.e.-.-.e.e.e.e.e.-.e.-.-.e.-.-.-.-.e.e.e.e.e.e.e.e.e.e.e.e.e.].].(.].].].(.].].-.].(.(.(.(.].-.].].e.-.-.(.].(.(.].).(.(.(.(.(.].-.].).(.(.(.).(.).(.).(.(.(.(.(.(.e.e.e.e.",
"k @ @ @ @ @ @ @ 3 3 @ 3 @ 3 @ 3 3 @ 3 @ @ @ @ @ @ @ @ @ @ 3 @ 3 3 3 3 % 3 @ 3 3 3 @ @ @ % 3 @ 3 3 3 3 3 3 3 3 3 3 3 3 @ 3 3 3 l @ 3 3 @ @ @ @ @ @ @ e e e @ @ e @ e e n e e @ e e @ $ @ $ # @ @ 2 2 @ e 2 $ e e @ e $ @ 2 $ e @ $ @ @ $ $ @ @ 3 $ 3 @ # $ @ @ @ @ @ 3 @ 3 2 @ % @ 2 2 @ 2 @ @ @ 2 $ $ $ 2 @ e $ e $ $ e $ e e F e $ # e F $ & F F $ $ $ & $ $ $ $ $ $ ; ; $ $ ; $ $ $ ; # $ + - # = % 2 + $ # + e ; + h ..$.=.-.-.>.=.=.*.*.f.f.f.*.f.f.f.f.f.f.f.f.f.f.f.f.f.f.f.f.f.f.T.T.T.f.T.T.f.f.f.f.f.T.T.T.f.f.f.f.f.f.f.f.f.f.f.f.f.f.f.f.f.f.f.f.f.f.f.f.f.f.f.f.f.f.=.=.=.f.=.=.=.=.=.f.f.=.=.f.=.=.f.f.=.e.g.-.-.e.e.e.e.e.-.-.e.e.e.e.e.-.-.e.e.e.e.-.e.-.e.e.-.e.e.(.e.e.-.e.).-.e.-.].(.].].].(.(.(.].-.].-.(.(.(.(.e.].].e.-.-.-.-.-.-.-.(.(.(.-.].].].].(.(.(.].(.(.).).).(.(.(.(.(.(.(.e.e.e.e."};
